;FLAVOR:Marlin
;TIME:3771
;Filament used: 2.99971m
;Layer height: 0.2
;MINX:77.633
;MINY:67.619
;MINZ:0.2
;MAXX:142.385
;MAXY:132.383
;MAXZ:10
;Generated with Cura_SteamEngine 5.3.0
M140 S60
M105
M190 S60
M104 S230
M105
M109 S230
M82 ;absolute extrusion mode
; Ender 3 Custom Start G-code
G92 E0 ; Reset Extruder
G28 ; Home all axes
G1 Z2.0 F3000 ; Move Z Axis up little to prevent scratching of Heat Bed
G1 X0.1 Y20 Z0.3 F5000.0 ; Move to start position
G1 X0.1 Y200.0 Z0.3 F1500.0 E15 ; Draw the first line
G1 X0.4 Y200.0 Z0.3 F5000.0 ; Move to side a little
G1 X0.4 Y20 Z0.3 F1500.0 E30 ; Draw the second line
G92 E0 ; Reset Extruder
G1 Z2.0 F3000 ; Move Z Axis up little to prevent scratching of Heat Bed
G1 X5 Y20 Z0.3 F5000.0 ; Move over to prevent blob squish
G92 E0
G92 E0
G1 F2700 E-5
;LAYER_COUNT:50
;LAYER:0
M107
G0 F6000 X86.538 Y78.871 Z0.2
;TYPE:SKIRT
G1 F2700 E0
G1 F1200 X87.046 Y78.319 E0.02495
G1 X87.549 Y77.812 E0.0487
G1 X88.274 Y77.106 E0.08236
G1 X88.929 Y76.485 E0.11238
G1 X89.52 Y75.966 E0.13854
G1 X90.051 Y75.537 E0.16125
G1 X90.978 Y74.811 E0.20041
G1 X91.53 Y74.39 E0.2235
G1 X92.127 Y73.967 E0.24784
G1 X92.556 Y73.686 E0.26489
G1 X93.792 Y72.912 E0.3134
G1 X94.338 Y72.581 E0.33463
G1 X94.974 Y72.225 E0.35888
G1 X95.692 Y71.86 E0.38567
G1 X96.697 Y71.373 E0.42281
G1 X97.433 Y71.028 E0.44984
G1 X98.271 Y70.68 E0.48002
G1 X99.652 Y70.177 E0.52891
G1 X100.557 Y69.865 E0.56075
G1 X101.265 Y69.65 E0.58536
G1 X101.924 Y69.478 E0.60801
G1 X103.007 Y69.214 E0.64509
G1 X103.746 Y69.044 E0.67031
G1 X104.297 Y68.933 E0.689
G1 X104.909 Y68.835 E0.70962
G1 X106.264 Y68.651 E0.7551
G1 X107.088 Y68.551 E0.7827
G1 X107.863 Y68.487 E0.80857
G1 X108.442 Y68.462 E0.82784
G1 X109.616 Y68.43 E0.86691
G1 X110.444 Y68.419 E0.89445
G1 X110.98 Y68.426 E0.91228
G1 X111.575 Y68.458 E0.9321
G1 X113.128 Y68.579 E0.98391
G1 X113.791 Y68.641 E1.00605
G1 X114.381 Y68.714 E1.02583
G1 X114.909 Y68.8 E1.04362
G1 X116.425 Y69.083 E1.09491
G1 X117.111 Y69.222 E1.11819
G1 X117.966 Y69.434 E1.14749
G1 X119.518 Y69.891 E1.2013
G1 X120.353 Y70.155 E1.23043
G1 X120.852 Y70.328 E1.248
G1 X121.396 Y70.541 E1.26743
G1 X122.855 Y71.154 E1.32006
G1 X123.541 Y71.456 E1.34499
G1 X124.351 Y71.856 E1.37504
G1 X125.789 Y72.649 E1.42966
G1 X126.427 Y73.014 E1.4541
G1 X127.071 Y73.415 E1.47934
G1 X127.53 Y73.725 E1.49776
G1 X128.518 Y74.417 E1.53788
G1 X129.274 Y74.965 E1.56893
G1 X129.964 Y75.514 E1.59826
G1 X131.261 Y76.642 E1.65543
G1 X131.809 Y77.136 E1.67997
G1 X132.448 Y77.766 E1.70982
G1 X133.615 Y79.023 E1.76686
G1 X134.076 Y79.538 E1.78985
G1 X134.548 Y80.106 E1.81442
G1 X134.996 Y80.689 E1.83887
G1 X135.683 Y81.614 E1.87719
G1 X136.151 Y82.263 E1.90381
G1 X136.651 Y83.026 E1.93415
G1 X137.397 Y84.284 E1.98279
G1 X137.861 Y85.095 E2.01387
G1 X138.217 Y85.777 E2.03946
G1 X138.571 Y86.529 E2.0671
G1 X139.246 Y88.039 E2.12211
G1 X139.599 Y88.941 E2.15433
G1 X140.096 Y90.414 E2.20604
G1 X140.377 Y91.299 E2.23692
G1 X140.577 Y92.027 E2.26203
G1 X140.748 Y92.758 E2.287
G1 X140.991 Y93.882 E2.32525
G1 X141.131 Y94.575 E2.34876
G1 X141.256 Y95.341 E2.37458
G1 X141.328 Y95.922 E2.39405
G1 X141.454 Y97.091 E2.43316
G1 X141.532 Y97.922 E2.46092
G1 X141.574 Y98.681 E2.4862
G1 X141.585 Y99.364 E2.50892
G1 X141.584 Y100.578 E2.5493
G1 X141.574 Y101.275 E2.57248
G1 X141.536 Y102.019 E2.59726
G1 X141.466 Y102.798 E2.62327
G1 X141.344 Y103.929 E2.66111
G1 X141.252 Y104.687 E2.6865
G1 X141.105 Y105.571 E2.71631
G1 X140.796 Y107.03 E2.76591
G1 X140.563 Y108.033 E2.80016
G1 X140.324 Y108.887 E2.82966
G1 X139.865 Y110.286 E2.87863
G1 X139.57 Y111.141 E2.90871
G1 X139.24 Y111.976 E2.93857
G1 X138.608 Y113.388 E2.99003
G1 X138.206 Y114.243 E3.02145
G1 X137.86 Y114.911 E3.04647
G1 X137.579 Y115.407 E3.06543
G1 X136.598 Y117.054 E3.12919
G1 X136.068 Y117.854 E3.16111
G1 X135.173 Y119.075 E3.21146
G1 X134.588 Y119.844 E3.2436
G1 X134.099 Y120.437 E3.26916
G1 X133.639 Y120.951 E3.29211
G1 X132.802 Y121.855 E3.33308
G1 X132.298 Y122.386 E3.35743
G1 X131.638 Y123.022 E3.38792
G1 X130.473 Y124.047 E3.43953
G1 X129.812 Y124.613 E3.46847
G1 X129.065 Y125.194 E3.49995
G1 X127.68 Y126.17 E3.5563
G1 X127.098 Y126.567 E3.57973
G1 X126.343 Y127.035 E3.60928
G1 X124.807 Y127.895 E3.66783
G1 X124.195 Y128.223 E3.69092
G1 X123.404 Y128.605 E3.72014
G1 X121.975 Y129.219 E3.77187
G1 X121.115 Y129.57 E3.80276
G1 X120.402 Y129.83 E3.828
G1 X119.896 Y129.993 E3.84568
G1 X118.575 Y130.392 E3.89158
G1 X117.889 Y130.588 E3.91531
G1 X117.19 Y130.761 E3.93926
G1 X116.484 Y130.907 E3.96324
G1 X115.265 Y131.135 E4.00449
G1 X114.61 Y131.249 E4.0266
G1 X113.892 Y131.348 E4.05071
G1 X113.168 Y131.419 E4.0749
G1 X111.954 Y131.515 E4.11541
G1 X111.261 Y131.561 E4.13851
G1 X110.491 Y131.583 E4.16413
G1 X109.775 Y131.575 E4.18794
G1 X108.781 Y131.549 E4.22101
G1 X107.899 Y131.513 E4.25037
G1 X107.337 Y131.475 E4.26911
G1 X106.779 Y131.415 E4.28778
G1 X105.397 Y131.233 E4.33414
G1 X104.547 Y131.107 E4.36272
G1 X103.989 Y131.008 E4.38157
G1 X103.435 Y130.888 E4.40042
G1 X102.07 Y130.557 E4.44714
G1 X101.293 Y130.357 E4.47382
G1 X100.541 Y130.131 E4.49994
G1 X99.937 Y129.924 E4.52117
G1 X98.788 Y129.51 E4.5618
G1 X98.088 Y129.246 E4.58668
G1 X97.382 Y128.949 E4.61215
G1 X96.738 Y128.648 E4.6358
G1 X95.844 Y128.214 E4.66885
G1 X95.047 Y127.813 E4.69852
G1 X94.359 Y127.433 E4.72467
G1 X93.914 Y127.164 E4.74196
G1 X92.769 Y126.448 E4.78688
G1 X92.211 Y126.089 E4.80895
G1 X91.483 Y125.575 E4.83859
G1 X90.267 Y124.633 E4.88975
G1 X89.452 Y123.975 E4.92458
G1 X88.79 Y123.389 E4.95399
G1 X87.716 Y122.352 E5.00365
G1 X87.071 Y121.708 E5.03396
G1 X86.547 Y121.141 E5.05964
G1 X86.106 Y120.625 E5.08222
G1 X85.325 Y119.681 E5.12297
G1 X84.9 Y119.153 E5.14551
G1 X84.452 Y118.552 E5.17044
G1 X84.022 Y117.926 E5.1957
G1 X83.47 Y117.093 E5.22894
G1 X82.999 Y116.36 E5.25792
G1 X82.631 Y115.74 E5.2819
G1 X82.38 Y115.28 E5.29933
G1 X81.76 Y114.088 E5.34401
G1 X81.42 Y113.413 E5.36915
G1 X81.092 Y112.693 E5.39547
G1 X80.878 Y112.171 E5.41423
G1 X80.408 Y110.97 E5.45713
G1 X80.154 Y110.292 E5.48121
G1 X79.911 Y109.56 E5.50686
G1 X79.711 Y108.867 E5.53085
G1 X79.418 Y107.788 E5.56804
G1 X79.216 Y107.007 E5.59487
G1 X79.026 Y106.104 E5.62556
G1 X78.758 Y104.463 E5.68086
G1 X78.645 Y103.695 E5.70668
G1 X78.552 Y102.774 E5.73747
G1 X78.459 Y101.068 E5.7943
G1 X78.433 Y100.392 E5.8168
G1 X78.436 Y99.525 E5.84563
G1 X78.51 Y97.938 E5.89847
G1 X78.57 Y97.03 E5.92874
G1 X78.651 Y96.267 E5.95426
G1 X78.765 Y95.484 E5.98058
G1 X78.941 Y94.401 E6.01707
G1 X79.065 Y93.699 E6.04078
G1 X79.219 Y92.981 E6.0652
G1 X79.4 Y92.272 E6.08954
G1 X79.695 Y91.195 E6.12668
G1 X79.918 Y90.423 E6.15341
G1 X80.161 Y89.688 E6.17916
G1 X80.417 Y89.005 E6.20342
G1 X80.82 Y87.978 E6.24011
G1 X81.092 Y87.31 E6.2641
G1 X81.458 Y86.512 E6.2933
G1 X82.165 Y85.13 E6.34493
G1 X82.599 Y84.318 E6.37555
G1 X82.988 Y83.656 E6.40109
G1 X83.387 Y83.034 E6.42567
G1 X84.001 Y82.108 E6.46263
G1 X84.421 Y81.492 E6.48742
G1 X84.956 Y80.777 E6.51712
G1 X85.944 Y79.57 E6.569
G1 X86.538 Y78.871 E6.59951
G0 F6000 X86.244 Y78.6
G1 F1200 X86.762 Y78.037 E6.62496
G1 X87.27 Y77.525 E6.64895
G1 X87.999 Y76.816 E6.68277
G1 X88.665 Y76.184 E6.71331
G1 X89.256 Y75.665 E6.73947
G1 X89.804 Y75.222 E6.76291
G1 X90.735 Y74.493 E6.80223
G1 X91.299 Y74.064 E6.8258
G1 X91.908 Y73.632 E6.85064
G1 X92.344 Y73.347 E6.86796
G1 X93.585 Y72.57 E6.91666
G1 X94.143 Y72.232 E6.93836
G1 X94.793 Y71.868 E6.96314
G1 X95.518 Y71.5 E6.99018
G1 X96.527 Y71.011 E7.02747
G1 X97.28 Y70.659 E7.05512
G1 X98.134 Y70.304 E7.08588
G1 X99.522 Y69.799 E7.135
G1 X100.441 Y69.482 E7.16734
G1 X101.164 Y69.263 E7.19246
G1 X101.829 Y69.089 E7.21533
G1 X102.917 Y68.824 E7.25257
G1 X103.667 Y68.652 E7.27816
G1 X104.234 Y68.538 E7.2974
G1 X104.855 Y68.439 E7.31832
G1 X106.216 Y68.254 E7.364
G1 X107.055 Y68.152 E7.39211
G1 X107.846 Y68.087 E7.41851
G1 X108.431 Y68.062 E7.43798
G1 X109.611 Y68.03 E7.47724
G1 X110.449 Y68.019 E7.50512
G1 X111.001 Y68.027 E7.52348
G1 X111.606 Y68.059 E7.54363
G1 X113.165 Y68.181 E7.59564
G1 X113.84 Y68.244 E7.61819
G1 X114.445 Y68.319 E7.63846
G1 X114.982 Y68.407 E7.65656
G1 X116.504 Y68.691 E7.70806
G1 X117.207 Y68.834 E7.73192
G1 X118.079 Y69.05 E7.7618
G1 X119.639 Y69.51 E7.81589
G1 X120.484 Y69.777 E7.84537
G1 X120.998 Y69.956 E7.86347
G1 X121.551 Y70.172 E7.88322
G1 X123.016 Y70.788 E7.93608
G1 X123.718 Y71.097 E7.96159
G1 X124.544 Y71.506 E7.99224
G1 X125.988 Y72.302 E8.04708
G1 X126.638 Y72.674 E8.07199
G1 X127.295 Y73.084 E8.09775
G1 X127.759 Y73.397 E8.11637
G1 X128.753 Y74.093 E8.15673
G1 X129.523 Y74.652 E8.18837
G1 X130.226 Y75.212 E8.21827
G1 X131.529 Y76.345 E8.2757
G1 X132.09 Y76.851 E8.30083
G1 X132.741 Y77.494 E8.33126
G1 X133.913 Y78.756 E8.38854
G1 X134.384 Y79.282 E8.41203
G1 X134.865 Y79.862 E8.43709
G1 X135.317 Y80.451 E8.46178
G1 X136.007 Y81.38 E8.50027
G1 X136.486 Y82.044 E8.5275
G1 X136.995 Y82.822 E8.55842
G1 X137.744 Y84.085 E8.60726
G1 X138.216 Y84.91 E8.63888
G1 X138.579 Y85.607 E8.66501
G1 X138.936 Y86.366 E8.69291
G1 X139.618 Y87.893 E8.74853
G1 X139.978 Y88.813 E8.78139
G1 X140.477 Y90.293 E8.83334
G1 X140.763 Y91.193 E8.86475
G1 X140.963 Y91.921 E8.88986
G1 X141.139 Y92.673 E8.91555
G1 X141.383 Y93.803 E8.954
G1 X141.526 Y94.511 E8.97802
G1 X141.653 Y95.292 E9.00434
G1 X141.726 Y95.879 E9.02401
G1 X141.852 Y97.054 E9.06332
G1 X141.931 Y97.9 E9.09158
G1 X141.974 Y98.675 E9.11739
G1 X141.985 Y99.364 E9.14031
G1 X141.984 Y100.584 E9.18089
G1 X141.973 Y101.295 E9.20454
G1 X141.934 Y102.055 E9.22985
G1 X141.864 Y102.841 E9.2561
G1 X141.741 Y103.977 E9.2941
G1 X141.647 Y104.753 E9.3201
G1 X141.5 Y105.637 E9.34991
G1 X141.186 Y107.121 E9.40036
G1 X140.953 Y108.124 E9.43461
G1 X140.704 Y109.012 E9.46528
G1 X140.243 Y110.416 E9.51443
G1 X139.942 Y111.288 E9.54511
G1 X139.605 Y112.139 E9.57556
G1 X138.97 Y113.558 E9.62726
G1 X138.561 Y114.427 E9.65921
G1 X138.208 Y115.108 E9.68472
G1 X137.923 Y115.612 E9.70398
G1 X136.942 Y117.259 E9.76774
G1 X136.391 Y118.09 E9.8009
G1 X135.491 Y119.317 E9.85151
G1 X134.897 Y120.098 E9.88415
G1 X134.397 Y120.704 E9.91028
G1 X133.933 Y121.223 E9.93343
G1 X133.092 Y122.13 E9.97457
G1 X132.576 Y122.674 E9.99951
G1 X131.916 Y123.31 E10.02999
G1 X130.733 Y124.351 E10.08241
G1 X130.058 Y124.929 E10.11196
G1 X129.311 Y125.51 E10.14344
G1 X127.905 Y126.5 E10.20063
G1 X127.309 Y126.907 E10.22464
G1 X126.538 Y127.384 E10.25479
G1 X124.996 Y128.248 E10.31358
G1 X124.369 Y128.583 E10.33722
G1 X123.562 Y128.973 E10.36703
G1 X122.126 Y129.589 E10.41901
G1 X121.252 Y129.946 E10.45041
G1 X120.525 Y130.211 E10.47614
G1 X120.012 Y130.376 E10.49407
G1 X118.685 Y130.777 E10.54017
G1 X117.985 Y130.976 E10.56438
G1 X117.271 Y131.153 E10.58884
G1 X116.558 Y131.3 E10.61306
G1 X115.334 Y131.529 E10.65447
G1 X114.665 Y131.645 E10.67706
G1 X113.931 Y131.746 E10.7017
G1 X113.2 Y131.818 E10.72613
G1 X111.98 Y131.914 E10.76683
G1 X111.272 Y131.961 E10.79043
G1 X110.487 Y131.983 E10.81655
G1 X109.765 Y131.975 E10.84057
G1 X108.765 Y131.949 E10.87384
G1 X107.872 Y131.912 E10.90357
G1 X107.294 Y131.873 E10.92284
G1 X106.727 Y131.812 E10.9418
G1 X105.338 Y131.629 E10.9884
G1 X104.477 Y131.501 E11.01735
G1 X103.904 Y131.399 E11.03671
G1 X103.341 Y131.277 E11.05587
G1 X101.97 Y130.944 E11.10279
G1 X101.178 Y130.74 E11.13
G1 X100.411 Y130.509 E11.15664
G1 X99.801 Y130.3 E11.17809
G1 X98.647 Y129.884 E11.21889
G1 X97.933 Y129.615 E11.24426
G1 X97.227 Y129.318 E11.26974
G1 X96.563 Y129.008 E11.29411
G1 X95.664 Y128.571 E11.32736
G1 X94.854 Y128.163 E11.35752
G1 X94.152 Y127.775 E11.3842
G1 X93.702 Y127.503 E11.40169
G1 X92.553 Y126.784 E11.44677
G1 X91.98 Y126.416 E11.46942
G1 X91.238 Y125.891 E11.49965
G1 X90.016 Y124.944 E11.55107
G1 X89.187 Y124.275 E11.5865
G1 X88.512 Y123.677 E11.6165
G1 X87.433 Y122.635 E11.66639
G1 X86.777 Y121.979 E11.69724
G1 X86.243 Y121.401 E11.72342
G1 X85.798 Y120.88 E11.74621
G1 X85.013 Y119.932 E11.78714
G1 X84.579 Y119.392 E11.81018
G1 X84.122 Y118.778 E11.83564
G1 X83.689 Y118.147 E11.8611
G1 X83.133 Y117.309 E11.89454
G1 X82.655 Y116.564 E11.92398
G1 X82.28 Y115.932 E11.94843
G1 X82.025 Y115.465 E11.96612
G1 X81.403 Y114.268 E12.01099
G1 X81.056 Y113.579 E12.03665
G1 X80.722 Y112.845 E12.06347
G1 X80.506 Y112.317 E12.08244
G1 X80.033 Y111.11 E12.12556
G1 X79.774 Y110.418 E12.15014
G1 X79.527 Y109.671 E12.17631
G1 X79.325 Y108.972 E12.20051
G1 X79.031 Y107.888 E12.23786
G1 X78.825 Y107.089 E12.26531
G1 X78.631 Y106.168 E12.29661
G1 X78.362 Y104.521 E12.35212
G1 X78.247 Y103.735 E12.37854
G1 X78.153 Y102.796 E12.40992
G1 X78.059 Y101.083 E12.46699
G1 X78.033 Y100.391 E12.49002
G1 X78.036 Y99.506 E12.51945
G1 X78.111 Y97.912 E12.57253
G1 X78.172 Y96.988 E12.60333
G1 X78.255 Y96.209 E12.62938
G1 X78.37 Y95.42 E12.6559
G1 X78.547 Y94.331 E12.6926
G1 X78.674 Y93.615 E12.71678
G1 X78.831 Y92.882 E12.74172
G1 X79.014 Y92.166 E12.7663
G1 X79.311 Y91.084 E12.80362
G1 X79.538 Y90.297 E12.83086
G1 X79.786 Y89.548 E12.8571
G1 X80.045 Y88.859 E12.88158
G1 X80.45 Y87.827 E12.91846
G1 X80.728 Y87.143 E12.94301
G1 X81.102 Y86.33 E12.97278
G1 X81.812 Y84.941 E13.02466
G1 X82.254 Y84.115 E13.05582
G1 X82.651 Y83.44 E13.08187
G1 X83.054 Y82.813 E13.10666
G1 X83.671 Y81.883 E13.14378
G1 X84.101 Y81.252 E13.16917
G1 X84.646 Y80.524 E13.19942
G1 X85.639 Y79.311 E13.25156
G1 X86.244 Y78.6 E13.28261
G0 F6000 X85.95 Y78.329
G1 F1200 X86.478 Y77.755 E13.30855
G1 X86.991 Y77.238 E13.33277
G1 X87.724 Y76.526 E13.36676
G1 X88.401 Y75.883 E13.39782
G1 X88.992 Y75.364 E13.42398
G1 X89.557 Y74.907 E13.44815
G1 X90.493 Y74.175 E13.48767
G1 X91.068 Y73.738 E13.51169
G1 X91.689 Y73.297 E13.53702
G1 X92.132 Y73.008 E13.55461
G1 X93.378 Y72.228 E13.60351
G1 X93.948 Y71.883 E13.62567
G1 X94.612 Y71.511 E13.65098
G1 X95.344 Y71.14 E13.67828
G1 X96.358 Y70.649 E13.71575
G1 X97.126 Y70.29 E13.74394
G1 X97.997 Y69.928 E13.77532
G1 X99.392 Y69.421 E13.82468
G1 X100.325 Y69.099 E13.85751
G1 X101.063 Y68.876 E13.88315
G1 X101.734 Y68.7 E13.90623
G1 X102.828 Y68.434 E13.94367
G1 X103.588 Y68.26 E13.9696
G1 X104.171 Y68.143 E13.98938
G1 X104.801 Y68.043 E14.0106
G1 X106.168 Y67.857 E14.05648
G1 X107.022 Y67.753 E14.0851
G1 X107.829 Y67.687 E14.11203
G1 X108.42 Y67.662 E14.1317
G1 X109.606 Y67.63 E14.17116
G1 X110.455 Y67.619 E14.1994
G1 X111.022 Y67.628 E14.21826
G1 X111.637 Y67.66 E14.23875
G1 X113.202 Y67.783 E14.29096
G1 X113.889 Y67.847 E14.31391
G1 X114.51 Y67.924 E14.33472
G1 X115.055 Y68.014 E14.35309
G1 X116.584 Y68.299 E14.40482
G1 X117.303 Y68.446 E14.42923
G1 X118.192 Y68.666 E14.45969
G1 X119.76 Y69.129 E14.51407
G1 X120.616 Y69.399 E14.54392
G1 X121.144 Y69.583 E14.56252
G1 X121.706 Y69.803 E14.58259
G1 X123.177 Y70.422 E14.63568
G1 X123.895 Y70.739 E14.66178
G1 X124.737 Y71.156 E14.69303
G1 X126.187 Y71.955 E14.7481
G1 X126.85 Y72.335 E14.77351
G1 X127.519 Y72.752 E14.79973
G1 X127.988 Y73.069 E14.81856
G1 X128.988 Y73.769 E14.85916
G1 X129.772 Y74.339 E14.8914
G1 X130.488 Y74.91 E14.92186
G1 X131.797 Y76.048 E14.97955
G1 X132.371 Y76.566 E15.00526
G1 X133.034 Y77.222 E15.03629
G1 X134.211 Y78.489 E15.0938
G1 X134.692 Y79.027 E15.11781
G1 X135.182 Y79.618 E15.14334
G1 X135.638 Y80.212 E15.16825
G1 X136.331 Y81.146 E15.20693
G1 X136.821 Y81.825 E15.23478
G1 X137.339 Y82.618 E15.26628
G1 X138.091 Y83.886 E15.31532
G1 X138.571 Y84.725 E15.34747
G1 X138.941 Y85.437 E15.37415
G1 X139.301 Y86.203 E15.4023
G1 X139.99 Y87.747 E15.45854
G1 X140.357 Y88.685 E15.49204
G1 X140.858 Y90.172 E15.54423
G1 X141.149 Y91.087 E15.57616
G1 X141.349 Y91.815 E15.60127
G1 X141.53 Y92.589 E15.62771
G1 X141.775 Y93.724 E15.66633
G1 X141.921 Y94.447 E15.69086
G1 X142.05 Y95.243 E15.71769
G1 X142.124 Y95.836 E15.73756
G1 X142.25 Y97.017 E15.77706
G1 X142.33 Y97.878 E15.80582
G1 X142.374 Y98.669 E15.83217
G1 X142.385 Y99.364 E15.85529
G1 X142.384 Y100.59 E15.89607
G1 X142.372 Y101.315 E15.92019
G1 X142.332 Y102.09 E15.946
G1 X142.262 Y102.884 E15.97251
G1 X142.138 Y104.025 E16.01068
G1 X142.042 Y104.819 E16.03728
G1 X141.895 Y105.703 E16.06709
G1 X141.576 Y107.212 E16.11839
G1 X141.343 Y108.215 E16.15264
G1 X141.084 Y109.137 E16.18449
G1 X140.621 Y110.547 E16.23385
