;FLAVOR:Marlin
;TIME:11808
;Filament used: 6.54431m
;Layer height: 0.2
;MINX:93
;MINY:69.388
;MINZ:0.2
;MAXX:129.199
;MAXY:132.112
;MAXZ:84.4
;Generated with Cura_SteamEngine 5.3.0
M140 S60
M105
M190 S60
M104 S230
M105
M109 S230
M82 ;absolute extrusion mode
; Ender 3 Custom Start G-code
G92 E0 ; Reset Extruder
G28 ; Home all axes
G1 Z2.0 F3000 ; Move Z Axis up little to prevent scratching of Heat Bed
G1 X0.1 Y20 Z0.3 F5000.0 ; Move to start position
G1 X0.1 Y200.0 Z0.3 F1500.0 E15 ; Draw the first line
G1 X0.4 Y200.0 Z0.3 F5000.0 ; Move to side a little
G1 X0.4 Y20 Z0.3 F1500.0 E30 ; Draw the second line
G92 E0 ; Reset Extruder
G1 Z2.0 F3000 ; Move Z Axis up little to prevent scratching of Heat Bed
G1 X5 Y20 Z0.3 F5000.0 ; Move over to prevent blob squish
G92 E0
G92 E0
G1 F2700 E-5
;LAYER_COUNT:422
;LAYER:0
M107
G0 F6000 X95.798 Y74.346 Z0.2
;TYPE:SKIRT
G1 F2700 E0
G1 F1200 X96.366 Y73.644 E0.03003
G1 X96.993 Y72.994 E0.06007
G1 X97.675 Y72.402 E0.09011
G1 X98.407 Y71.873 E0.12015
G1 X99.183 Y71.411 E0.15019
G1 X99.997 Y71.02 E0.18022
G1 X100.842 Y70.701 E0.21026
G1 X101.712 Y70.459 E0.2403
G1 X102.6 Y70.295 E0.27033
G1 X103.723 Y70.201 E0.30781
G1 X104.33 Y70.188 E0.32801
G1 X115.293 Y70.188 E0.69264
G1 X116.137 Y70.199 E0.72071
G1 X117.039 Y70.252 E0.75076
G1 X117.932 Y70.384 E0.78079
G1 X118.81 Y70.595 E0.81082
G1 X119.666 Y70.883 E0.84086
G1 X120.493 Y71.245 E0.87089
G1 X121.285 Y71.68 E0.90094
G1 X122.036 Y72.182 E0.93098
G1 X122.739 Y72.749 E0.96102
G1 X123.389 Y73.376 E0.99106
G1 X123.981 Y74.058 E1.0211
G1 X124.511 Y74.789 E1.05113
G1 X124.973 Y75.565 E1.08117
G1 X125.366 Y76.378 E1.1112
G1 X125.684 Y77.223 E1.14123
G1 X125.927 Y78.093 E1.17128
G1 X126.092 Y78.981 E1.20132
G1 X126.187 Y80.102 E1.23873
G1 X126.207 Y80.775 E1.26113
G1 X126.32 Y83.405 E1.34868
G1 X126.503 Y85.946 E1.43342
G1 X126.755 Y88.456 E1.51732
G1 X127.079 Y90.975 E1.60179
G1 X127.475 Y93.477 E1.68604
G1 X127.985 Y96.195 E1.77802
G1 X128.16 Y97.066 E1.80757
G1 X128.306 Y97.969 E1.83799
G1 X128.389 Y99.152 E1.87744
G1 X128.399 Y99.772 E1.89806
G1 X128.388 Y100.826 E1.93312
G1 X128.282 Y102.144 E1.9771
G1 X128.23 Y102.501 E1.9891
G1 X128.141 Y103.021 E2.00664
G1 X127.692 Y105.281 E2.08328
G1 X127.266 Y107.76 E2.16694
G1 X126.901 Y110.32 E2.25295
G1 X126.615 Y112.82 E2.33664
G1 X126.397 Y115.372 E2.42183
G1 X126.255 Y117.866 E2.50492
G1 X126.212 Y119.31 E2.55296
G1 X126.181 Y120.038 E2.5772
G1 X126.102 Y120.938 E2.60725
G1 X125.945 Y121.827 E2.63728
G1 X125.709 Y122.699 E2.66732
G1 X125.397 Y123.546 E2.69734
G1 X125.012 Y124.363 E2.72738
G1 X124.555 Y125.142 E2.75742
G1 X124.032 Y125.878 E2.78745
G1 X123.446 Y126.565 E2.81749
G1 X122.801 Y127.197 E2.84752
G1 X122.102 Y127.77 E2.87758
G1 X121.356 Y128.278 E2.9076
G1 X120.568 Y128.719 E2.93763
G1 X119.743 Y129.088 E2.96769
G1 X119.101 Y129.318 E2.99038
G1 X117.658 Y129.78 E3.04077
G1 X114.786 Y130.758 E3.14168
G1 X113.919 Y131.011 E3.17172
G1 X113.033 Y131.186 E3.20176
G1 X111.809 Y131.297 E3.24263
G1 X111.17 Y131.312 E3.26389
G1 X109.04 Y131.311 E3.33474
G1 X108.333 Y131.3 E3.35826
G1 X107.432 Y131.246 E3.38828
G1 X106.539 Y131.112 E3.41831
G1 X105.232 Y130.766 E3.46328
G1 X104.381 Y130.479 E3.49315
G1 X103.346 Y130.114 E3.52965
G1 X100.883 Y129.321 E3.61571
G1 X100.036 Y129.006 E3.64577
G1 X99.221 Y128.618 E3.67579
G1 X98.443 Y128.159 E3.70584
G1 X97.709 Y127.633 E3.73587
G1 X97.024 Y127.044 E3.76592
G1 X96.394 Y126.397 E3.79595
G1 X95.824 Y125.697 E3.82598
G1 X95.318 Y124.949 E3.85601
G1 X94.88 Y124.159 E3.88606
G1 X94.513 Y123.334 E3.91609
G1 X94.221 Y122.479 E3.94614
G1 X94.006 Y121.602 E3.97617
G1 X93.869 Y120.709 E4.00622
G1 X93.815 Y119.924 E4.03239
G1 X93.8 Y119.285 E4.05365
G1 X93.801 Y108.941 E4.39769
G1 X93.811 Y108.224 E4.42154
G1 X93.836 Y107.642 E4.44092
G1 X93.922 Y106.436 E4.48113
G1 X94.072 Y103.78 E4.56961
G1 X94.144 Y101.246 E4.65393
G1 X94.144 Y98.712 E4.73821
G1 X94.072 Y96.172 E4.82272
G1 X93.908 Y93.335 E4.91724
G1 X93.839 Y92.387 E4.94885
G1 X93.813 Y91.806 E4.9682
G1 X93.801 Y91.044 E4.99355
G1 X93.801 Y80.909 E5.33064
G1 X93.811 Y80.244 E5.35276
G1 X93.865 Y79.342 E5.38281
G1 X93.998 Y78.449 E5.41284
G1 X94.209 Y77.571 E5.44287
G1 X94.498 Y76.715 E5.47292
G1 X94.861 Y75.888 E5.50296
G1 X95.295 Y75.097 E5.53297
G1 X95.798 Y74.346 E5.56303
G0 F6000 X95.487 Y74.094
G1 F1200 X96.078 Y73.366 E5.59422
G1 X96.705 Y72.716 E5.62426
G1 X97.413 Y72.1 E5.65547
G1 X98.202 Y71.529 E5.68787
G1 X98.978 Y71.067 E5.71791
G1 X99.824 Y70.659 E5.74914
G1 X100.735 Y70.316 E5.78152
G1 X101.639 Y70.066 E5.81272
G1 X102.567 Y69.896 E5.8441
G1 X103.714 Y69.801 E5.88238
G1 X104.321 Y69.788 E5.90257
G1 X115.298 Y69.788 E6.26767
G1 X116.16 Y69.8 E6.29634
G1 X117.097 Y69.856 E6.32756
G1 X117.99 Y69.988 E6.35758
G1 X118.938 Y70.216 E6.39001
G1 X119.794 Y70.504 E6.42005
G1 X120.686 Y70.894 E6.45243
G1 X121.478 Y71.329 E6.48249
G1 X122.258 Y71.849 E6.51367
G1 X123.017 Y72.461 E6.54609
G1 X123.667 Y73.088 E6.57613
G1 X124.305 Y73.823 E6.6085
G1 X124.855 Y74.584 E6.63973
G1 X125.317 Y75.36 E6.66977
G1 X125.74 Y76.237 E6.70216
G1 X126.069 Y77.115 E6.73334
G1 X126.32 Y78.02 E6.76458
G1 X126.491 Y78.947 E6.79593
G1 X126.587 Y80.09 E6.83408
G1 X126.607 Y80.758 E6.85631
G1 X126.719 Y83.376 E6.94346
G1 X126.901 Y85.906 E7.02783
G1 X127.152 Y88.405 E7.11136
G1 X127.474 Y90.912 E7.19543
G1 X127.868 Y93.403 E7.27931
G1 X128.377 Y96.116 E7.37112
G1 X128.555 Y97.002 E7.40118
G1 X128.705 Y97.941 E7.43281
G1 X128.789 Y99.146 E7.47298
G1 X128.799 Y99.776 E7.49394
G1 X128.787 Y100.858 E7.52993
G1 X128.678 Y102.202 E7.57478
G1 X128.624 Y102.568 E7.58708
G1 X128.533 Y103.099 E7.605
G1 X128.084 Y105.359 E7.68164
G1 X127.66 Y107.828 E7.76496
G1 X127.297 Y110.376 E7.85056
G1 X127.014 Y112.854 E7.93351
G1 X126.795 Y115.406 E8.01871
G1 X126.655 Y117.878 E8.10106
G1 X126.612 Y119.327 E8.14927
G1 X126.581 Y120.055 E8.17351
G1 X126.496 Y121.008 E8.20533
G1 X126.339 Y121.897 E8.23536
G1 X126.095 Y122.803 E8.26656
G1 X125.759 Y123.717 E8.29895
G1 X125.374 Y124.534 E8.32899
G1 X124.881 Y125.374 E8.36139
G1 X124.358 Y126.11 E8.39142
G1 X123.726 Y126.851 E8.42381
G1 X123.081 Y127.483 E8.45384
G1 X122.327 Y128.101 E8.48627
G1 X121.581 Y128.609 E8.51629
G1 X120.731 Y129.084 E8.54867
G1 X119.878 Y129.465 E8.57975
G1 X119.223 Y129.699 E8.60288
G1 X117.787 Y130.159 E8.65303
G1 X114.898 Y131.142 E8.75453
G1 X114.031 Y131.395 E8.78457
G1 X113.069 Y131.584 E8.81718
G1 X111.818 Y131.697 E8.85896
G1 X111.179 Y131.712 E8.88022
G1 X109.034 Y131.711 E8.95156
G1 X108.309 Y131.699 E8.97568
G1 X107.373 Y131.642 E9.00686
G1 X106.48 Y131.508 E9.0369
G1 X105.13 Y131.153 E9.08333
G1 X104.248 Y130.856 E9.11428
G1 X103.223 Y130.495 E9.15042
G1 X100.744 Y129.696 E9.23705
G1 X99.864 Y129.367 E9.2683
G1 X99.018 Y128.963 E9.29948
G1 X98.24 Y128.504 E9.32953
G1 X97.448 Y127.936 E9.36194
G1 X96.737 Y127.323 E9.39317
G1 X96.107 Y126.676 E9.4232
G1 X95.514 Y125.95 E9.45438
G1 X94.968 Y125.143 E9.48679
G1 X94.53 Y124.353 E9.51683
G1 X94.134 Y123.463 E9.54923
G1 X93.842 Y122.608 E9.57928
G1 X93.611 Y121.663 E9.61164
G1 X93.47 Y120.736 E9.64282
G1 X93.415 Y119.933 E9.66959
G1 X93.4 Y119.285 E9.69115
G1 X93.401 Y108.935 E10.03539
G1 X93.411 Y108.207 E10.05961
G1 X93.437 Y107.614 E10.07935
G1 X93.523 Y106.408 E10.11957
G1 X93.672 Y103.769 E10.20748
G1 X93.744 Y101.235 E10.29179
G1 X93.744 Y98.712 E10.37571
G1 X93.672 Y96.183 E10.45986
G1 X93.509 Y93.358 E10.55398
G1 X93.439 Y92.405 E10.58576
G1 X93.413 Y91.812 E10.6055
G1 X93.401 Y91.05 E10.63085
G1 X93.401 Y80.903 E10.96834
G1 X93.412 Y80.22 E10.99106
G1 X93.469 Y79.283 E11.02228
G1 X93.602 Y78.39 E11.05231
G1 X93.83 Y77.443 E11.08471
G1 X94.119 Y76.587 E11.11476
G1 X94.51 Y75.696 E11.14712
G1 X94.944 Y74.905 E11.17713
G1 X95.487 Y74.094 E11.20959
G0 F6000 X95.176 Y73.842
G1 F1200 X95.79 Y73.088 E11.24193
G1 X96.442 Y72.414 E11.27312
G1 X97.15 Y71.798 E11.30433
G1 X97.997 Y71.185 E11.33911
G1 X98.773 Y70.723 E11.36915
G1 X99.683 Y70.285 E11.40274
G1 X100.628 Y69.93 E11.43631
G1 X101.532 Y69.68 E11.46751
G1 X102.534 Y69.497 E11.50139
G1 X103.705 Y69.401 E11.54046
G1 X104.312 Y69.388 E11.56066
G1 X115.304 Y69.388 E11.92625
G1 X116.184 Y69.401 E11.95552
G1 X117.155 Y69.46 E11.98788
G1 X118.084 Y69.599 E12.01912
G1 X119.032 Y69.827 E12.05155
G1 X119.954 Y70.137 E12.08391
G1 X120.879 Y70.543 E12.1175
G1 X121.671 Y70.978 E12.14756
G1 X122.48 Y71.516 E12.17987
G1 X123.295 Y72.173 E12.21469
G1 X123.945 Y72.8 E12.24473
G1 X124.607 Y73.561 E12.27828
G1 X125.199 Y74.379 E12.31186
G1 X125.661 Y75.155 E12.3419
G1 X126.115 Y76.097 E12.37668
G1 X126.444 Y76.975 E12.40786
G1 X126.713 Y77.947 E12.44141
G1 X126.89 Y78.914 E12.4741
G1 X126.987 Y80.078 E12.51295
G1 X127.007 Y80.741 E12.53501
G1 X127.118 Y83.347 E12.62177
G1 X127.299 Y85.866 E12.70577
G1 X127.549 Y88.354 E12.78893
G1 X127.871 Y90.861 E12.873
G1 X128.261 Y93.329 E12.95611
G1 X128.769 Y96.037 E13.04775
G1 X128.95 Y96.939 E13.07835
G1 X129.104 Y97.913 E13.11114
G1 X129.189 Y99.14 E13.15205
G1 X129.199 Y99.78 E13.17334
G1 X129.186 Y100.89 E13.21026
G1 X129.074 Y102.26 E13.25598
G1 X129.018 Y102.636 E13.26862
G1 X128.925 Y103.177 E13.28688
G1 X128.476 Y105.437 E13.36352
G1 X128.054 Y107.896 E13.4465
G1 X127.693 Y110.432 E13.5317
G1 X127.413 Y112.888 E13.61392
G1 X127.193 Y115.44 E13.69911
G1 X127.055 Y117.89 E13.78073
G1 X127.012 Y119.344 E13.82911
G1 X126.981 Y120.072 E13.85334
G1 X126.89 Y121.078 E13.88694
G1 X126.733 Y121.967 E13.91697
G1 X126.481 Y122.907 E13.94933
G1 X126.121 Y123.888 E13.98409
G1 X125.736 Y124.705 E14.01413
G1 X125.207 Y125.606 E14.04888
G1 X124.684 Y126.342 E14.07891
G1 X124.006 Y127.137 E14.11366
G1 X123.361 Y127.769 E14.1437
G1 X122.552 Y128.432 E14.17849
G1 X121.806 Y128.94 E14.2085
G1 X120.894 Y129.449 E14.24324
G1 X120.013 Y129.842 E14.27533
G1 X119.345 Y130.08 E14.29891
G1 X117.916 Y130.538 E14.34882
G1 X115.01 Y131.526 E14.45091
G1 X114.143 Y131.779 E14.48095
G1 X113.105 Y131.982 E14.51613
G1 X111.827 Y132.097 E14.55881
G1 X111.179 Y132.112 E14.58036
G1 X109.027 Y132.111 E14.65194
G1 X108.285 Y132.098 E14.67662
G1 X107.314 Y132.038 E14.70898
G1 X106.421 Y131.904 E14.73901
G1 X105.028 Y131.54 E14.7869
G1 X104.115 Y131.233 E14.81894
G1 X103.1 Y130.876 E14.85473
G1 X100.604 Y130.071 E14.94195
G1 X99.724 Y129.742 E14.9732
G1 X98.815 Y129.308 E15.0067
G1 X98.037 Y128.849 E15.03675
G1 X97.187 Y128.239 E15.07155
G1 X96.45 Y127.602 E15.10395
G1 X95.82 Y126.955 E15.13398
G1 X95.204 Y126.203 E15.16631
G1 X94.618 Y125.337 E15.20109
G1 X94.18 Y124.547 E15.23113
G1 X93.755 Y123.592 E15.2659
G1 X93.453 Y122.703 E15.29713
G1 X93.222 Y121.758 E15.32949
G1 X93.071 Y120.763 E15.36296
G1 X93.015 Y119.942 E15.39033
G1 X93 Y119.285 E15.41219
G1 X93.001 Y108.93 E15.75659
G1 X93.011 Y108.189 E15.78124
G1 X93.038 Y107.586 E15.80132
G1 X93.124 Y106.38 E15.84153
G1 X93.272 Y103.758 E15.92888
G1 X93.344 Y101.224 E16.01319
G1 X93.344 Y98.712 E16.09674
G1 X93.272 Y96.194 E16.18053
G1 X93.11 Y93.381 E16.27424
G1 X93.039 Y92.423 E16.30619
G1 X93.013 Y91.818 E16.32633
G1 X93.001 Y91.056 E16.35168
G1 X93.001 Y80.897 E16.68957
G1 X93.013 Y80.196 E16.71289
G1 X93.073 Y79.224 E16.74528
G1 X93.206 Y78.331 E16.77531
G1 X93.441 Y77.349 E16.80889
G1 X93.74 Y76.459 E16.84012
G1 X94.159 Y75.504 E16.87481
G1 X94.593 Y74.713 E16.90481
G1 X95.176 Y73.842 E16.93968
G1 F2700 E11.93968
G0 F6000 X104.2 Y80.588
G1 F2700 E16.93968
G1 F1200 X115.8 Y80.588 E17.32549
G1 X115.8 Y91.476 E17.68763
G1 X115.587 Y91.541 E17.69504
G1 X115.156 Y90.898 E17.72078
G1 X115.101 Y90.843 E17.72337
G1 X114.187 Y90.231 E17.75995
G1 X114.115 Y90.201 E17.76255
G1 X113.119 Y90.004 E17.79632
G1 X113.08 Y90 E17.79762
G1 X106.92 Y90 E18.0025
G1 X106.881 Y90.004 E18.00381
G1 X105.886 Y90.201 E18.03754
G1 X105.814 Y90.231 E18.04014
G1 X104.9 Y90.843 E18.07672
G1 X104.845 Y90.898 E18.07931
G1 X104.413 Y91.542 E18.1051
G1 X104.2 Y91.477 E18.11251
G1 X104.2 Y80.588 E18.47468
G0 F6000 X104.6 Y80.988
G1 F1200 X115.4 Y80.988 E18.83389
G1 X115.4 Y90.586 E19.15312
G1 X115.324 Y90.51 E19.15669
G1 X114.41 Y89.898 E19.19328
G1 X114.192 Y89.808 E19.20112
G1 X113.196 Y89.611 E19.23489
G1 X113.08 Y89.6 E19.23877
G1 X106.92 Y89.6 E19.44365
G1 X106.803 Y89.611 E19.44756
G1 X105.808 Y89.808 E19.4813
G1 X105.591 Y89.898 E19.48911
G1 X104.677 Y90.51 E19.52569
G1 X104.6 Y90.587 E19.52932
G1 X104.6 Y80.988 E19.84858
G0 F6000 X105 Y81.388
G1 F1200 X115 Y81.388 E20.18118
G1 X115 Y89.812 E20.46137
G1 X114.632 Y89.566 E20.47609
G1 X114.27 Y89.416 E20.48912
G1 X113.274 Y89.219 E20.52289
G1 X113.08 Y89.2 E20.52937
G1 X106.92 Y89.2 E20.73426
G1 X106.726 Y89.219 E20.74074
G1 X105.731 Y89.416 E20.77448
G1 X105.369 Y89.566 E20.78751
G1 X105 Y89.813 E20.80228
G1 X105 Y81.388 E21.08249
G0 F6000 X105.4 Y81.788
G1 F1200 X114.6 Y81.788 E21.38849
G1 X114.6 Y89.104 E21.63182
G1 X114.557 Y89.082 E21.63342
G1 X114.348 Y89.024 E21.64064
G1 X113.352 Y88.827 E21.67441
G1 X113.08 Y88.8 E21.6835
G1 X106.92 Y88.8 E21.88838
G1 X106.648 Y88.827 E21.89747
G1 X105.653 Y89.024 E21.93121
G1 X105.4 Y89.106 E21.94005
G1 X105.4 Y81.788 E22.18345
G0 F6000 X105.8 Y82.188
G1 F1200 X114.2 Y82.188 E22.46284
G1 X114.2 Y88.586 E22.67564
G1 X113.429 Y88.434 E22.70177
G1 X113.08 Y88.4 E22.71344
G1 X106.92 Y88.4 E22.91832
G1 X106.57 Y88.434 E22.93001
G1 X105.8 Y88.586 E22.95612
G1 X105.8 Y82.188 E23.16892
G0 F6000 X106.2 Y82.588
G1 F1200 X113.8 Y82.588 E23.42169
G1 X113.8 Y88.1 E23.60502
G1 X113.507 Y88.042 E23.61496
G1 X113.08 Y88 E23.62923
G1 X106.92 Y88 E23.83411
G1 X106.493 Y88.042 E23.84838
G1 X106.2 Y88.1 E23.85832
G1 X106.2 Y82.588 E24.04165
G0 F6000 X106.6 Y82.988
G1 F1200 X113.4 Y82.988 E24.26781
G1 X113.4 Y87.631 E24.42224
G1 X113.08 Y87.6 E24.43293
G1 X106.92 Y87.6 E24.63782
G1 X106.6 Y87.632 E24.64851
G1 X106.6 Y82.988 E24.80297
G0 F6000 X107 Y83.388
G1 F1200 X113 Y83.388 E25.00253
G1 X113 Y87.2 E25.12932
G1 X107 Y87.2 E25.32888
G1 X107 Y83.388 E25.45567
G0 F6000 X107.4 Y83.788
G1 F1200 X112.6 Y83.788 E25.62862
G1 X112.6 Y86.8 E25.7288
G1 X107.4 Y86.8 E25.90175
G1 X107.4 Y83.788 E26.00193
G0 F6000 X107.8 Y84.188
G1 F1200 X112.2 Y84.188 E26.14828
G1 X112.2 Y86.4 E26.22185
G1 X107.8 Y86.4 E26.36819
G1 X107.8 Y84.188 E26.44177
G1 F2700 E21.44177
G0 F6000 X109.186 Y99.023
G1 F2700 E26.44177
G1 F1200 X109.406 Y99.01 E26.4491
G1 X109.427 Y99.007 E26.4498
G1 X109.469 Y99 E26.45122
G1 X111 Y99 E26.50214
G1 X111 Y101 E26.56866
G1 X109.193 Y101 E26.62876
G1 X109.186 Y99.023 E26.69452
G0 F6000 X109.587 Y99.4
G1 F1200 X110.6 Y99.4 E26.72821
G1 X110.6 Y100.6 E26.76812
G1 X109.592 Y100.6 E26.80165
G1 X109.587 Y99.4 E26.84156
G0 F6000 X109.989 Y99.8
G1 F1200 X110.2 Y99.8 E26.84858
G1 X110.2 Y100.2 E26.86188
G1 X109.99 Y100.2 E26.86887
G1 X109.989 Y99.8 E26.88217
G1 F2700 E21.88217
G0 F6000 X116 Y97.758
G1 F2700 E26.88217
G1 F1200 X116.13 Y97.647 E26.88786
G1 X116.2 Y97.495 E26.89342
G1 X116.2 Y97.453 E26.89482
G1 X116.382 Y97.453 E26.90087
G1 X116.654 Y97.526 E26.91024
G1 X116.919 Y97.651 E26.91998
G1 X117.229 Y97.87 E26.93261
G1 X117.546 Y98.215 E26.94819
G1 X117.783 Y98.566 E26.96228
G1 X117.96 Y99.042 E26.97917
G1 X118 Y99.331 E26.98887
G1 X117.999 Y100.662 E27.03314
G1 X117.955 Y100.97 E27.04349
G1 X117.861 Y101.294 E27.05471
G1 X117.698 Y101.596 E27.06612
G1 X117.328 Y102.018 E27.08479
G1 X117.141 Y102.202 E27.09352
G1 X117.101 Y102.226 E27.09507
G1 X117.087 Y102.235 E27.09562
G1 X116.829 Y102.419 E27.10616
G1 X116.528 Y102.551 E27.11709
G1 X116.198 Y102.612 E27.12826
G1 X116.198 Y102.537 E27.13075
G1 X116.13 Y102.387 E27.13623
G1 X116 Y102.273 E27.14198
G1 X116 Y97.758 E27.29215
G0 F6000 X116.4 Y97.939
G1 F1200 X116.444 Y97.884 E27.29449
G1 X116.513 Y97.902 E27.29686
G1 X116.717 Y97.998 E27.30436
G1 X116.962 Y98.172 E27.31436
G1 X117.235 Y98.468 E27.32775
G1 X117.424 Y98.749 E27.33901
G1 X117.57 Y99.141 E27.35293
G1 X117.6 Y99.357 E27.36018
G1 X117.599 Y100.633 E27.40262
G1 X117.563 Y100.888 E27.41118
G1 X117.489 Y101.143 E27.42002
G1 X117.37 Y101.363 E27.42833
G1 X117.035 Y101.744 E27.44521
G1 X116.893 Y101.884 E27.45184
G1 X116.855 Y101.909 E27.45335
G1 X116.629 Y102.07 E27.46258
G1 X116.441 Y102.153 E27.46942
G1 X116.4 Y102.095 E27.47178
