;FLAVOR:Marlin
;TIME:1583
;Filament used: 1.17131m
;Layer height: 0.2
;MINX:83.629
;MINY:73.616
;MINZ:0.2
;MAXX:136.389
;MAXY:126.384
;MAXZ:10
;Generated with Cura_SteamEngine 5.3.0
M140 S60
M105
M190 S60
M104 S230
M105
M109 S230
M82 ;absolute extrusion mode
; Ender 3 Custom Start G-code
G92 E0 ; Reset Extruder
G28 ; Home all axes
G1 Z2.0 F3000 ; Move Z Axis up little to prevent scratching of Heat Bed
G1 X0.1 Y20 Z0.3 F5000.0 ; Move to start position
G1 X0.1 Y200.0 Z0.3 F1500.0 E15 ; Draw the first line
G1 X0.4 Y200.0 Z0.3 F5000.0 ; Move to side a little
G1 X0.4 Y20 Z0.3 F1500.0 E30 ; Draw the second line
G92 E0 ; Reset Extruder
G1 Z2.0 F3000 ; Move Z Axis up little to prevent scratching of Heat Bed
G1 X5 Y20 Z0.3 F5000.0 ; Move over to prevent blob squish
G92 E0
G92 E0
G1 F2700 E-5
;LAYER_COUNT:50
;LAYER:0
M107
G0 F6000 X90.981 Y82.898 Z0.2
;TYPE:SKIRT
G1 F2700 E0
G1 F1200 X91.477 Y82.36 E0.02434
G1 X92.025 Y81.813 E0.05009
G1 X92.87 Y81.005 E0.08898
G1 X93.585 Y80.382 E0.12052
G1 X94.43 Y79.714 E0.15634
G1 X94.974 Y79.299 E0.1791
G1 X95.664 Y78.817 E0.2071
G1 X96.469 Y78.302 E0.23888
G1 X97.309 Y77.791 E0.27158
G1 X98.034 Y77.392 E0.29911
G1 X98.833 Y76.994 E0.3288
G1 X99.709 Y76.581 E0.36101
G1 X100.469 Y76.262 E0.38842
G1 X101.347 Y75.935 E0.41958
G1 X102.221 Y75.629 E0.45038
G1 X103.063 Y75.377 E0.47962
G1 X104.215 Y75.087 E0.51913
G1 X104.86 Y74.939 E0.54114
G1 X105.656 Y74.79 E0.56807
G1 X106.827 Y74.621 E0.60742
G1 X107.567 Y74.532 E0.63221
G1 X108.4 Y74.466 E0.66001
G1 X109.326 Y74.431 E0.69083
G1 X110.292 Y74.416 E0.72296
G1 X111.122 Y74.439 E0.75058
G1 X112.022 Y74.501 E0.78058
G1 X113.01 Y74.591 E0.81358
G1 X113.835 Y74.703 E0.84127
G1 X114.782 Y74.871 E0.87326
G1 X115.713 Y75.058 E0.90484
G1 X116.52 Y75.257 E0.93249
G1 X117.434 Y75.523 E0.96415
G1 X118.305 Y75.796 E0.99451
G1 X119.09 Y76.081 E1.02228
G1 X119.957 Y76.436 E1.05345
G1 X120.83 Y76.816 E1.08511
G1 X121.327 Y77.05 E1.10338
G1 X121.82 Y77.306 E1.12186
G1 X122.629 Y77.751 E1.15257
G1 X123.242 Y78.102 E1.17606
G1 X123.941 Y78.541 E1.20352
G1 X124.72 Y79.075 E1.23493
G1 X125.507 Y79.642 E1.26719
G1 X126.144 Y80.144 E1.29417
G1 X127.035 Y80.91 E1.33325
G1 X127.575 Y81.396 E1.35741
G1 X128.176 Y81.984 E1.38538
G1 X128.986 Y82.848 E1.42477
G1 X129.5 Y83.422 E1.45039
G1 X130.062 Y84.108 E1.47989
G1 X130.677 Y84.93 E1.51403
G1 X131.105 Y85.521 E1.5383
G1 X131.581 Y86.24 E1.56698
G1 X132.057 Y87.03 E1.59766
G1 X132.537 Y87.868 E1.62978
G1 X132.876 Y88.518 E1.65416
G1 X133.211 Y89.231 E1.68036
G1 X133.695 Y90.324 E1.72012
G1 X134.037 Y91.204 E1.75152
G1 X134.371 Y92.201 E1.7865
G1 X134.583 Y92.871 E1.80987
G1 X134.805 Y93.689 E1.83806
G1 X135.018 Y94.627 E1.87005
G1 X135.202 Y95.524 E1.90051
G1 X135.335 Y96.356 E1.92853
G1 X135.441 Y97.257 E1.95871
G1 X135.536 Y98.251 E1.99192
G1 X135.578 Y98.993 E2.01664
G1 X135.589 Y99.741 E2.04152
G1 X135.579 Y100.898 E2.08
G1 X135.556 Y101.498 E2.09997
G1 X135.512 Y102.056 E2.11859
G1 X135.413 Y103.007 E2.15039
G1 X135.322 Y103.751 E2.17532
G1 X135.178 Y104.615 E2.20445
G1 X134.996 Y105.479 E2.23382
G1 X134.792 Y106.362 E2.26396
G1 X134.664 Y106.855 E2.2809
G1 X134.502 Y107.395 E2.29965
G1 X134.23 Y108.227 E2.32877
G1 X133.984 Y108.941 E2.35389
G1 X133.69 Y109.694 E2.38077
G1 X133.382 Y110.395 E2.40624
G1 X132.918 Y111.395 E2.4429
G1 X132.506 Y112.189 E2.47266
G1 X131.89 Y113.253 E2.51355
G1 X131.539 Y113.828 E2.53595
G1 X131.081 Y114.514 E2.56339
G1 X130.401 Y115.444 E2.60171
G1 X129.954 Y116.029 E2.62619
G1 X129.401 Y116.692 E2.65491
G1 X128.771 Y117.386 E2.68608
G1 X128.147 Y118.046 E2.71629
G1 X127.747 Y118.444 E2.73506
G1 X127.331 Y118.829 E2.75391
G1 X126.763 Y119.33 E2.7791
G1 X126.107 Y119.889 E2.80777
G1 X125.524 Y120.349 E2.83247
G1 X125.127 Y120.639 E2.84882
G1 X123.98 Y121.434 E2.89524
G1 X123.229 Y121.905 E2.92472
G1 X122.196 Y122.489 E2.96419
G1 X121.561 Y122.83 E2.98816
G1 X120.794 Y123.202 E3.01652
G1 X119.934 Y123.575 E3.0477
G1 X119.086 Y123.923 E3.07818
G1 X118.274 Y124.214 E3.10687
G1 X117.09 Y124.58 E3.14809
G1 X116.428 Y124.768 E3.17098
G1 X115.694 Y124.947 E3.19611
G1 X114.93 Y125.101 E3.22203
G1 X113.867 Y125.292 E3.25795
G1 X112.988 Y125.411 E3.28745
G1 X112.033 Y125.498 E3.31935
G1 X111.09 Y125.563 E3.35079
G1 X110.256 Y125.584 E3.37853
G1 X109.333 Y125.569 E3.40924
G1 X108.317 Y125.531 E3.44305
G1 X107.417 Y125.455 E3.47309
G1 X106.387 Y125.32 E3.50765
G1 X105.635 Y125.208 E3.53293
G1 X104.819 Y125.052 E3.56056
G1 X103.911 Y124.84 E3.59158
G1 X103.011 Y124.609 E3.62248
G1 X102.234 Y124.373 E3.64949
G1 X101.092 Y123.973 E3.68974
G1 X100.448 Y123.731 E3.71262
G1 X99.682 Y123.407 E3.74028
G1 X98.62 Y122.902 E3.77939
G1 X97.954 Y122.566 E3.8042
G1 X97.229 Y122.162 E3.83181
G1 X96.183 Y121.519 E3.87265
G1 X95.619 Y121.154 E3.89499
G1 X94.948 Y120.68 E3.92231
G1 X94.028 Y119.97 E3.96097
G1 X93.459 Y119.51 E3.9853
G1 X92.834 Y118.961 E4.01297
G1 X92.17 Y118.328 E4.04348
G1 X91.47 Y117.631 E4.07634
G1 X90.892 Y117.001 E4.10478
G1 X90.278 Y116.273 E4.13645
G1 X89.713 Y115.575 E4.16632
G1 X89.226 Y114.918 E4.19352
G1 X88.561 Y113.935 E4.23299
G1 X88.115 Y113.238 E4.26052
G1 X87.679 Y112.486 E4.28943
G1 X87.162 Y111.498 E4.32651
G1 X86.865 Y110.903 E4.34863
G1 X86.532 Y110.165 E4.37556
G1 X86.092 Y109.066 E4.41494
G1 X85.822 Y108.344 E4.44057
G1 X85.546 Y107.492 E4.47036
G1 X85.266 Y106.476 E4.50541
G1 X85.094 Y105.808 E4.52836
G1 X84.968 Y105.257 E4.54715
G1 X84.859 Y104.679 E4.56672
G1 X84.739 Y103.947 E4.59139
G1 X84.617 Y103.123 E4.61909
G1 X84.528 Y102.281 E4.64726
G1 X84.468 Y101.331 E4.67892
G1 X84.429 Y100.4 E4.70991
G1 X84.43 Y99.563 E4.73775
G1 X84.47 Y98.631 E4.76877
G1 X84.531 Y97.684 E4.80034
G1 X84.608 Y96.939 E4.82525
G1 X84.725 Y96.137 E4.8522
G1 X84.92 Y94.993 E4.8908
G1 X85.116 Y94.09 E4.92154
G1 X85.327 Y93.295 E4.94889
G1 X85.605 Y92.323 E4.98252
G1 X85.868 Y91.534 E5.01018
G1 X86.186 Y90.695 E5.04002
G1 X86.557 Y89.779 E5.07289
G1 X86.899 Y89.029 E5.10031
G1 X87.335 Y88.168 E5.13241
G1 X87.748 Y87.391 E5.16168
G1 X88.14 Y86.72 E5.18752
G1 X88.611 Y85.989 E5.21645
G1 X89.258 Y85.035 E5.25478
G1 X89.815 Y84.29 E5.28572
G1 X90.514 Y83.442 E5.32227
G1 X90.981 Y82.898 E5.34612
G0 F6000 X90.677 Y82.637
G1 F1200 X91.194 Y82.077 E5.37147
G1 X91.749 Y81.524 E5.39753
G1 X92.607 Y80.703 E5.43703
G1 X93.337 Y80.068 E5.46921
G1 X94.187 Y79.396 E5.50524
G1 X94.745 Y78.971 E5.52857
G1 X95.448 Y78.48 E5.55709
G1 X96.261 Y77.96 E5.58919
G1 X97.116 Y77.441 E5.62246
G1 X97.856 Y77.034 E5.65055
G1 X98.662 Y76.632 E5.68051
G1 X99.554 Y76.212 E5.7133
G1 X100.329 Y75.887 E5.74125
G1 X101.215 Y75.557 E5.7727
G1 X102.106 Y75.246 E5.80408
G1 X102.965 Y74.989 E5.83391
G1 X104.126 Y74.697 E5.87372
G1 X104.786 Y74.546 E5.89624
G1 X105.599 Y74.394 E5.92375
G1 X106.779 Y74.224 E5.9634
G1 X107.535 Y74.133 E5.98873
G1 X108.385 Y74.066 E6.01709
G1 X109.32 Y74.031 E6.04821
G1 X110.303 Y74.016 E6.08091
G1 X111.149 Y74.04 E6.10906
G1 X112.058 Y74.103 E6.13936
G1 X113.064 Y74.195 E6.17296
G1 X113.905 Y74.309 E6.20119
G1 X114.861 Y74.479 E6.23348
G1 X115.809 Y74.67 E6.26565
G1 X116.632 Y74.873 E6.29384
G1 X117.554 Y75.141 E6.32578
G1 X118.442 Y75.42 E6.35674
G1 X119.242 Y75.711 E6.38505
G1 X120.117 Y76.069 E6.41649
G1 X121 Y76.454 E6.44853
G1 X121.511 Y76.695 E6.46732
G1 X122.013 Y76.956 E6.48614
G1 X122.828 Y77.404 E6.51708
G1 X123.455 Y77.763 E6.54111
G1 X124.167 Y78.211 E6.56908
G1 X124.954 Y78.75 E6.60081
G1 X125.755 Y79.328 E6.63366
G1 X126.405 Y79.841 E6.66121
G1 X127.303 Y80.613 E6.70059
G1 X127.855 Y81.11 E6.7253
G1 X128.468 Y81.71 E6.75383
G1 X129.284 Y82.581 E6.79352
G1 X129.798 Y83.155 E6.81915
G1 X130.382 Y83.868 E6.8498
G1 X131.001 Y84.695 E6.88416
G1 X131.439 Y85.3 E6.909
G1 X131.924 Y86.034 E6.93827
G1 X132.404 Y86.831 E6.96921
G1 X132.892 Y87.683 E7.00187
G1 X133.238 Y88.348 E7.0268
G1 X133.577 Y89.069 E7.0533
G1 X134.068 Y90.179 E7.09367
G1 X134.416 Y91.077 E7.1257
G1 X134.752 Y92.08 E7.16088
G1 X134.969 Y92.766 E7.18481
G1 X135.195 Y93.6 E7.21355
G1 X135.41 Y94.547 E7.24585
G1 X135.597 Y95.461 E7.27688
G1 X135.732 Y96.309 E7.30544
G1 X135.839 Y97.219 E7.33592
G1 X135.935 Y98.228 E7.36963
G1 X135.978 Y98.987 E7.39491
G1 X135.989 Y99.744 E7.42009
G1 X135.979 Y100.913 E7.45897
G1 X135.955 Y101.529 E7.47948
G1 X135.91 Y102.097 E7.49843
G1 X135.81 Y103.056 E7.5305
G1 X135.717 Y103.817 E7.556
G1 X135.573 Y104.681 E7.58513
G1 X135.386 Y105.569 E7.61531
G1 X135.179 Y106.463 E7.64584
G1 X135.047 Y106.97 E7.66326
G1 X134.882 Y107.519 E7.68233
G1 X134.608 Y108.357 E7.71165
G1 X134.357 Y109.086 E7.73729
G1 X134.056 Y109.855 E7.76476
G1 X133.745 Y110.563 E7.79048
G1 X133.273 Y111.579 E7.82774
G1 X132.852 Y112.389 E7.8581
G1 X132.231 Y113.461 E7.89931
G1 X131.872 Y114.05 E7.92225
G1 X131.404 Y114.75 E7.95026
G1 X130.719 Y115.687 E7.98886
G1 X130.261 Y116.285 E8.01392
G1 X129.697 Y116.961 E8.0432
G1 X129.062 Y117.661 E8.07463
G1 X128.429 Y118.33 E8.10526
G1 X128.019 Y118.738 E8.1245
G1 X127.596 Y119.129 E8.14366
G1 X127.022 Y119.634 E8.16909
G1 X126.355 Y120.203 E8.19825
G1 X125.76 Y120.672 E8.22345
G1 X125.355 Y120.968 E8.24013
G1 X124.193 Y121.773 E8.28715
G1 X123.426 Y122.253 E8.31724
G1 X122.385 Y122.841 E8.35701
G1 X121.736 Y123.19 E8.38152
G1 X120.953 Y123.569 E8.41045
G1 X120.086 Y123.945 E8.44188
G1 X119.221 Y124.3 E8.47298
G1 X118.409 Y124.591 E8.50167
G1 X117.199 Y124.965 E8.54379
G1 X116.523 Y125.157 E8.56717
G1 X115.773 Y125.339 E8.59284
G1 X115.001 Y125.495 E8.61903
G1 X113.938 Y125.686 E8.65495
G1 X113.024 Y125.809 E8.68563
G1 X112.061 Y125.897 E8.71779
G1 X111.1 Y125.963 E8.74983
G1 X110.25 Y125.984 E8.77811
G1 X109.318 Y125.969 E8.80911
G1 X108.283 Y125.93 E8.84356
G1 X107.365 Y125.852 E8.8742
G1 X106.328 Y125.716 E8.90899
G1 X105.56 Y125.601 E8.93482
G1 X104.728 Y125.442 E8.96299
G1 X103.82 Y125.23 E8.994
G1 X102.895 Y124.992 E9.02577
G1 X102.102 Y124.751 E9.05334
G1 X100.951 Y124.347 E9.09391
G1 X100.292 Y124.099 E9.11733
G1 X99.51 Y123.768 E9.14557
G1 X98.44 Y123.259 E9.18498
G1 X97.759 Y122.915 E9.21036
G1 X97.02 Y122.503 E9.2385
G1 X95.966 Y121.855 E9.27965
G1 X95.388 Y121.481 E9.30255
G1 X94.704 Y120.997 E9.33042
G1 X93.777 Y120.281 E9.36937
G1 X93.195 Y119.811 E9.39426
G1 X92.558 Y119.251 E9.42247
G1 X91.888 Y118.611 E9.45328
G1 X91.175 Y117.901 E9.48675
G1 X90.586 Y117.259 E9.51573
G1 X89.967 Y116.525 E9.54766
G1 X89.402 Y115.827 E9.57753
G1 X88.895 Y115.142 E9.60588
G1 X88.224 Y114.151 E9.64568
G1 X87.769 Y113.439 E9.67379
G1 X87.333 Y112.687 E9.7027
G1 X86.804 Y111.677 E9.74062
G1 X86.5 Y111.068 E9.76326
G1 X86.167 Y110.33 E9.79019
G1 X85.717 Y109.206 E9.83046
G1 X85.441 Y108.467 E9.85669
G1 X85.16 Y107.598 E9.88707
G1 X84.879 Y106.576 E9.92232
G1 X84.704 Y105.897 E9.94564
G1 X84.575 Y105.331 E9.96495
G1 X84.464 Y104.744 E9.98482
G1 X84.343 Y104.006 E10.0097
G1 X84.219 Y103.165 E10.03797
G1 X84.129 Y102.306 E10.0667
G1 X84.068 Y101.348 E10.09862
G1 X84.029 Y100.4 E10.13018
G1 X84.03 Y99.546 E10.15859
G1 X84.071 Y98.605 E10.18991
G1 X84.133 Y97.643 E10.22198
G1 X84.212 Y96.881 E10.24746
G1 X84.331 Y96.07 E10.27472
G1 X84.529 Y94.908 E10.31392
G1 X84.729 Y93.987 E10.34527
G1 X84.942 Y93.185 E10.37287
G1 X85.22 Y92.213 E10.4065
G1 X85.494 Y91.392 E10.43528
G1 X85.815 Y90.545 E10.46541
G1 X86.193 Y89.613 E10.49886
G1 X86.542 Y88.848 E10.52683
G1 X86.982 Y87.98 E10.55919
G1 X87.403 Y87.189 E10.589
G1 X87.804 Y86.503 E10.61543
G1 X88.28 Y85.764 E10.64466
G1 X88.938 Y84.795 E10.68362
G1 X89.506 Y84.036 E10.71515
G1 X90.21 Y83.181 E10.75199
G1 X90.677 Y82.637 E10.77583
G0 F6000 X90.373 Y82.376
G1 F1200 X90.912 Y81.794 E10.80222
G1 X91.472 Y81.235 E10.82853
G1 X92.344 Y80.401 E10.86867
G1 X93.089 Y79.754 E10.90149
G1 X93.945 Y79.078 E10.93776
G1 X94.516 Y78.643 E10.96164
G1 X95.232 Y78.143 E10.99068
G1 X96.053 Y77.618 E11.0231
G1 X96.923 Y77.091 E11.05693
G1 X97.677 Y76.676 E11.08555
G1 X98.492 Y76.27 E11.11584
G1 X99.399 Y75.843 E11.14918
G1 X100.189 Y75.512 E11.17767
G1 X101.083 Y75.179 E11.2094
G1 X101.991 Y74.863 E11.24138
G1 X102.867 Y74.601 E11.27179
G1 X104.037 Y74.307 E11.31191
G1 X104.712 Y74.153 E11.33494
G1 X105.542 Y73.998 E11.36302
G1 X106.731 Y73.827 E11.40298
G1 X107.504 Y73.734 E11.42887
G1 X108.37 Y73.666 E11.45776
G1 X109.314 Y73.631 E11.48918
G1 X110.314 Y73.616 E11.52245
G1 X111.177 Y73.641 E11.55116
G1 X112.094 Y73.705 E11.58174
G1 X113.118 Y73.799 E11.61594
G1 X113.975 Y73.915 E11.6447
G1 X114.94 Y74.087 E11.6773
G1 X115.905 Y74.282 E11.71005
G1 X116.744 Y74.489 E11.73879
G1 X117.674 Y74.759 E11.771
G1 X118.579 Y75.044 E11.80256
G1 X119.393 Y75.341 E11.83138
G1 X120.277 Y75.702 E11.86313
G1 X121.171 Y76.092 E11.89558
G1 X121.696 Y76.34 E11.91489
G1 X122.206 Y76.605 E11.934
G1 X123.027 Y77.057 E11.96517
G1 X123.668 Y77.424 E11.98974
G1 X124.393 Y77.881 E12.01825
G1 X125.188 Y78.426 E12.0503
G1 X126.003 Y79.014 E12.08373
G1 X126.666 Y79.538 E12.11184
G1 X127.571 Y80.316 E12.15153
G1 X128.135 Y80.824 E12.17678
G1 X128.76 Y81.437 E12.20589
G1 X129.582 Y82.314 E12.24587
G1 X130.096 Y82.888 E12.2715
G1 X130.702 Y83.628 E12.30331
G1 X131.325 Y84.46 E12.33788
G1 X131.773 Y85.079 E12.3633
G1 X132.267 Y85.828 E12.39314
G1 X132.751 Y86.632 E12.42435
G1 X133.247 Y87.498 E12.45755
G1 X133.6 Y88.178 E12.48303
G1 X133.943 Y88.907 E12.50983
G1 X134.441 Y90.034 E12.55081
G1 X134.795 Y90.95 E12.58347
G1 X135.133 Y91.959 E12.61886
G1 X135.355 Y92.661 E12.64335
G1 X135.585 Y93.511 E12.67264
G1 X135.802 Y94.467 E12.70524
G1 X135.992 Y95.398 E12.73685
G1 X136.129 Y96.262 E12.76594
G1 X136.237 Y97.181 E12.79672
G1 X136.334 Y98.205 E12.83093
G1 X136.378 Y98.981 E12.85678
G1 X136.389 Y99.747 E12.88226
G1 X136.379 Y100.929 E12.92157
G1 X136.354 Y101.561 E12.94261
G1 X136.308 Y102.138 E12.96186
G1 X136.207 Y103.105 E12.9942
G1 X136.112 Y103.883 E13.02027
G1 X135.968 Y104.747 E13.0494
G1 X135.776 Y105.659 E13.0804
G1 X135.566 Y106.564 E13.1113
G1 X135.43 Y107.085 E13.12921
G1 X135.262 Y107.643 E13.14859
G1 X134.986 Y108.487 E13.17813
G1 X134.729 Y109.232 E13.20434
G1 X134.422 Y110.016 E13.23234
G1 X134.108 Y110.732 E13.25835
G1 X133.628 Y111.763 E13.29617
G1 X133.198 Y112.59 E13.32717
G1 X132.573 Y113.669 E13.36865
G1 X132.205 Y114.272 E13.39214
G1 X131.727 Y114.986 E13.42072
G1 X131.037 Y115.93 E13.45961
G1 X130.568 Y116.541 E13.48523
G1 X129.993 Y117.23 E13.51508
G1 X129.353 Y117.936 E13.54677
G1 X128.711 Y118.614 E13.57783
G1 X128.291 Y119.032 E13.59754
G1 X127.868 Y119.423 E13.6167
G1 X127.282 Y119.938 E13.64264
G1 X126.603 Y120.517 E13.67232
G1 X125.996 Y120.995 E13.69802
G1 X125.583 Y121.297 E13.71504
G1 X124.405 Y122.112 E13.76268
G1 X123.623 Y122.601 E13.79336
G1 X122.574 Y123.193 E13.83342
G1 X121.91 Y123.55 E13.85849
G1 X121.112 Y123.936 E13.88798
G1 X120.238 Y124.315 E13.91966
G1 X119.356 Y124.677 E13.95137
G1 X118.544 Y124.968 E13.98006
G1 X117.308 Y125.35 E14.02309
G1 X116.617 Y125.546 E14.04698
G1 X115.852 Y125.731 E14.07316
G1 X115.072 Y125.889 E14.09963
G1 X114.009 Y126.08 E14.13555
G1 X113.06 Y126.207 E14.16739
G1 X112.088 Y126.296 E14.19986
G1 X111.11 Y126.363 E14.23246
G1 X110.244 Y126.384 E14.26127
G1 X109.303 Y126.369 E14.29257
G1 X108.249 Y126.329 E14.32766
G1 X107.313 Y126.249 E14.3589
G1 X106.269 Y126.112 E14.39392
G1 X105.485 Y125.994 E14.42029
G1 X104.637 Y125.832 E14.44901
G1 X103.72 Y125.617 E14.48033
G1 X102.779 Y125.375 E14.51265
G1 X101.986 Y125.134 E14.54022
G1 X100.81 Y124.721 E14.58167
G1 X100.136 Y124.467 E14.60563
G1 X99.338 Y124.129 E14.63445
G1 X98.26 Y123.616 E14.67416
G1 X97.564 Y123.264 E14.7001
G1 X96.811 Y122.844 E14.72878
G1 X95.749 Y122.191 E14.77024
G1 X95.157 Y121.808 E14.79369
G1 X94.459 Y121.314 E14.82214
G1 X93.532 Y120.598 E14.86109
G1 X92.931 Y120.111 E14.88682
G1 X92.282 Y119.54 E14.91557
G1 X91.606 Y118.894 E14.94667
G1 X90.88 Y118.171 E14.98075
G1 X90.28 Y117.517 E15.01027
G1 X89.656 Y116.777 E15.04247
G1 X89.08 Y116.065 E15.07293
G1 X88.573 Y115.38 E15.10127
G1 X87.887 Y114.366 E15.14199
G1 X87.423 Y113.64 E15.17065
G1 X86.979 Y112.873 E15.20012
G1 X86.446 Y111.856 E15.23831
G1 X86.135 Y111.233 E15.26147
G1 X85.802 Y110.495 E15.2884
G1 X85.342 Y109.346 E15.32957
G1 X85.06 Y108.59 E15.3564
G1 X84.774 Y107.704 E15.38737
