;FLAVOR:Marlin
;TIME:835
;Filament used: 0.430202m
;Layer height: 0.2
;MINX:87.6
;MINY:91.7
;MINZ:0.2
;MAXX:132.4
;MAXY:119.5
;MAXZ:10
;Generated with Cura_SteamEngine 5.3.0
M140 S60
M105
M190 S60
M104 S220
M105
M109 S220
M82 ;absolute extrusion mode
; Ender 3 Custom Start G-code
G92 E0 ; Reset Extruder
G28 ; Home all axes
G1 Z2.0 F3000 ; Move Z Axis up little to prevent scratching of Heat Bed
G1 X0.1 Y20 Z0.3 F5000.0 ; Move to start position
G1 X0.1 Y200.0 Z0.3 F1500.0 E15 ; Draw the first line
G1 X0.4 Y200.0 Z0.3 F5000.0 ; Move to side a little
G1 X0.4 Y20 Z0.3 F1500.0 E30 ; Draw the second line
G92 E0 ; Reset Extruder
G1 Z2.0 F3000 ; Move Z Axis up little to prevent scratching of Heat Bed
G1 X5 Y20 Z0.3 F5000.0 ; Move over to prevent blob squish
G92 E0
G92 E0
G1 F2700 E-5
;LAYER_COUNT:50
;LAYER:0
M107
G0 F6000 X91.458 Y95.703 Z0.2
;TYPE:SKIRT
G1 F2700 E0
G1 F1200 X92.125 Y95.094 E0.03004
G1 X92.843 Y94.546 E0.06008
G1 X93.606 Y94.063 E0.09012
G1 X94.409 Y93.651 E0.12014
G1 X95.246 Y93.31 E0.1502
G1 X96.109 Y93.046 E0.18021
G1 X96.993 Y92.858 E0.21027
G1 X97.889 Y92.75 E0.24029
G1 X98.496 Y92.721 E0.2605
G1 X99.336 Y92.707 E0.28844
G1 X120.59 Y92.705 E0.99535
G1 X121.464 Y92.716 E1.02443
G1 X122.365 Y92.768 E1.05444
G1 X123.259 Y92.9 E1.0845
G1 X124.137 Y93.11 E1.11453
G1 X124.993 Y93.397 E1.14455
G1 X125.821 Y93.759 E1.17461
G1 X126.613 Y94.193 E1.20465
G1 X127.364 Y94.695 E1.23469
G1 X128.067 Y95.261 E1.26471
G1 X128.718 Y95.887 E1.29475
G1 X129.31 Y96.569 E1.32479
G1 X129.84 Y97.3 E1.35482
G1 X130.304 Y98.075 E1.38486
G1 X130.697 Y98.889 E1.41493
G1 X131.016 Y99.733 E1.44494
G1 X131.26 Y100.603 E1.47499
G1 X131.459 Y101.76 E1.51404
G1 X131.512 Y102.225 E1.5296
G1 X131.576 Y103.176 E1.5613
G1 X131.6 Y104.481 E1.60472
G1 X131.599 Y107.904 E1.71856
G1 X131.589 Y108.631 E1.74275
G1 X131.537 Y109.533 E1.7728
G1 X131.405 Y110.426 E1.80282
G1 X131.194 Y111.305 E1.83289
G1 X130.907 Y112.161 E1.86292
G1 X130.545 Y112.988 E1.89294
G1 X130.111 Y113.78 E1.92298
G1 X129.609 Y114.531 E1.95302
G1 X129.043 Y115.234 E1.98304
G1 X128.416 Y115.885 E2.0131
G1 X127.735 Y116.477 E2.04312
G1 X127.004 Y117.007 E2.07315
G1 X126.228 Y117.47 E2.1032
G1 X125.415 Y117.863 E2.13324
G1 X124.57 Y118.183 E2.16329
G1 X123.701 Y118.426 E2.1933
G1 X122.813 Y118.591 E2.22334
G1 X121.677 Y118.687 E2.26126
G1 X121.07 Y118.7 E2.28145
G1 X115.964 Y118.699 E2.45128
G1 X114.958 Y118.681 E2.48474
G1 X113.827 Y118.633 E2.5224
G1 X111.217 Y118.558 E2.60924
G1 X108.684 Y118.558 E2.69349
G1 X106.112 Y118.63 E2.77907
G1 X105.045 Y118.682 E2.8146
G1 X104.27 Y118.7 E2.84038
G1 X99.175 Y118.699 E3.00984
G1 X98.477 Y118.69 E3.03306
G1 X97.576 Y118.639 E3.06307
G1 X96.682 Y118.507 E3.09313
G1 X95.804 Y118.298 E3.12315
G1 X94.947 Y118.011 E3.15321
G1 X94.12 Y117.65 E3.18322
G1 X93.327 Y117.217 E3.21327
G1 X92.576 Y116.716 E3.2433
G1 X91.872 Y116.15 E3.27334
G1 X91.221 Y115.524 E3.30338
G1 X90.628 Y114.843 E3.33342
G1 X90.098 Y114.112 E3.36345
G1 X89.634 Y113.337 E3.39349
G1 X89.24 Y112.524 E3.42354
G1 X88.92 Y111.68 E3.45356
G1 X88.676 Y110.81 E3.48361
G1 X88.51 Y109.922 E3.51366
G1 X88.413 Y108.767 E3.55221
G1 X88.4 Y108.158 E3.57247
G1 X88.401 Y104.013 E3.71033
G1 X88.409 Y103.506 E3.7272
G1 X88.439 Y102.877 E3.74814
G1 X88.497 Y102.13 E3.77306
G1 X88.606 Y101.234 E3.80309
G1 X88.795 Y100.351 E3.83312
G1 X89.061 Y99.488 E3.86316
G1 X89.402 Y98.652 E3.89318
G1 X89.816 Y97.849 E3.92323
G1 X90.299 Y97.086 E3.95327
G1 X90.848 Y96.369 E3.9833
G1 X91.458 Y95.703 E4.01334
G0 F6000 X91.188 Y95.408
G1 F1200 X91.882 Y94.776 E4.04456
G1 X92.6 Y94.228 E4.0746
G1 X93.423 Y93.707 E4.107
G1 X94.226 Y93.295 E4.13702
G1 X95.129 Y92.927 E4.16945
G1 X95.992 Y92.663 E4.19947
G1 X96.945 Y92.461 E4.23187
G1 X97.87 Y92.35 E4.26285
G1 X98.489 Y92.321 E4.28346
G1 X99.336 Y92.307 E4.31164
G1 X120.595 Y92.305 E5.01872
G1 X121.487 Y92.317 E5.04839
G1 X122.423 Y92.372 E5.07957
G1 X123.317 Y92.504 E5.10963
G1 X124.23 Y92.721 E5.14084
G1 X125.153 Y93.03 E5.17322
G1 X125.981 Y93.392 E5.20327
G1 X126.835 Y93.86 E5.23566
G1 X127.615 Y94.383 E5.2669
G1 X128.318 Y94.949 E5.29692
G1 X129.02 Y95.625 E5.32933
G1 X129.634 Y96.334 E5.36052
G1 X130.164 Y97.065 E5.39056
G1 X130.664 Y97.901 E5.42296
G1 X131.057 Y98.715 E5.45302
G1 X131.401 Y99.625 E5.48538
G1 X131.654 Y100.535 E5.51679
G1 X131.856 Y101.715 E5.55661
G1 X131.911 Y102.198 E5.57278
G1 X131.976 Y103.169 E5.60515
G1 X132 Y104.481 E5.64879
G1 X131.999 Y107.91 E5.76284
G1 X131.988 Y108.654 E5.78759
G1 X131.933 Y109.591 E5.81881
G1 X131.801 Y110.484 E5.84883
G1 X131.583 Y111.398 E5.88008
G1 X131.286 Y112.288 E5.91129
G1 X130.896 Y113.18 E5.94367
G1 X130.444 Y114.002 E5.97487
G1 X129.921 Y114.782 E6.0061
G1 X129.355 Y115.485 E6.03612
G1 X128.678 Y116.187 E6.06856
G1 X127.97 Y116.801 E6.09973
G1 X127.209 Y117.351 E6.13096
G1 X126.433 Y117.814 E6.16101
G1 X125.557 Y118.237 E6.19337
G1 X124.712 Y118.557 E6.22342
G1 X123.774 Y118.819 E6.25581
G1 X122.847 Y118.99 E6.28717
G1 X121.711 Y119.086 E6.32508
G1 X121.07 Y119.1 E6.34641
G1 X115.957 Y119.099 E6.51647
G1 X114.941 Y119.081 E6.55027
G1 X113.81 Y119.033 E6.58792
G1 X111.206 Y118.958 E6.67456
G1 X108.695 Y118.958 E6.75808
G1 X106.131 Y119.03 E6.84339
G1 X105.064 Y119.082 E6.87892
G1 X104.27 Y119.1 E6.90534
G1 X99.17 Y119.099 E7.07496
G1 X98.454 Y119.089 E7.09878
G1 X97.518 Y119.035 E7.12996
G1 X96.624 Y118.903 E7.16002
G1 X95.711 Y118.687 E7.19122
G1 X94.787 Y118.378 E7.22363
G1 X93.96 Y118.017 E7.25364
G1 X93.105 Y117.55 E7.28605
G1 X92.325 Y117.028 E7.31726
G1 X91.621 Y116.462 E7.34731
G1 X90.919 Y115.787 E7.3797
G1 X90.326 Y115.106 E7.40973
G1 X89.774 Y114.347 E7.44095
G1 X89.274 Y113.511 E7.47334
G1 X88.866 Y112.666 E7.50455
G1 X88.546 Y111.822 E7.53458
G1 X88.283 Y110.884 E7.56698
G1 X88.111 Y109.955 E7.5984
G1 X88.013 Y108.776 E7.63775
G1 X88 Y108.158 E7.65831
G1 X88.001 Y104.007 E7.79637
G1 X88.009 Y103.487 E7.81367
G1 X88.04 Y102.846 E7.83501
G1 X88.1 Y102.082 E7.8605
G1 X88.215 Y101.15 E7.89174
G1 X88.404 Y100.267 E7.92177
G1 X88.679 Y99.37 E7.95298
G1 X89.046 Y98.469 E7.98533
G1 X89.46 Y97.666 E8.01538
G1 X89.981 Y96.843 E8.04778
G1 X90.53 Y96.126 E8.07781
G1 X91.188 Y95.408 E8.11021
G0 F6000 X90.919 Y95.112
G1 F1200 X91.639 Y94.458 E8.14256
G1 X92.357 Y93.91 E8.1726
G1 X93.24 Y93.351 E8.20736
G1 X94.043 Y92.939 E8.23738
G1 X95.012 Y92.544 E8.27218
G1 X95.875 Y92.28 E8.3022
G1 X96.897 Y92.064 E8.33694
G1 X97.851 Y91.95 E8.3689
G1 X98.482 Y91.921 E8.38991
G1 X99.336 Y91.907 E8.41831
G1 X120.6 Y91.905 E9.12556
G1 X121.51 Y91.918 E9.15583
G1 X122.481 Y91.976 E9.18818
G1 X123.375 Y92.108 E9.21824
G1 X124.357 Y92.342 E9.25181
G1 X125.313 Y92.663 E9.28535
G1 X126.141 Y93.025 E9.31541
G1 X127.027 Y93.509 E9.34899
G1 X127.866 Y94.071 E9.38258
G1 X128.569 Y94.637 E9.41259
G1 X129.322 Y95.363 E9.44738
G1 X129.958 Y96.099 E9.47974
G1 X130.488 Y96.83 E9.50977
G1 X131.024 Y97.727 E9.54452
G1 X131.417 Y98.541 E9.57459
G1 X131.786 Y99.518 E9.60932
G1 X132.048 Y100.468 E9.6421
G1 X132.253 Y101.67 E9.68266
G1 X132.31 Y102.171 E9.69943
G1 X132.376 Y103.162 E9.73246
G1 X132.4 Y104.481 E9.77634
G1 X132.399 Y107.916 E9.89059
G1 X132.387 Y108.677 E9.9159
G1 X132.329 Y109.649 E9.94829
G1 X132.197 Y110.542 E9.97831
G1 X131.972 Y111.491 E10.01075
G1 X131.653 Y112.448 E10.0443
G1 X131.247 Y113.373 E10.0779
G1 X130.795 Y114.195 E10.1091
G1 X130.233 Y115.033 E10.14266
G1 X129.643 Y115.763 E10.17388
G1 X128.966 Y116.465 E10.20632
G1 X128.232 Y117.103 E10.23866
G1 X127.414 Y117.695 E10.27225
G1 X126.638 Y118.158 E10.3023
G1 X125.699 Y118.611 E10.33698
G1 X124.854 Y118.931 E10.36703
G1 X123.847 Y119.212 E10.4018
G1 X122.881 Y119.389 E10.43447
G1 X121.745 Y119.485 E10.47238
G1 X121.079 Y119.5 E10.49454
G1 X115.95 Y119.499 E10.66513
G1 X114.924 Y119.481 E10.69926
G1 X113.793 Y119.433 E10.73691
G1 X111.194 Y119.358 E10.82339
G1 X108.706 Y119.358 E10.90614
G1 X106.15 Y119.43 E10.99119
G1 X105.073 Y119.482 E11.02705
G1 X104.27 Y119.5 E11.05377
G1 X99.164 Y119.499 E11.22359
G1 X98.431 Y119.488 E11.24798
G1 X97.46 Y119.431 E11.28033
G1 X96.566 Y119.299 E11.31038
G1 X95.584 Y119.066 E11.34395
G1 X94.627 Y118.745 E11.37753
G1 X93.8 Y118.384 E11.40754
G1 X92.913 Y117.901 E11.44113
G1 X92.074 Y117.34 E11.4747
G1 X91.37 Y116.774 E11.50474
G1 X90.617 Y116.05 E11.53949
G1 X90.024 Y115.369 E11.56952
G1 X89.431 Y114.552 E11.6031
G1 X88.914 Y113.685 E11.63667
G1 X88.492 Y112.808 E11.66904
G1 X88.172 Y111.964 E11.69906
G1 X87.898 Y110.992 E11.73265
G1 X87.712 Y109.988 E11.76661
G1 X87.614 Y108.809 E11.80596
G1 X87.6 Y108.158 E11.82762
G1 X87.601 Y104.001 E11.96588
G1 X87.609 Y103.468 E11.98361
G1 X87.641 Y102.815 E12.00536
G1 X87.703 Y102.033 E12.03145
G1 X87.818 Y101.101 E12.06268
G1 X88.013 Y100.183 E12.0939
G1 X88.309 Y99.219 E12.12744
G1 X88.69 Y98.286 E12.16096
G1 X89.104 Y97.483 E12.191
G1 X89.663 Y96.6 E12.22576
G1 X90.212 Y95.883 E12.2558
G1 X90.919 Y95.112 E12.29059
G1 F2700 E7.29059
;MESH:????????????1.stl
G0 F6000 X97.983 Y102.98
G0 X104 Y107.9
;TYPE:WALL-INNER
G1 F2700 E12.29059
G1 F1200 X104 Y107.1 E12.3172
G1 X100.6 Y107.1 E12.43028
G1 X100.175 Y106.925 E12.44557
G1 X100 Y106.589 E12.45817
G1 X100 Y103.506 E12.56071
G1 X99.201 Y103.505 E12.58729
G1 X99.202 Y107.898 E12.7334
G1 X104 Y107.9 E12.89298
G1 F2700 E7.89298
G0 F6000 X103.699 Y107.799
G0 X104.18 Y107.9
G0 X105.265 Y107.9
G0 X114.735 Y107.9
G0 X116 Y107.9
G1 F2700 E12.89298
G1 F1200 X120.8 Y107.9 E13.05263
G1 X120.798 Y103.505 E13.19881
G1 X120 Y103.505 E13.22535
G1 X120 Y106.589 E13.32792
G1 X119.824 Y106.924 E13.34051
G1 X119.489 Y107.1 E13.3531
G1 X116 Y107.1 E13.46914
G1 X116 Y107.9 E13.49575
G0 F6000 X115.6 Y108.3
;TYPE:WALL-OUTER
G1 F1200 X121.2 Y108.3 E13.68201
G1 X121.2 Y103.506 E13.84145
G1 X121.161 Y103.105 E13.85486
G1 X119.995 Y103.105 E13.89364
G1 F965.8 X119.4 Y103.203 E13.91856
G1 X119.6 Y103.5 E13.93335
G1 F1200 X119.598 Y106.535 E14.0343
G1 X119.542 Y106.642 E14.03832
G1 X119.435 Y106.698 E14.04233
G1 X115.6 Y106.7 E14.16988
G1 X115.6 Y108.3 E14.2231
G1 F2700 E9.2231
G0 F6000 X115.87 Y108.03
G0 X116.172 Y107.272
G0 X119.828 Y106.928
G0 X119.87 Y103.375
G0 X119.4 Y103.203
G1 F2700 E14.2231
G1 F805.4 X100.549 Y103.205 E15.15731
G1 F2700 E10.15731
G0 F6000 X100.13 Y103.376
G0 X100.172 Y106.928
G0 X103.828 Y107.272
G0 X104.13 Y108.03
G0 X104.4 Y108.3
G1 F2700 E15.15731
G1 F1200 X104.4 Y106.7 E15.21053
G1 X100.6 Y106.7 E15.33692
G1 X100.458 Y106.642 E15.34202
G1 X100.402 Y106.535 E15.34603
G1 X100.4 Y103.5 E15.44698
G1 F961.9 X100.549 Y103.205 E15.46069
G1 X100.006 Y103.106 E15.48359
G1 F1200 X98.838 Y103.106 E15.52244
G1 X98.8 Y103.5 E15.53561
G1 X98.801 Y108.299 E15.69522
G1 X104.4 Y108.3 E15.88145
G0 F6000 X104.13 Y108.03
G0 X103.828 Y107.272
G0 X100.172 Y106.928
G0 X99.828 Y103.678
G0 X99.372 Y103.678
G0 X99.6 Y103.906
;TYPE:SKIN
G1 F997.9 X99.602 Y106.649 E15.99115
G0 F6000 X99.301 Y106.649
G0 X99.374 Y107.726
G0 X100.571 Y107.798
G0 X100.573 Y107.501
G1 F1098.4 X99.924 Y107.533 E16.01476
G1 F1170.7 X99.567 Y107.533 E16.02693
G1 X99.568 Y107.207 E16.03805
G1 F1103.4 X99.601 Y106.666 E16.05765
G1 F1054.9 X99.918 Y107.196 E16.08102
G1 F1050.3 X100.573 Y107.501 E16.10847
G0 F6000 X100.606 Y107.499
G1 F1002.1 X103.6 Y107.5 E16.22772
G1 F2700 E11.22772
G0 F6000 X103.598 Y107.799
G0 X104.186 Y106.914
G0 X105.265 Y106.914
G0 X114.747 Y105.847
G0 X118.747 Y105.847
G0 X120.4 Y103.905
G1 F2700 E16.22772
G1 F997.9 X120.399 Y106.65 E16.33751
G0 F6000 X120.7 Y106.65
G0 X120.628 Y107.728
G0 X119.565 Y107.8
G0 X119.565 Y107.5
G1 F1059.6 X120.087 Y107.186 E16.36045
G1 F1078.7 X120.4 Y106.663 E16.38301
G1 F1118.9 X120.434 Y107.209 E16.40252
G1 F1165 X120.434 Y107.534 E16.41366
G1 X120.109 Y107.534 E16.42479
G1 F1098.4 X119.565 Y107.5 E16.44459
G0 F6000 X119.55 Y107.499
G1 F995.9 X116.4 Y107.5 E16.57084
G1 F2700 E11.57084
;MESH:NOMESH
G0 F300 X116.4 Y107.5 Z0.4
G0 F6000 X116.4 Y107.2
G0 X115.82 Y107.799
G0 X114.735 Y107.799
G0 X105.265 Y107.799
G0 X104 Y107.9
;TIME_ELAPSED:35.313100
;LAYER:1
M106 S85
;TYPE:WALL-INNER
;MESH:????????????1.stl
G1 F2700 E16.57084
G1 F1104.2 X104 Y107.1 E16.59745
G1 X100.6 Y107.1 E16.71053
G1 X100.175 Y106.925 E16.72582
G1 X100 Y106.589 E16.73842
G1 X100 Y103.472 E16.84209
G1 X100.365 Y103.058 E16.86045
G1 X99.281 Y103.057 E16.8965
G1 X99.228 Y103.231 E16.90255
G1 X99.201 Y103.514 E16.91201
G1 X99.202 Y107.898 E17.05782
G1 X104 Y107.9 E17.2174
G1 F2700 E12.2174
G0 F7500 X103.699 Y107.799
G0 X104.166 Y107.422
G0 X104.172 Y106.928
G0 X100.172 Y106.928
G0 X100.172 Y103.072
G0 X119.828 Y103.072
G0 X119.828 Y106.928
G0 X116.228 Y106.928
G0 X116 Y107.9
G1 F2700 E17.2174
G1 F1104.2 X120.8 Y107.9 E17.37705
G1 X120.8 Y103.524 E17.5226
G1 X120.771 Y103.231 E17.53239
G1 X120.717 Y103.058 E17.53842
G1 X119.566 Y103.058 E17.5767
G1 X120 Y103.471 E17.59663
G1 X120 Y106.589 E17.70033
G1 X119.824 Y106.924 E17.71292
G1 X119.489 Y107.1 E17.72551
G1 X116 Y107.1 E17.84155
G1 X116 Y107.9 E17.86816
G1 F2700 E12.86816
G0 F7500 X115.828 Y106.928
G0 X119.828 Y106.928
G0 X119.828 Y103.072
G0 X100.172 Y103.072
G0 X100.172 Y106.928
G0 X103.772 Y106.928
G0 X104.13 Y108.03
G0 X104.4 Y108.3
;TYPE:WALL-OUTER
G1 F2700 E17.86816
G1 F1104.2 X104.4 Y106.7 E17.92138
G1 X100.6 Y106.7 E18.04776
G1 X100.458 Y106.642 E18.05287
G1 X100.402 Y106.535 E18.05688
G1 X100.4 Y103.49 E18.15816
G1 F956 X100.555 Y103.241 E18.16943
G1 F844.5 X119.4 Y103.24 E18.98895
G1 F960.2 X119.6 Y103.49 E19.0012
G1 F1104.2 X119.598 Y106.535 E19.10247
G1 X119.542 Y106.642 E19.10649
G1 X119.435 Y106.698 E19.11051
G1 X115.6 Y106.7 E19.23806
G1 X115.6 Y108.3 E19.29128
G1 X121.2 Y108.3 E19.47753
G1 X121.2 Y103.505 E19.63702
G1 X121.165 Y103.153 E19.64878
G1 X121.061 Y102.812 E19.66064
G1 X120.979 Y102.658 E19.66644
G1 X120.395 Y102.657 E19.68586
G1 F960.2 X119.4 Y102.718 E19.72399
G1 F844.5 X100.51 Y102.719 E20.54548
G1 F956 X99.605 Y102.658 E20.58032
G1 F1104.2 X99.021 Y102.658 E20.59974
G1 X98.938 Y102.812 E20.60556
G1 X98.834 Y103.153 E20.61742
G1 X98.801 Y103.495 E20.62885
G1 X98.801 Y108.299 E20.78863
G1 X104.4 Y108.3 E20.97485
G0 F7500 X104.13 Y108.03
G0 X103.828 Y107.272
G0 X100.172 Y106.928
G0 X100.017 Y103.242
G0 X99.403 Y103.228
G0 X99.605 Y103.453
;TYPE:SKIN
G1 F925.9 X99.602 Y106.649 E21.10162
G0 F7500 X99.301 Y106.65
G0 X99.374 Y107.726
G0 X100.571 Y107.798
G0 X100.573 Y107.501
G1 F1010.7 X99.924 Y107.533 E21.12523
G1 F1077.3 X99.567 Y107.533 E21.1374
G1 X99.568 Y107.207 E21.14851
G1 F1015.3 X99.601 Y106.666 E21.16812
G1 F970.7 X99.918 Y107.196 E21.19148
G1 F966.5 X100.573 Y107.501 E21.21894
G0 F7500 X100.606 Y107.499
G1 F922.1 X103.6 Y107.5 E21.33818
G0 F7500 X103.598 Y107.799
G0 X104.163 Y107.571
G0 X104.172 Y106.928
G0 X100.172 Y106.928
G0 X100.172 Y103.072
G0 X119.828 Y103.072
G0 X120.394 Y103.158
G0 X120.394 Y103.453
G1 F927.9 X120.4 Y103.536 E21.34148
G1 F920.2 X120.4 Y106.649 E21.46572
G0 F7500 X120.7 Y106.649
G0 X120.628 Y107.728
G0 X119.565 Y107.8
G0 X119.565 Y107.5
G1 F958.1 X120.088 Y107.185 E21.48913
G1 F939.7 X120.4 Y106.649 E21.51337
G1 F990.3 X120.434 Y107.209 E21.53417
G1 F1072 X120.434 Y107.534 E21.54531
G1 X120.109 Y107.534 E21.55644
G1 F1010.7 X119.565 Y107.5 E21.57624
G0 F7500 X119.55 Y107.499
G1 F916.3 X116.4 Y107.5 E21.70249
;MESH:NOMESH
G0 F300 X116.4 Y107.5 Z0.6
G0 F7500 X116.4 Y107.2
G0 X119.828 Y106.928
G0 X119.828 Y103.072
G0 X100.485 Y102.958
G0 X100.485 Y102.848
;TIME_ELAPSED:49.786037
;LAYER:2
M106 S170
;TYPE:WALL-INNER
;MESH:????????????1.stl
G1 F1136.4 X106.205 Y102.836 E21.95362
G0 F9000 X100.172 Y103.072
G0 X100.172 Y106.928
G0 X104.134 Y106.935
G0 X103.859 Y107.648
G0 X104 Y107.9
G1 F1500 X104 Y107.1 E21.98023
G1 X100.6 Y107.1 E22.09331
G1 X100.175 Y106.925 E22.1086
G1 X100 Y106.589 E22.1212
G1 X100.002 Y103.442 E22.22587
G1 X100.03 Y103.31 E22.23036
G1 F1298.7 X100.485 Y102.848 E22.25527
G1 X99.656 Y102.79 E22.28719
G1 F1500 X99.403 Y102.79 E22.29561
G1 X99.309 Y102.968 E22.3023
G1 X99.23 Y103.231 E22.31144
G1 X99.2 Y103.525 E22.32126
G1 X99.202 Y107.898 E22.46671
G1 X104 Y107.9 E22.62629
G0 F9000 X103.699 Y107.799
G0 X104.165 Y107.441
G0 X104.172 Y106.928
G0 X100.172 Y106.928
G0 X100.172 Y103.072
G0 X113.511 Y102.839
