;FLAVOR:Marlin
;TIME:6339
;Filament used: 3.91121m
;Layer height: 0.2
;MINX:94.001
;MINY:72.807
;MINZ:0.2
;MAXX:125.999
;MAXY:127.194
;MAXZ:84.4
;Generated with Cura_SteamEngine 5.3.0
M140 S60
M105
M190 S60
M104 S230
M105
M109 S230
M82 ;absolute extrusion mode
; Ender 3 Custom Start G-code
G92 E0 ; Reset Extruder
G28 ; Home all axes
G1 Z2.0 F3000 ; Move Z Axis up little to prevent scratching of Heat Bed
G1 X0.1 Y20 Z0.3 F5000.0 ; Move to start position
G1 X0.1 Y200.0 Z0.3 F1500.0 E15 ; Draw the first line
G1 X0.4 Y200.0 Z0.3 F5000.0 ; Move to side a little
G1 X0.4 Y20 Z0.3 F1500.0 E30 ; Draw the second line
G92 E0 ; Reset Extruder
G1 Z2.0 F3000 ; Move Z Axis up little to prevent scratching of Heat Bed
G1 X5 Y20 Z0.3 F5000.0 ; Move over to prevent blob squish
G92 E0
G92 E0
G1 F2700 E-5
;LAYER_COUNT:422
;LAYER:0
M107
G0 F6000 X97.756 Y85.065 Z0.2
;TYPE:SKIRT
G1 F2700 E0
G1 F1200 X98.364 Y84.397 E0.03004
G1 X99.029 Y83.786 E0.06008
G1 X99.798 Y83.198 E0.09228
G1 X100.076 Y83.006 E0.10351
G1 X100.681 Y82.609 E0.12758
G1 X101.46 Y82.151 E0.15764
G1 X102.276 Y81.764 E0.18768
G1 X103.123 Y81.45 E0.21772
G1 X103.996 Y81.213 E0.24781
G1 X104.781 Y81.047 E0.27449
G1 X105.251 Y80.964 E0.29037
G1 X106.147 Y80.847 E0.32042
G1 X106.885 Y80.81 E0.345
G1 X107.682 Y80.8 E0.37151
G1 X112.451 Y80.801 E0.53013
G1 X113.161 Y80.812 E0.55374
G1 X114.063 Y80.866 E0.5838
G1 X114.809 Y80.972 E0.60886
G1 X115.502 Y81.103 E0.63232
G1 X115.922 Y81.194 E0.64661
G1 X116.795 Y81.424 E0.67664
G1 X117.645 Y81.731 E0.7067
G1 X118.464 Y82.111 E0.73673
G1 X119.259 Y82.571 E0.76727
G1 X119.828 Y82.941 E0.78985
G1 X120.175 Y83.179 E0.80384
G1 X120.897 Y83.723 E0.83391
G1 X121.567 Y84.328 E0.86394
G1 X122.182 Y84.99 E0.89399
G1 X122.799 Y85.795 E0.92772
G1 X123.134 Y86.286 E0.94749
G1 X123.383 Y86.668 E0.96266
G1 X123.842 Y87.446 E0.9927
G1 X124.231 Y88.261 E1.02274
G1 X124.546 Y89.107 E1.05277
G1 X124.807 Y90.079 E1.08624
G1 X124.943 Y90.73 E1.10836
G1 X125.019 Y91.14 E1.12223
G1 X125.144 Y92.034 E1.15225
G1 X125.189 Y92.832 E1.17884
G1 X125.199 Y93.443 E1.19916
G1 X125.199 Y106.452 E1.63184
G1 X125.188 Y107.162 E1.65546
G1 X125.134 Y108.064 E1.68551
G1 X125.028 Y108.81 E1.71058
G1 X124.906 Y109.459 E1.73254
G1 X124.818 Y109.874 E1.74665
G1 X124.592 Y110.748 E1.77667
G1 X124.289 Y111.599 E1.80672
G1 X123.912 Y112.42 E1.83677
G1 X123.413 Y113.284 E1.86995
G1 X123.01 Y113.899 E1.89441
G1 X122.789 Y114.218 E1.90732
G1 X122.243 Y114.937 E1.93734
G1 X121.635 Y115.604 E1.96736
G1 X120.97 Y116.216 E1.99742
G1 X120.221 Y116.789 E2.02879
G1 X119.683 Y117.156 E2.05045
G1 X119.311 Y117.397 E2.06519
G1 X118.532 Y117.854 E2.09523
G1 X117.716 Y118.24 E2.12525
G1 X116.868 Y118.552 E2.1553
G1 X116.004 Y118.787 E2.18509
G1 X115.219 Y118.953 E2.21177
G1 X114.749 Y119.036 E2.22765
G1 X113.853 Y119.153 E2.2577
G1 X113.115 Y119.19 E2.28228
G1 X112.318 Y119.2 E2.30879
G1 X107.549 Y119.199 E2.46741
G1 X106.839 Y119.188 E2.49102
G1 X105.937 Y119.134 E2.52108
G1 X105.191 Y119.028 E2.54614
G1 X104.498 Y118.897 E2.5696
G1 X104.078 Y118.806 E2.58389
G1 X103.205 Y118.576 E2.61392
G1 X102.355 Y118.269 E2.64397
G1 X101.536 Y117.889 E2.674
G1 X100.741 Y117.429 E2.70455
G1 X100.119 Y117.022 E2.72928
G1 X99.768 Y116.778 E2.74349
G1 X99.05 Y116.23 E2.77354
G1 X98.383 Y115.621 E2.80358
G1 X97.773 Y114.955 E2.83361
G1 X97.223 Y114.237 E2.8637
G1 X96.839 Y113.675 E2.88634
G1 X96.593 Y113.294 E2.90142
G1 X96.137 Y112.514 E2.93147
G1 X95.752 Y111.697 E2.96151
G1 X95.441 Y110.849 E2.99155
G1 X95.194 Y109.925 E3.02336
G1 X95.057 Y109.273 E3.04552
G1 X94.982 Y108.869 E3.05919
G1 X94.857 Y107.974 E3.08925
G1 X94.812 Y107.179 E3.11573
G1 X94.801 Y106.528 E3.13739
G1 X94.801 Y93.548 E3.5691
G1 X94.812 Y92.836 E3.59279
G1 X94.866 Y91.935 E3.62281
G1 X94.973 Y91.182 E3.6481
G1 X95.096 Y90.53 E3.67017
G1 X95.184 Y90.117 E3.68422
G1 X95.411 Y89.243 E3.71425
G1 X95.715 Y88.393 E3.74428
G1 X96.092 Y87.572 E3.77432
G1 X96.586 Y86.718 E3.80714
G1 X96.807 Y86.375 E3.82071
G1 X97.21 Y85.784 E3.8445
G1 X97.756 Y85.065 E3.87453
G0 F6000 X97.437 Y84.823
G1 F1200 X98.093 Y84.102 E3.90695
G1 X98.758 Y83.491 E3.93699
G1 X99.571 Y82.869 E3.97103
G1 X99.857 Y82.672 E3.98258
G1 X100.478 Y82.264 E4.0073
G1 X101.257 Y81.806 E4.03735
G1 X102.137 Y81.389 E4.06974
G1 X103.018 Y81.064 E4.10097
G1 X103.913 Y80.822 E4.13181
G1 X104.711 Y80.653 E4.15894
G1 X105.199 Y80.567 E4.17542
G1 X106.095 Y80.45 E4.20548
G1 X106.88 Y80.41 E4.23162
G1 X107.682 Y80.4 E4.2583
G1 X112.457 Y80.401 E4.41711
G1 X113.185 Y80.413 E4.44133
G1 X114.119 Y80.47 E4.47245
G1 X114.883 Y80.579 E4.49812
G1 X115.587 Y80.712 E4.52195
G1 X116.024 Y80.807 E4.53682
G1 X116.897 Y81.037 E4.56685
G1 X117.813 Y81.368 E4.59924
G1 X118.632 Y81.748 E4.62927
G1 X119.477 Y82.236 E4.66173
G1 X120.054 Y82.611 E4.68462
G1 X120.416 Y82.86 E4.69923
G1 X121.165 Y83.426 E4.73046
G1 X121.835 Y84.031 E4.76048
G1 X122.475 Y84.718 E4.79171
G1 X123.129 Y85.57 E4.82743
G1 X123.469 Y86.068 E4.84749
G1 X123.728 Y86.465 E4.86325
G1 X124.187 Y87.243 E4.8933
G1 X124.606 Y88.121 E4.92566
G1 X124.921 Y88.967 E4.95568
G1 X125.199 Y89.997 E4.99116
G1 X125.336 Y90.657 E5.01358
G1 X125.415 Y91.085 E5.02806
G1 X125.543 Y92.011 E5.05915
G1 X125.589 Y92.825 E5.08627
G1 X125.599 Y93.436 E5.10659
G1 X125.599 Y106.458 E5.53971
G1 X125.587 Y107.186 E5.56392
G1 X125.53 Y108.12 E5.59505
G1 X125.421 Y108.884 E5.62071
G1 X125.297 Y109.542 E5.64298
G1 X125.205 Y109.974 E5.65768
G1 X124.969 Y110.882 E5.68888
G1 X124.653 Y111.766 E5.7201
G1 X124.276 Y112.587 E5.75015
G1 X123.748 Y113.503 E5.78532
G1 X123.339 Y114.127 E5.81013
G1 X123.108 Y114.46 E5.82361
G1 X122.562 Y115.179 E5.85364
G1 X121.931 Y115.873 E5.88484
G1 X121.213 Y116.534 E5.9173
G1 X120.464 Y117.107 E5.94866
G1 X119.9 Y117.492 E5.97137
G1 X119.513 Y117.742 E5.9867
G1 X118.703 Y118.216 E6.01791
G1 X117.887 Y118.602 E6.04794
G1 X116.973 Y118.938 E6.08032
G1 X116.087 Y119.178 E6.11085
G1 X115.289 Y119.347 E6.13799
G1 X114.801 Y119.433 E6.15447
G1 X113.905 Y119.55 E6.18452
G1 X113.12 Y119.59 E6.21066
G1 X112.323 Y119.6 E6.23717
G1 X107.543 Y119.599 E6.39616
G1 X106.815 Y119.587 E6.42037
G1 X105.881 Y119.53 E6.4515
G1 X105.117 Y119.421 E6.47716
G1 X104.413 Y119.288 E6.50099
G1 X103.976 Y119.193 E6.51587
G1 X103.103 Y118.963 E6.5459
G1 X102.187 Y118.632 E6.57829
G1 X101.368 Y118.252 E6.60832
G1 X100.522 Y117.764 E6.6408
G1 X99.891 Y117.35 E6.6659
G1 X99.525 Y117.096 E6.68072
G1 X98.807 Y116.548 E6.71076
G1 X98.088 Y115.891 E6.74316
G1 X97.455 Y115.198 E6.77437
G1 X96.893 Y114.463 E6.80515
G1 X96.503 Y113.892 E6.82815
G1 X96.248 Y113.496 E6.84381
G1 X95.775 Y112.685 E6.87504
G1 X95.376 Y111.835 E6.90627
G1 X95.065 Y110.987 E6.93631
G1 X94.803 Y110.007 E6.97005
G1 X94.664 Y109.346 E6.99252
G1 X94.586 Y108.924 E7.00679
G1 X94.458 Y107.997 E7.03791
G1 X94.412 Y107.186 E7.06493
G1 X94.401 Y106.535 E7.08659
G1 X94.401 Y93.542 E7.51874
G1 X94.413 Y92.812 E7.54302
G1 X94.47 Y91.879 E7.57411
G1 X94.58 Y91.108 E7.60001
G1 X94.705 Y90.447 E7.62239
G1 X94.797 Y90.016 E7.63705
G1 X95.034 Y89.108 E7.66826
G1 X95.351 Y88.226 E7.69943
G1 X95.728 Y87.405 E7.72948
G1 X96.25 Y86.501 E7.7642
G1 X96.477 Y86.15 E7.7781
G1 X96.891 Y85.542 E7.80257
G1 X97.437 Y84.823 E7.83259
G0 F6000 X97.118 Y84.581
G1 F1200 X97.822 Y83.807 E7.86739
G1 X98.487 Y83.196 E7.89743
G1 X99.344 Y82.54 E7.93333
G1 X99.637 Y82.338 E7.94516
G1 X100.275 Y81.919 E7.97055
G1 X101.054 Y81.461 E8.0006
G1 X101.999 Y81.014 E8.03537
G1 X102.914 Y80.678 E8.06779
G1 X103.83 Y80.431 E8.09935
G1 X104.642 Y80.259 E8.12696
G1 X105.147 Y80.17 E8.14401
G1 X106.043 Y80.053 E8.17406
G1 X106.875 Y80.01 E8.20177
G1 X107.682 Y80 E8.22862
G1 X112.464 Y80.001 E8.38767
G1 X113.209 Y80.014 E8.41245
G1 X114.175 Y80.074 E8.44464
G1 X114.957 Y80.186 E8.47092
G1 X115.672 Y80.321 E8.49512
G1 X116.126 Y80.42 E8.51057
G1 X116.999 Y80.65 E8.5406
G1 X117.981 Y81.005 E8.57533
G1 X118.8 Y81.385 E8.60536
G1 X119.695 Y81.901 E8.63972
G1 X120.281 Y82.281 E8.66295
G1 X120.643 Y82.53 E8.67756
G1 X121.433 Y83.129 E8.71054
G1 X122.128 Y83.758 E8.74171
G1 X122.768 Y84.445 E8.77294
G1 X123.459 Y85.344 E8.81066
G1 X123.804 Y85.849 E8.831
G1 X124.073 Y86.262 E8.84739
G1 X124.532 Y87.04 E8.87743
G1 X124.981 Y87.981 E8.91211
G1 X125.296 Y88.827 E8.94214
G1 X125.591 Y89.916 E8.97966
G1 X125.729 Y90.584 E9.00235
G1 X125.811 Y91.03 E9.01743
G1 X125.942 Y91.988 E9.04959
G1 X125.989 Y92.818 E9.07724
G1 X125.999 Y93.429 E9.09757
G1 X125.999 Y106.465 E9.53115
G1 X125.986 Y107.21 E9.55593
G1 X125.926 Y108.176 E9.58812
G1 X125.814 Y108.958 E9.6144
G1 X125.688 Y109.625 E9.63697
G1 X125.592 Y110.075 E9.65228
G1 X125.346 Y111.017 E9.68466
G1 X125.017 Y111.933 E9.71703
G1 X124.623 Y112.787 E9.74831
G1 X124.083 Y113.722 E9.78422
G1 X123.668 Y114.355 E9.8094
G1 X123.427 Y114.702 E9.82345
G1 X122.881 Y115.421 E9.85348
G1 X122.227 Y116.142 E9.88585
G1 X121.456 Y116.852 E9.92071
G1 X120.69 Y117.437 E9.95277
G1 X120.117 Y117.828 E9.97584
G1 X119.715 Y118.087 E9.99175
G1 X118.874 Y118.578 E10.02414
G1 X118.058 Y118.964 E10.05416
G1 X117.078 Y119.324 E10.08889
G1 X116.17 Y119.569 E10.12017
G1 X115.358 Y119.741 E10.14777
G1 X114.853 Y119.83 E10.16483
G1 X113.957 Y119.947 E10.19488
G1 X113.125 Y119.99 E10.22259
G1 X112.323 Y120 E10.24927
G1 X107.536 Y119.999 E10.40849
G1 X106.791 Y119.986 E10.43327
G1 X105.825 Y119.926 E10.46546
G1 X105.043 Y119.814 E10.49173
G1 X104.328 Y119.679 E10.51594
G1 X103.874 Y119.58 E10.53139
G1 X103.001 Y119.35 E10.56142
G1 X102.019 Y118.995 E10.59615
G1 X101.2 Y118.615 E10.62618
G1 X100.303 Y118.098 E10.66061
G1 X99.663 Y117.679 E10.68605
G1 X99.282 Y117.414 E10.70149
G1 X98.564 Y116.866 E10.73153
G1 X97.793 Y116.161 E10.76628
G1 X97.137 Y115.441 E10.79868
G1 X96.563 Y114.689 E10.83014
G1 X96.167 Y114.109 E10.8535
G1 X95.902 Y113.698 E10.86977
G1 X95.429 Y112.887 E10.90099
G1 X95 Y111.973 E10.93457
G1 X94.689 Y111.125 E10.96462
G1 X94.412 Y110.089 E11.00028
G1 X94.271 Y109.419 E11.02306
G1 X94.19 Y108.979 E11.03794
G1 X94.059 Y108.02 E11.07013
G1 X94.012 Y107.193 E11.09768
G1 X94.001 Y106.542 E11.11933
G1 X94.001 Y93.535 E11.55195
G1 X94.014 Y92.788 E11.5768
G1 X94.074 Y91.823 E11.60896
G1 X94.187 Y91.034 E11.63547
G1 X94.314 Y90.363 E11.65818
G1 X94.41 Y89.915 E11.67342
G1 X94.647 Y89.007 E11.70463
G1 X94.987 Y88.059 E11.73813
G1 X95.364 Y87.238 E11.76818
G1 X95.914 Y86.284 E11.8048
G1 X96.146 Y85.925 E11.81902
G1 X96.572 Y85.3 E11.84418
G1 X97.118 Y84.581 E11.8742
G1 F2700 E6.8742
;MESH:??????(??????).stl
G0 F6000 X107.665 Y97.299
G0 X107.161 Y98.89
G0 X107.161 Y101.11
G0 X107.381 Y101.932
G0 X108.067 Y102.617
G0 X108.89 Y102.839
G0 X111.921 Y102.79
;TYPE:WALL-INNER
G1 F2700 E11.8742
G1 F1200 X111.133 Y103 E11.90133
G1 X108.864 Y103 E11.97679
G1 X108.082 Y102.79 E12.00373
G1 X107.792 Y102.574 E12.01575
G1 X107.425 Y102.207 E12.03301
G1 X107.166 Y101.757 E12.05028
G1 X107 Y101.119 E12.07221
G1 X107 Y99 E12.14269
G1 X107.034 Y98.741 E12.15138
G1 X107.167 Y98.24 E12.16862
G1 X107.426 Y97.792 E12.18583
G1 X107.793 Y97.425 E12.20309
G1 X108.08 Y97.209 E12.21504
G1 X108.867 Y97 E12.24212
G1 X111.136 Y97 E12.31759
G1 X111.923 Y97.211 E12.34469
G1 X112.208 Y97.426 E12.35656
G1 X112.575 Y97.793 E12.37382
G1 X112.834 Y98.243 E12.39109
G1 X112.966 Y98.742 E12.40826
G1 X113 Y99 E12.41692
G1 X113 Y101.119 E12.4874
G1 X112.833 Y101.76 E12.50943
G1 X112.573 Y102.207 E12.52663
G1 X112.206 Y102.574 E12.54389
G1 X111.921 Y102.79 E12.55578
G0 F6000 X111.81 Y102.406
G1 F1200 X111.083 Y102.595 E12.58077
G1 X108.917 Y102.595 E12.65281
G1 X108.19 Y102.406 E12.67779
G1 X107.708 Y101.924 E12.70046
G1 X107.552 Y101.654 E12.71083
G1 X107.4 Y101.073 E12.73081
G1 X107.4 Y98.919 E12.80245
G1 X107.554 Y98.344 E12.82225
G1 X107.709 Y98.075 E12.83258
G1 X108.191 Y97.593 E12.85525
G1 X108.917 Y97.405 E12.88019
G1 X111.083 Y97.405 E12.95223
G1 X111.81 Y97.594 E12.97722
G1 X112.292 Y98.076 E12.99989
G1 X112.448 Y98.346 E13.01026
G1 X112.6 Y98.921 E13.03004
G1 X112.6 Y101.074 E13.10165
G1 X112.446 Y101.656 E13.12167
G1 X112.291 Y101.925 E13.132
G1 X111.81 Y102.406 E13.15462
G1 F2700 E8.15462
G0 F6000 X112.021 Y102.617
G0 X111.506 Y102.742
G0 X108.839 Y103.181
G0 X108.839 Y107.8
G0 X106.625 Y107.904
G1 F2700 E13.15462
G1 F1200 X107.1 Y108 E13.17074
G1 X112.9 Y108 E13.36365
G1 X113.374 Y107.904 E13.37974
G1 X113.692 Y107.693 E13.39243
G1 X113.905 Y107.374 E13.40519
G1 X114 Y106.9 E13.42127
G1 X114 Y93.1 E13.88026
G1 X113.905 Y92.625 E13.89637
G1 X113.693 Y92.307 E13.90908
G1 X113.375 Y92.095 E13.92179
G1 X112.9 Y92 E13.9379
G1 X107.101 Y92 E14.13078
G1 X106.625 Y92.095 E14.14692
G1 X106.308 Y92.307 E14.15961
G1 X106.094 Y92.626 E14.17238
G1 X106 Y93.101 E14.18849
G1 X106 Y106.9 E14.64744
G1 X106.096 Y107.375 E14.66356
G1 X106.308 Y107.692 E14.67625
G1 X106.625 Y107.904 E14.68893
G0 F6000 X106.469 Y108.281
G1 F1200 X107.061 Y108.4 E14.70901
G1 X112.94 Y108.4 E14.90455
G1 X113.53 Y108.281 E14.92457
G1 X113.98 Y107.981 E14.94256
G1 X114.282 Y107.53 E14.96061
G1 X114.4 Y106.94 E14.98062
G1 X114.4 Y93.061 E15.44224
G1 X114.281 Y92.469 E15.46232
G1 X113.981 Y92.019 E15.48031
G1 X113.531 Y91.719 E15.4983
G1 X112.939 Y91.6 E15.51838
G1 X107.061 Y91.6 E15.71389
G1 X106.469 Y91.719 E15.73397
G1 X106.02 Y92.019 E15.75193
G1 X105.718 Y92.47 E15.76998
G1 X105.6 Y93.061 E15.79003
G1 X105.6 Y106.939 E16.25161
G1 X105.719 Y107.531 E16.2717
G1 X106.019 Y107.981 E16.28968
G1 X106.469 Y108.281 E16.30767
G0 F6000 X106.313 Y108.658
;TYPE:WALL-OUTER
G1 F1200 X107.021 Y108.8 E16.33169
G1 X112.979 Y108.8 E16.52985
G1 X113.686 Y108.658 E16.55384
G1 X114.268 Y108.27 E16.5771
G1 X114.659 Y107.686 E16.60048
G1 X114.8 Y106.979 E16.62446
G1 X114.8 Y93.021 E17.0887
G1 X114.658 Y92.313 E17.11272
G1 X114.269 Y91.731 E17.136
G1 X113.687 Y91.342 E17.15929
G1 X112.979 Y91.2 E17.1833
G1 X107.021 Y91.2 E17.38147
G1 X106.313 Y91.342 E17.40548
G1 X105.732 Y91.73 E17.42872
G1 X105.341 Y92.314 E17.4521
G1 X105.2 Y93.021 E17.47607
G1 X105.2 Y106.979 E17.94032
G1 X105.342 Y107.687 E17.96434
G1 X105.731 Y108.269 E17.98762
G1 X106.313 Y108.658 E18.0109
G1 F2700 E13.0109
G0 F6000 X106.585 Y108.002
G0 X112.097 Y107.8
G0 X111.803 Y103.009
G0 X112.097 Y102.541
G0 X111.603 Y102.047
G1 F2700 E18.0109
G1 F1200 X111.028 Y102.199 E18.03068
G1 X108.972 Y102.199 E18.09907
G1 X108.396 Y102.046 E18.11889
G1 X107.953 Y101.603 E18.13973
G1 X107.802 Y101.035 E18.15927
G1 X107.8 Y98.97 E18.22796
G1 X107.954 Y98.396 E18.24772
G1 X108.397 Y97.953 E18.26856
G1 X108.972 Y97.801 E18.28834
G1 X111.028 Y97.801 E18.35672
G1 X111.604 Y97.954 E18.37655
G1 X112.047 Y98.397 E18.39738
G1 X112.2 Y98.971 E18.41714
G1 X112.198 Y101.035 E18.48579
G1 X112.046 Y101.604 E18.50538
G1 X111.603 Y102.047 E18.52622
G1 F2700 E13.52622
G0 F6000 X112.097 Y102.541
G0 X111.298 Y102.782
G0 X108.839 Y103.181
G0 X108.839 Y107.8
G0 X106.62 Y107.78
G0 X106.765 Y107.565
;TYPE:SKIN
G1 F2700 E18.52622
G1 F1200 X106.568 Y107.432 E18.53412
G1 X106.435 Y107.235 E18.54203
G1 X106.36 Y106.863 E18.55465
G1 X106.361 Y101.9 E18.71972
G1 F1290.3 X106.332 Y101.22 E18.74077
G1 F1399.4 X106.33 Y98.959 E18.80526
G1 F1297.3 X106.361 Y98.092 E18.83195
G1 F1200 X106.36 Y93.137 E18.99675
G1 X106.435 Y92.766 E19.00934
G1 X106.568 Y92.568 E19.01727
G1 X106.765 Y92.435 E19.02518
G1 X107.137 Y92.36 E19.0378
G1 X112.863 Y92.36 E19.22825
G1 X113.235 Y92.435 E19.24087
G1 X113.432 Y92.568 E19.24878
G1 X113.565 Y92.765 E19.25668
G1 X113.64 Y93.137 E19.2693
G1 X113.64 Y98.095 E19.43421
G1 F1297.3 X113.67 Y98.959 E19.46081
G1 F1407.6 X113.669 Y101.197 E19.52426
G1 F1293.8 X113.64 Y101.902 E19.54603
G1 F1200 X113.639 Y106.862 E19.711
G1 X113.563 Y107.235 E19.72366
G1 X113.431 Y107.432 E19.73155
G1 X113.234 Y107.564 E19.73944
G1 X112.862 Y107.639 E19.75206
G1 X107.137 Y107.64 E19.94247
G1 X106.765 Y107.565 E19.95509
G1 F2700 E14.95509
G0 F6000 X106.62 Y107.78
G0 X107.117 Y107.839
G0 X109.361 Y107.817
G0 X111.148 Y107.8
G0 X111.148 Y103.18
G0 X111.182 Y103.36
G1 F2700 E19.95509
G1 F1200 X111.849 Y103.182 E19.97805
G1 X112.157 Y103.062 E19.98905
G1 X112.443 Y102.847 E20.00095
G1 X112.843 Y102.448 E20.01974
G1 X113.178 Y101.867 E20.04205
G1 F1293.8 X113.329 Y101.168 E20.06411
