;FLAVOR:Marlin
;TIME:3545
;Filament used: 2.36083m
;Layer height: 0.2
;MINX:79
;MINY:74
;MINZ:0.2
;MAXX:140.999
;MAXY:126
;MAXZ:18
;Generated with Cura_SteamEngine 5.3.0
M140 S60
M105
M190 S60
M104 S230
M105
M109 S230
M82 ;absolute extrusion mode
; Ender 3 Custom Start G-code
G92 E0 ; Reset Extruder
G28 ; Home all axes
G1 Z2.0 F3000 ; Move Z Axis up little to prevent scratching of Heat Bed
G1 X0.1 Y20 Z0.3 F5000.0 ; Move to start position
G1 X0.1 Y200.0 Z0.3 F1500.0 E15 ; Draw the first line
G1 X0.4 Y200.0 Z0.3 F5000.0 ; Move to side a little
G1 X0.4 Y20 Z0.3 F1500.0 E30 ; Draw the second line
G92 E0 ; Reset Extruder
G1 Z2.0 F3000 ; Move Z Axis up little to prevent scratching of Heat Bed
G1 X5 Y20 Z0.3 F5000.0 ; Move over to prevent blob squish
G92 E0
G92 E0
G1 F2700 E-5
;LAYER_COUNT:90
;LAYER:0
M107
G0 F6000 X93.601 Y78.419 Z0.2
;TYPE:SKIRT
G1 F2700 E0
G1 F1200 X94.214 Y77.756 E0.03003
G1 X94.884 Y77.15 E0.06008
G1 X95.605 Y76.606 E0.09012
G1 X96.371 Y76.128 E0.12015
G1 X97.176 Y75.719 E0.15018
G1 X98.014 Y75.383 E0.18021
G1 X98.879 Y75.123 E0.21025
G1 X99.763 Y74.94 E0.24028
G1 X101.059 Y74.815 E0.28358
G1 X101.698 Y74.8 E0.30484
G1 X117.916 Y74.8 E0.84426
G1 X118.762 Y74.811 E0.8724
G1 X119.663 Y74.864 E0.90242
G1 X120.557 Y74.996 E0.93247
G1 X121.435 Y75.207 E0.96251
G1 X122.291 Y75.495 E0.99255
G1 X123.118 Y75.857 E1.02257
G1 X123.91 Y76.291 E1.05261
G1 X124.66 Y76.794 E1.08265
G1 X125.363 Y77.361 E1.11268
G1 X126.014 Y77.987 E1.14272
G1 X126.606 Y78.669 E1.17276
G1 X127.135 Y79.401 E1.2028
G1 X127.598 Y80.176 E1.23283
G1 X127.907 Y80.8 E1.25598
G1 X128.354 Y81.786 E1.29199
G1 X129.449 Y84.115 E1.37759
G1 X130.598 Y86.389 E1.46233
G1 X131.81 Y88.628 E1.54701
G1 X133.078 Y90.822 E1.63129
G1 X134.418 Y92.995 E1.7162
G1 X135.798 Y95.099 E1.79989
G1 X137.294 Y97.243 E1.88685
G1 X138.145 Y98.418 E1.9351
G1 X138.642 Y99.172 E1.96514
G1 X139.07 Y99.967 E1.99517
G1 X139.426 Y100.797 E2.0252
G1 X139.686 Y101.569 E2.0523
G1 X139.918 Y102.442 E2.08234
G1 X140.115 Y103.67 E2.12371
G1 X140.174 Y104.624 E2.1555
G1 X140.198 Y105.767 E2.19352
G1 X140.199 Y114.404 E2.48079
G1 X140.189 Y115.131 E2.50497
G1 X140.137 Y116.033 E2.53502
G1 X140.005 Y116.926 E2.56505
G1 X139.794 Y117.805 E2.59511
G1 X139.507 Y118.661 E2.62514
G1 X139.145 Y119.488 E2.65517
G1 X138.711 Y120.28 E2.68521
G1 X138.209 Y121.031 E2.71525
G1 X137.643 Y121.734 E2.74527
G1 X137.016 Y122.385 E2.77533
G1 X136.335 Y122.977 E2.80534
G1 X135.604 Y123.507 E2.83537
G1 X134.828 Y123.97 E2.86543
G1 X134.015 Y124.363 E2.89546
G1 X133.17 Y124.683 E2.92552
G1 X132.301 Y124.926 E2.95553
G1 X131.413 Y125.091 E2.98557
G1 X130.277 Y125.187 E3.02349
G1 X129.67 Y125.2 E3.04368
G1 X120.551 Y125.199 E3.34698
G1 X119.831 Y125.188 E3.37093
G1 X119.117 Y125.152 E3.39471
G1 X116.379 Y124.917 E3.48611
G1 X113.847 Y124.775 E3.57045
G1 X111.304 Y124.703 E3.65507
G1 X108.772 Y124.703 E3.73928
G1 X106.238 Y124.775 E3.8236
G1 X103.699 Y124.919 E3.90818
G1 X102.256 Y125.041 E3.95635
G1 X102.086 Y125.048 E3.96201
G1 X100.865 Y125.153 E4.00277
G1 X100.277 Y125.187 E4.02236
G1 X99.67 Y125.2 E4.04255
G1 X90.575 Y125.199 E4.34505
G1 X89.877 Y125.19 E4.36827
G1 X88.976 Y125.139 E4.39828
G1 X88.082 Y125.007 E4.42834
G1 X87.204 Y124.798 E4.45836
G1 X86.347 Y124.511 E4.48842
G1 X85.52 Y124.15 E4.51843
G1 X84.727 Y123.717 E4.54848
G1 X83.976 Y123.216 E4.57851
G1 X83.272 Y122.65 E4.60855
G1 X82.621 Y122.024 E4.63859
G1 X82.028 Y121.343 E4.66863
G1 X81.498 Y120.612 E4.69866
G1 X81.034 Y119.837 E4.7287
G1 X80.64 Y119.024 E4.75875
G1 X80.32 Y118.18 E4.78877
G1 X80.076 Y117.31 E4.81882
G1 X79.91 Y116.422 E4.84887
G1 X79.813 Y115.267 E4.88742
G1 X79.8 Y114.658 E4.90768
G1 X79.801 Y105.511 E5.21191
G1 X79.809 Y105.008 E5.22864
G1 X79.838 Y104.391 E5.24919
G1 X79.891 Y103.699 E5.27227
G1 X80 Y102.803 E5.30229
G1 X80.187 Y101.919 E5.33234
G1 X80.452 Y101.056 E5.36237
G1 X80.793 Y100.219 E5.39243
G1 X81.206 Y99.416 E5.42246
G1 X81.756 Y98.557 E5.45639
G1 X82.44 Y97.599 E5.49554
G1 X82.907 Y96.966 E5.5217
G1 X84.352 Y94.88 E5.60611
G1 X85.729 Y92.771 E5.68988
G1 X87.065 Y90.589 E5.77498
G1 X88.343 Y88.364 E5.86032
G1 X89.526 Y86.163 E5.94343
G1 X90.661 Y83.902 E6.02757
G1 X91.563 Y81.936 E6.09952
G1 X92.143 Y80.694 E6.14511
G1 X92.561 Y79.894 E6.17513
G1 X93.048 Y79.133 E6.20518
G1 X93.601 Y78.419 E6.23522
G0 F6000 X93.307 Y78.147
G1 F1200 X93.92 Y77.484 E6.26525
G1 X94.616 Y76.853 E6.29649
G1 X95.393 Y76.267 E6.32886
G1 X96.19 Y75.771 E6.36009
G1 X96.995 Y75.362 E6.39012
G1 X97.899 Y75 E6.42251
G1 X98.798 Y74.731 E6.45372
G1 X99.682 Y74.548 E6.48374
G1 X101.05 Y74.415 E6.52946
G1 X101.689 Y74.4 E6.55072
G1 X117.921 Y74.4 E7.09059
G1 X118.785 Y74.412 E7.11933
G1 X119.721 Y74.468 E7.15052
G1 X120.615 Y74.6 E7.18058
G1 X121.563 Y74.828 E7.21301
G1 X122.419 Y75.116 E7.24305
G1 X123.31 Y75.506 E7.2754
G1 X124.133 Y75.959 E7.30664
G1 X124.883 Y76.462 E7.33668
G1 X125.614 Y77.05 E7.36788
G1 X126.316 Y77.725 E7.40027
G1 X126.908 Y78.407 E7.43031
G1 X127.478 Y79.196 E7.46268
G1 X127.956 Y79.998 E7.49374
G1 X128.271 Y80.635 E7.51737
G1 X128.716 Y81.616 E7.5532
G1 X129.806 Y83.935 E7.63842
G1 X130.95 Y86.199 E7.72279
G1 X132.162 Y88.438 E7.80747
G1 X133.418 Y90.612 E7.89098
G1 X134.752 Y92.776 E7.97553
G1 X136.126 Y94.87 E8.05883
G1 X137.618 Y97.008 E8.14555
G1 X138.479 Y98.198 E8.1944
G1 X138.994 Y98.982 E8.2256
G1 X139.438 Y99.809 E8.25682
G1 X139.794 Y100.639 E8.28686
G1 X140.073 Y101.466 E8.31589
G1 X140.305 Y102.339 E8.34593
G1 X140.51 Y103.607 E8.38865
G1 X140.574 Y104.616 E8.42228
G1 X140.598 Y105.767 E8.46057
G1 X140.599 Y114.41 E8.74804
G1 X140.588 Y115.154 E8.77278
G1 X140.533 Y116.091 E8.804
G1 X140.401 Y116.984 E8.83403
G1 X140.183 Y117.898 E8.86528
G1 X139.886 Y118.788 E8.89649
G1 X139.496 Y119.68 E8.92887
G1 X139.044 Y120.502 E8.96007
G1 X138.521 Y121.282 E8.9913
G1 X137.955 Y121.985 E9.02132
G1 X137.278 Y122.687 E9.05376
G1 X136.57 Y123.301 E9.08493
G1 X135.809 Y123.851 E9.11616
G1 X135.033 Y124.314 E9.14621
G1 X134.157 Y124.737 E9.17857
G1 X133.312 Y125.057 E9.20862
G1 X132.374 Y125.319 E9.24101
G1 X131.447 Y125.49 E9.27236
G1 X130.311 Y125.586 E9.31028
G1 X129.679 Y125.6 E9.33131
G1 X120.545 Y125.599 E9.6351
G1 X119.811 Y125.587 E9.65952
G1 X119.083 Y125.551 E9.68376
G1 X116.345 Y125.315 E9.77517
G1 X113.836 Y125.175 E9.85875
G1 X111.293 Y125.103 E9.94336
G1 X108.783 Y125.103 E10.02684
G1 X106.249 Y125.175 E10.11116
G1 X103.733 Y125.318 E10.19498
G1 X102.272 Y125.441 E10.24374
G1 X102.114 Y125.447 E10.249
G1 X100.888 Y125.552 E10.28993
G1 X100.286 Y125.587 E10.30998
G1 X99.67 Y125.6 E10.33048
G1 X90.57 Y125.599 E10.63314
G1 X89.854 Y125.589 E10.65696
G1 X88.918 Y125.535 E10.68814
G1 X88.024 Y125.403 E10.7182
G1 X87.111 Y125.187 E10.74941
G1 X86.187 Y124.878 E10.78181
G1 X85.36 Y124.517 E10.81182
G1 X84.505 Y124.05 E10.84423
G1 X83.725 Y123.528 E10.87544
G1 X83.021 Y122.962 E10.90549
G1 X82.319 Y122.287 E10.93788
G1 X81.726 Y121.606 E10.96791
G1 X81.174 Y120.847 E10.99913
G1 X80.674 Y120.011 E11.03153
G1 X80.266 Y119.166 E11.06273
G1 X79.946 Y118.322 E11.09276
G1 X79.683 Y117.384 E11.12516
G1 X79.511 Y116.455 E11.15658
G1 X79.413 Y115.276 E11.19593
G1 X79.4 Y114.658 E11.21649
G1 X79.401 Y105.505 E11.52092
G1 X79.409 Y104.989 E11.53808
G1 X79.439 Y104.36 E11.55903
G1 X79.494 Y103.651 E11.58268
G1 X79.603 Y102.755 E11.6127
G1 X79.796 Y101.836 E11.64393
G1 X80.082 Y100.905 E11.67633
G1 X80.437 Y100.036 E11.70755
G1 X80.869 Y99.2 E11.73885
G1 X81.43 Y98.325 E11.77342
G1 X82.118 Y97.362 E11.81278
G1 X82.578 Y96.738 E11.83857
G1 X84.023 Y94.652 E11.92297
G1 X85.394 Y92.552 E12.00638
G1 X86.724 Y90.38 E12.09109
G1 X87.996 Y88.165 E12.17604
G1 X89.174 Y85.974 E12.25878
G1 X90.297 Y83.735 E12.34209
G1 X91.201 Y81.767 E12.41413
G1 X91.788 Y80.509 E12.4603
G1 X92.224 Y79.678 E12.49151
G1 X92.711 Y78.917 E12.52156
G1 X93.307 Y78.147 E12.55395
G0 F6000 X93.013 Y77.875
G1 F1200 X93.626 Y77.212 E12.58398
G1 X94.347 Y76.557 E12.61638
G1 X95.182 Y75.927 E12.65117
G1 X96.009 Y75.414 E12.68354
G1 X96.814 Y75.005 E12.71357
G1 X97.784 Y74.617 E12.74832
G1 X98.717 Y74.339 E12.7807
G1 X99.601 Y74.156 E12.81072
G1 X101.041 Y74.015 E12.85884
G1 X101.68 Y74 E12.8801
G1 X117.927 Y74 E13.42048
G1 X118.809 Y74.013 E13.44982
G1 X119.779 Y74.072 E13.48214
G1 X120.709 Y74.211 E13.51342
G1 X121.657 Y74.439 E13.54585
G1 X122.547 Y74.737 E13.57706
G1 X123.503 Y75.156 E13.61178
G1 X124.356 Y75.627 E13.64419
G1 X125.134 Y76.15 E13.67537
G1 X125.865 Y76.738 E13.70657
G1 X126.618 Y77.463 E13.74134
G1 X127.21 Y78.145 E13.77137
G1 X127.822 Y78.991 E13.8061
G1 X128.3 Y79.793 E13.83716
G1 X128.635 Y80.47 E13.86228
G1 X129.078 Y81.446 E13.89793
G1 X130.163 Y83.755 E13.98278
G1 X131.302 Y86.009 E14.06678
G1 X132.514 Y88.248 E14.15146
G1 X133.759 Y90.402 E14.23421
G1 X135.092 Y92.566 E14.31874
G1 X136.454 Y94.641 E14.4013
G1 X137.946 Y96.779 E14.48801
G1 X138.813 Y97.978 E14.53722
G1 X139.328 Y98.762 E14.56842
G1 X139.806 Y99.651 E14.60199
G1 X140.162 Y100.481 E14.63203
G1 X140.46 Y101.363 E14.66299
G1 X140.692 Y102.236 E14.69304
G1 X140.905 Y103.543 E14.73708
G1 X140.974 Y104.608 E14.77258
G1 X140.998 Y105.767 E14.81114
G1 X140.999 Y114.416 E15.0988
G1 X140.987 Y115.177 E15.12412
G1 X140.929 Y116.149 E15.1565
G1 X140.797 Y117.042 E15.18653
G1 X140.572 Y117.991 E15.21897
G1 X140.253 Y118.948 E15.25252
G1 X139.847 Y119.873 E15.28612
G1 X139.395 Y120.695 E15.31732
G1 X138.833 Y121.533 E15.35088
G1 X138.243 Y122.263 E15.3821
G1 X137.566 Y122.965 E15.41453
G1 X136.832 Y123.603 E15.44688
G1 X136.014 Y124.195 E15.48046
G1 X135.238 Y124.658 E15.51052
G1 X134.299 Y125.111 E15.54519
G1 X133.454 Y125.431 E15.57525
G1 X132.447 Y125.712 E15.61002
G1 X131.481 Y125.889 E15.64268
G1 X130.345 Y125.985 E15.6806
G1 X129.679 Y126 E15.70276
G1 X120.538 Y125.999 E16.00679
G1 X119.791 Y125.987 E16.03164
G1 X119.049 Y125.95 E16.05635
G1 X116.311 Y125.713 E16.14775
G1 X113.825 Y125.575 E16.23057
G1 X111.282 Y125.503 E16.31518
G1 X108.794 Y125.503 E16.39793
G1 X106.26 Y125.575 E16.48225
G1 X103.767 Y125.717 E16.5653
G1 X102.287 Y125.841 E16.6147
G1 X102.142 Y125.847 E16.61952
G1 X100.911 Y125.951 E16.66061
G1 X100.294 Y125.987 E16.68117
G1 X99.67 Y126 E16.70193
G1 X90.564 Y125.999 E17.00479
G1 X89.831 Y125.988 E17.02918
G1 X88.86 Y125.931 E17.06153
G1 X87.966 Y125.799 E17.09158
G1 X86.984 Y125.566 E17.12515
G1 X86.027 Y125.245 E17.15873
G1 X85.2 Y124.884 E17.18874
G1 X84.313 Y124.401 E17.22233
G1 X83.474 Y123.84 E17.2559
G1 X82.77 Y123.274 E17.28594
G1 X82.017 Y122.55 E17.32069
G1 X81.424 Y121.869 E17.35072
G1 X80.831 Y121.052 E17.3843
G1 X80.314 Y120.185 E17.41787
G1 X79.892 Y119.308 E17.45024
G1 X79.572 Y118.464 E17.48026
G1 X79.298 Y117.492 E17.51385
G1 X79.112 Y116.488 E17.54781
G1 X79.014 Y115.309 E17.58716
G1 X79 Y114.658 E17.60882
G1 X79.001 Y105.499 E17.91345
G1 X79.009 Y104.97 E17.93105
G1 X79.04 Y104.329 E17.95239
G1 X79.097 Y103.603 E17.97661
G1 X79.206 Y102.707 E18.00663
G1 X79.414 Y101.719 E18.04021
G1 X79.712 Y100.754 E18.07381
G1 X80.082 Y99.852 E18.10623
G1 X80.532 Y98.984 E18.13875
G1 X81.105 Y98.092 E18.17401
G1 X81.796 Y97.125 E18.21354
G1 X82.249 Y96.51 E18.23895
G1 X83.694 Y94.424 E18.32335
G1 X85.059 Y92.333 E18.4064
G1 X86.383 Y90.171 E18.49072
G1 X87.649 Y87.966 E18.57529
G1 X88.816 Y85.795 E18.65727
G1 X89.939 Y83.556 E18.74058
G1 X91.434 Y80.323 E18.85905
G1 X91.887 Y79.462 E18.89141
G1 X92.374 Y78.701 E18.92146
G1 X93.013 Y77.875 E18.95619
G1 F2700 E13.95619
;MESH:????????????3.stl
G0 F6000 X100.714 Y85.416
G0 X101.793 Y85.414
G0 X102.405 Y104.399
;TYPE:WALL-INNER
G1 F2700 E18.95619
G1 F1200 X117.595 Y104.399 E19.46142
G1 X117.621 Y86 E20.07337
G1 X102.38 Y86 E20.58029
G1 X102.405 Y104.399 E21.19224
G0 F6000 X117.725 Y104.53
G0 X118.387 Y104.798
G1 F1200 X117.995 Y104.404 E21.21073
G1 X118.022 Y85.6 E21.83615
G1 X101.979 Y85.6 E22.36974
G1 X102.005 Y104.404 E22.99517
G1 X101.672 Y104.801 E23.0124
G1 X118.387 Y104.798 E23.56835
G0 F6000 X117.725 Y104.53
G0 X117.873 Y104.961
G0 X128.028 Y104.972
G0 X128.028 Y113.028
G0 X121 Y114
G1 F1200 X129 Y114 E23.83443
G1 X129 Y105.406 E24.12026
G1 X128.6 Y105.406 E24.13357
G1 F1194 X128.6 Y112.754 E24.37919
G1 X128.307 Y113.307 E24.4001
G1 X127.754 Y113.6 E24.42102
G1 X121 Y113.6 E24.64679
G1 F1200 X121 Y114 E24.66009
G0 F6000 X120.6 Y114.4
G1 F1200 X129.4 Y114.4 E24.95278
G1 X129.398 Y105.006 E25.26522
G1 X127.806 Y105.006 E25.31817
G1 X128.2 Y105.4 E25.33671
G1 X128.2 Y112.689 E25.57914
G1 X128.025 Y113.025 E25.59174
G1 X127.689 Y113.2 E25.60434
G1 X120.6 Y113.2 E25.84012
G1 X120.6 Y114.4 E25.88003
G1 F2700 E20.88003
G0 F6000 X120.87 Y114.13
G0 X128.028 Y113.028
G0 X128.028 Y104.972
G0 X91.972 Y104.972
G0 X91.972 Y113.028
G0 X98.128 Y113.028
G0 X99 Y114
G1 F2700 E25.88003
G1 F1200 X99 Y113.6 E25.89334
G1 X92.4 Y113.6 E26.11286
G1 X91.692 Y113.308 E26.13833
G1 F1194 X91.4 Y112.754 E26.15926
G1 X91.4 Y105.406 E26.40488
G1 F1200 X91 Y105.406 E26.41818
G1 X91.001 Y113.999 E26.70399
G1 X99 Y114 E26.97003
G0 F6000 X99.4 Y114.4
G1 F1200 X99.4 Y113.2 E27.00995
G1 X92.4 Y113.2 E27.24277
G1 X91.975 Y113.025 E27.25805
G1 X91.8 Y112.689 E27.27065
G1 X91.8 Y105.4 E27.51309
G1 X92.131 Y105.006 E27.5302
G1 X90.601 Y105.005 E27.58109
G1 X90.601 Y114.399 E27.89354
G1 X99.4 Y114.4 E28.18619
G0 F6000 X99.8 Y114.8
;TYPE:WALL-OUTER
G1 F1200 X99.8 Y112.8 E28.25271
G1 X92.4 Y112.8 E28.49884
G1 X92.258 Y112.742 E28.50394
G1 X92.202 Y112.635 E28.50796
G1 X92.2 Y105.4 E28.74859
G1 F1066.7 X92.357 Y105.153 E28.75954
G1 F958.1 X101.491 Y105.15 E29.14005
G1 F1064.3 X102.401 Y105.2 E29.17423
G1 F1200 X117.599 Y105.2 E29.67972
G1 F1071.4 X118.595 Y105.151 E29.71686
G1 F967.7 X127.6 Y105.152 E30.08825
G1 F1071.4 X127.8 Y105.4 E30.10012
G1 F1200 X127.798 Y112.635 E30.34076
G1 X127.742 Y112.742 E30.34478
G1 X127.635 Y112.798 E30.34879
G1 X120.2 Y112.8 E30.59608
G1 X120.2 Y114.8 E30.6626
G1 X129.8 Y114.8 E30.9819
G1 X129.8 Y105.006 E31.30765
G1 X129.761 Y104.606 E31.32102
G1 X128.594 Y104.606 E31.35983
G1 F1071.4 X127.6 Y104.654 E31.3969
G1 F967.7 X118.595 Y104.654 E31.76829
G1 F1071.4 X118.395 Y104.404 E31.78022
G1 F1200 X118.422 Y85.2 E32.41894
G1 X101.579 Y85.2 E32.97915
G1 X101.605 Y104.404 E33.61787
G1 F1064.3 X101.448 Y104.653 E33.62891
G1 F958.1 X92.314 Y104.655 E34.00942
G1 F1066.7 X91.406 Y104.606 E34.04344
G1 F1200 X90.238 Y104.606 E34.08229
G1 X90.2 Y105 E34.09546
G1 X90.201 Y114.799 E34.42137
G1 X99.8 Y114.8 E34.74064
G0 F6000 X99.53 Y114.53
G0 X98.84 Y113.8
G0 X91.624 Y113.373
G0 X91.437 Y113.542
;TYPE:SKIN
G1 F979.6 X91.377 Y113.542 E34.74308
G1 X91.346 Y113.594 E34.74555
G1 X91.377 Y113.646 E34.74802
G1 X91.437 Y113.646 E34.75046
G1 X91.468 Y113.594 E34.75293
G0 F6000 X91.624 Y113.373
G0 X91.972 Y104.972
G0 X101.935 Y104.974
G0 X102.765 Y104.299
G0 X102.765 Y104.039
G1 F1200 X102.741 Y86.36 E35.34093
G1 X117.26 Y86.36 E35.82384
G1 X117.235 Y104.039 E36.41184
G1 X102.765 Y104.039 E36.89312
G0 F6000 X103.272 Y103.838
G1 F1200 X102.963 Y103.529 E36.90765
G0 F6000 X102.963 Y102.963
G1 F1200 X103.838 Y103.838 E36.94881
G0 F6000 X104.404 Y103.838
G1 F1200 X102.962 Y102.396 E37.01664
G0 F6000 X102.961 Y101.83
G1 F1200 X104.97 Y103.838 E37.11111
G0 F6000 X105.535 Y103.838
G1 F1200 X102.96 Y101.263 E37.23223
G0 F6000 X102.959 Y100.696
G1 F1200 X106.101 Y103.838 E37.38002
G0 F6000 X106.667 Y103.838
G1 F1200 X102.958 Y100.13 E37.55446
G0 F6000 X102.958 Y99.564
G1 F1200 X107.232 Y103.838 E37.75549
G0 F6000 X107.798 Y103.838
G1 F1200 X102.957 Y98.997 E37.9832
G0 F6000 X102.956 Y98.431
G1 F1200 X108.364 Y103.838 E38.23755
G0 F6000 X108.929 Y103.838
G1 F1200 X102.956 Y97.864 E38.51853
G0 F6000 X102.955 Y97.298
G1 F1200 X109.495 Y103.838 E38.82615
G0 F6000 X110.061 Y103.838
G1 F1200 X102.954 Y96.732 E39.16042
G0 F6000 X102.953 Y96.165
G1 F1200 X110.626 Y103.838 E39.52133
G0 F6000 X111.192 Y103.838
G1 F1200 X102.952 Y95.598 E39.90891
G0 F6000 X102.951 Y95.032
G1 F1200 X111.758 Y103.838 E40.32314
G0 F6000 X112.323 Y103.838
G1 F1200 X102.951 Y94.465 E40.764
G0 F6000 X102.95 Y93.899
G1 F1200 X112.889 Y103.838 E41.2315
G0 F6000 X113.455 Y103.838
G1 F1200 X102.949 Y93.333 E41.72565
G0 F6000 X102.949 Y92.766
