;FLAVOR:Marlin
;TIME:1540
;Filament used: 1.01515m
;Layer height: 0.2
;MINX:86.236
;MINY:83
;MINZ:0.2
;MAXX:133.764
;MAXY:117
;MAXZ:21.6
;Generated with Cura_SteamEngine 5.3.0
M140 S60
M105
M190 S60
M104 S230
M105
M109 S230
M82 ;absolute extrusion mode
; Ender 3 Custom Start G-code
G92 E0 ; Reset Extruder
G28 ; Home all axes
G1 Z2.0 F3000 ; Move Z Axis up little to prevent scratching of Heat Bed
G1 X0.1 Y20 Z0.3 F5000.0 ; Move to start position
G1 X0.1 Y200.0 Z0.3 F1500.0 E15 ; Draw the first line
G1 X0.4 Y200.0 Z0.3 F5000.0 ; Move to side a little
G1 X0.4 Y20 Z0.3 F1500.0 E30 ; Draw the second line
G92 E0 ; Reset Extruder
G1 Z2.0 F3000 ; Move Z Axis up little to prevent scratching of Heat Bed
G1 X5 Y20 Z0.3 F5000.0 ; Move over to prevent blob squish
G92 E0
G92 E0
G1 F2700 E-5
;LAYER_COUNT:108
;LAYER:0
M107
G0 F6000 X90.231 Y87.605 Z0.2
;TYPE:SKIRT
G1 F2700 E0
G1 F1200 X90.914 Y87.013 E0.03006
G1 X91.646 Y86.485 E0.06008
G1 X92.422 Y86.023 E0.09012
G1 X93.235 Y85.631 E0.12014
G1 X94.081 Y85.313 E0.1502
G1 X94.951 Y85.071 E0.18023
G1 X95.839 Y84.907 E0.21027
G1 X96.368 Y84.847 E0.22798
G1 X98.038 Y84.709 E0.28371
G1 X100.56 Y84.455 E0.36802
G1 X103.182 Y84.116 E0.45595
G1 X104.578 Y83.914 E0.50286
G1 X105.75 Y83.813 E0.54199
G1 X106.357 Y83.8 E0.56218
G1 X113.424 Y83.801 E0.79723
G1 X114.132 Y83.812 E0.82078
G1 X115.419 Y83.914 E0.86372
G1 X118.215 Y84.314 E0.95767
G1 X120.783 Y84.607 E1.04363
G1 X123.62 Y84.848 E1.13833
G1 X124.516 Y84.964 E1.16838
G1 X125.397 Y85.159 E1.19839
G1 X126.258 Y85.432 E1.22843
G1 X127.092 Y85.779 E1.25848
G1 X127.892 Y86.199 E1.28853
G1 X128.651 Y86.688 E1.31856
G1 X129.364 Y87.242 E1.34859
G1 X130.025 Y87.857 E1.37862
G1 X130.63 Y88.528 E1.40867
G1 X131.172 Y89.25 E1.4387
G1 X131.649 Y90.017 E1.46874
G1 X132.056 Y90.823 E1.49877
G1 X132.39 Y91.662 E1.52881
G1 X132.648 Y92.528 E1.55886
G1 X132.829 Y93.413 E1.58891
G1 X132.951 Y94.722 E1.63263
G1 X132.964 Y95.33 E1.65286
G1 X132.962 Y104.396 E1.95439
G1 X132.953 Y105.118 E1.97841
G1 X132.902 Y106.02 E2.00846
G1 X132.771 Y106.913 E2.03848
G1 X132.562 Y107.792 E2.06853
G1 X132.276 Y108.648 E2.09855
G1 X131.915 Y109.476 E2.12859
G1 X131.482 Y110.269 E2.15864
G1 X130.981 Y111.02 E2.18867
G1 X130.416 Y111.725 E2.21872
G1 X129.79 Y112.376 E2.24876
G1 X129.109 Y112.969 E2.27879
G1 X128.379 Y113.5 E2.30881
G1 X127.604 Y113.964 E2.33886
G1 X126.791 Y114.358 E2.36891
G1 X125.947 Y114.678 E2.39893
G1 X125.077 Y114.923 E2.42899
G1 X124.19 Y115.089 E2.459
G1 X123.632 Y115.153 E2.47768
G1 X121.962 Y115.291 E2.53342
G1 X119.435 Y115.545 E2.61789
G1 X116.835 Y115.882 E2.70509
G1 X115.423 Y116.086 E2.75254
G1 X114.25 Y116.187 E2.7917
G1 X113.643 Y116.2 E2.81189
G1 X106.576 Y116.199 E3.04694
G1 X105.868 Y116.188 E3.07049
G1 X104.581 Y116.086 E3.11343
G1 X101.785 Y115.686 E3.20737
G1 X99.217 Y115.393 E3.29334
G1 X96.38 Y115.152 E3.38804
G1 X95.484 Y115.036 E3.41809
G1 X94.603 Y114.841 E3.4481
G1 X93.742 Y114.568 E3.47814
G1 X92.908 Y114.221 E3.50819
G1 X92.108 Y113.801 E3.53824
G1 X91.349 Y113.312 E3.56827
G1 X90.636 Y112.758 E3.5983
G1 X89.975 Y112.143 E3.62833
G1 X89.37 Y111.472 E3.65838
G1 X88.828 Y110.75 E3.68841
G1 X88.351 Y109.983 E3.71845
G1 X87.944 Y109.177 E3.74848
G1 X87.61 Y108.338 E3.77851
G1 X87.352 Y107.472 E3.80857
G1 X87.171 Y106.587 E3.83861
G1 X87.048 Y105.244 E3.88347
G1 X87.036 Y104.628 E3.90396
G1 X87.038 Y95.512 E4.20716
G1 X87.048 Y94.854 E4.22905
G1 X87.102 Y93.952 E4.2591
G1 X87.235 Y93.059 E4.28913
G1 X87.447 Y92.181 E4.31917
G1 X87.735 Y91.326 E4.34918
G1 X88.098 Y90.499 E4.37922
G1 X88.533 Y89.707 E4.40927
G1 X89.036 Y88.957 E4.43931
G1 X89.604 Y88.255 E4.46934
G1 X90.231 Y87.605 E4.49938
G0 F6000 X89.943 Y87.327
G1 F1200 X90.68 Y86.689 E4.5318
G1 X91.441 Y86.141 E4.56299
G1 X92.217 Y85.679 E4.59303
G1 X93.094 Y85.257 E4.6254
G1 X93.974 Y84.928 E4.65665
G1 X94.878 Y84.678 E4.68784
G1 X95.766 Y84.514 E4.71788
G1 X96.335 Y84.448 E4.73693
G1 X98.005 Y84.31 E4.79266
G1 X100.509 Y84.058 E4.87637
G1 X103.131 Y83.719 E4.9643
G1 X104.544 Y83.515 E5.01179
G1 X105.716 Y83.414 E5.05091
G1 X106.357 Y83.4 E5.07224
G1 X113.43 Y83.401 E5.30749
G1 X114.164 Y83.413 E5.3319
G1 X115.476 Y83.518 E5.37568
G1 X118.272 Y83.918 E5.46962
G1 X120.817 Y84.208 E5.55482
G1 X123.671 Y84.451 E5.65008
G1 X124.602 Y84.573 E5.68131
G1 X125.483 Y84.768 E5.71132
G1 X126.412 Y85.063 E5.74374
G1 X127.278 Y85.425 E5.77496
G1 X128.109 Y85.863 E5.80621
G1 X128.868 Y86.352 E5.83624
G1 X129.636 Y86.949 E5.86859
G1 X130.322 Y87.589 E5.89979
G1 X130.95 Y88.288 E5.93105
G1 X131.512 Y89.039 E5.96225
G1 X131.989 Y89.806 E5.99229
G1 X132.428 Y90.675 E6.02467
G1 X132.762 Y91.514 E6.0547
G1 X133.04 Y92.448 E6.08712
G1 X133.221 Y93.333 E6.11716
G1 X133.351 Y94.713 E6.16326
G1 X133.364 Y95.33 E6.18379
G1 X133.362 Y104.401 E6.48549
G1 X133.352 Y105.141 E6.51011
G1 X133.298 Y106.078 E6.54132
G1 X133.167 Y106.971 E6.57134
G1 X132.951 Y107.885 E6.60258
G1 X132.643 Y108.808 E6.63494
G1 X132.282 Y109.636 E6.66498
G1 X131.815 Y110.491 E6.69739
G1 X131.314 Y111.242 E6.72741
G1 X130.728 Y111.975 E6.75863
G1 X130.053 Y112.678 E6.79104
G1 X129.372 Y113.271 E6.82108
G1 X128.584 Y113.843 E6.85346
G1 X127.778 Y114.324 E6.88468
G1 X126.933 Y114.732 E6.91589
G1 X126.089 Y115.052 E6.94591
G1 X125.151 Y115.316 E6.97832
G1 X124.264 Y115.482 E7.00834
G1 X123.665 Y115.552 E7.02839
G1 X121.995 Y115.69 E7.08413
G1 X119.486 Y115.942 E7.168
G1 X116.886 Y116.279 E7.2552
G1 X115.457 Y116.485 E7.30322
G1 X114.284 Y116.586 E7.34238
G1 X113.652 Y116.6 E7.3634
G1 X106.57 Y116.599 E7.59895
G1 X105.836 Y116.587 E7.62337
G1 X104.524 Y116.482 E7.66714
G1 X101.728 Y116.082 E7.76108
G1 X99.183 Y115.792 E7.84628
G1 X96.329 Y115.549 E7.94155
G1 X95.398 Y115.427 E7.97278
G1 X94.517 Y115.232 E8.00279
G1 X93.588 Y114.937 E8.03521
G1 X92.722 Y114.575 E8.06643
G1 X91.891 Y114.137 E8.09767
G1 X91.132 Y113.648 E8.1277
G1 X90.364 Y113.051 E8.16005
G1 X89.678 Y112.411 E8.19126
G1 X89.05 Y111.712 E8.22251
G1 X88.488 Y110.961 E8.25371
G1 X88.011 Y110.194 E8.28375
G1 X87.572 Y109.325 E8.31613
G1 X87.238 Y108.486 E8.34617
G1 X86.96 Y107.552 E8.37858
G1 X86.779 Y106.667 E8.40862
G1 X86.648 Y105.252 E8.45589
G1 X86.636 Y104.628 E8.47665
G1 X86.638 Y95.506 E8.78005
G1 X86.649 Y94.83 E8.80253
G1 X86.706 Y93.893 E8.83375
G1 X86.839 Y93 E8.86378
G1 X87.058 Y92.087 E8.89501
G1 X87.356 Y91.198 E8.9262
G1 X87.747 Y90.306 E8.95859
G1 X88.182 Y89.514 E8.98864
G1 X88.725 Y88.705 E9.02105
G1 X89.316 Y87.977 E9.05224
G1 X89.943 Y87.327 E9.08228
G0 F6000 X89.655 Y87.049
G1 F1200 X90.446 Y86.364 E9.11708
G1 X91.236 Y85.797 E9.14942
G1 X92.012 Y85.335 E9.17946
G1 X92.954 Y84.882 E9.21422
G1 X93.867 Y84.542 E9.24663
G1 X94.771 Y84.292 E9.27782
G1 X95.72 Y84.117 E9.30992
G1 X96.302 Y84.049 E9.32941
G1 X97.972 Y83.911 E9.38514
G1 X100.458 Y83.661 E9.46824
G1 X103.08 Y83.322 E9.55618
G1 X104.51 Y83.116 E9.60423
G1 X105.682 Y83.015 E9.64336
G1 X106.357 Y83 E9.66581
G1 X113.437 Y83.001 E9.90129
G1 X114.196 Y83.014 E9.92654
G1 X115.533 Y83.122 E9.97116
G1 X118.329 Y83.522 E10.0651
G1 X120.851 Y83.809 E10.14952
G1 X123.723 Y84.054 E10.24539
G1 X124.688 Y84.182 E10.27777
G1 X125.569 Y84.377 E10.30778
G1 X126.566 Y84.694 E10.34258
G1 X127.465 Y85.071 E10.375
G1 X128.296 Y85.509 E10.40624
G1 X129.085 Y86.016 E10.43744
G1 X129.881 Y86.633 E10.47093
G1 X130.62 Y87.322 E10.50454
G1 X131.248 Y88.021 E10.53579
G1 X131.852 Y88.828 E10.56932
G1 X132.329 Y89.595 E10.59936
G1 X132.8 Y90.527 E10.63409
G1 X133.134 Y91.366 E10.66413
G1 X133.432 Y92.368 E10.6989
G1 X133.613 Y93.253 E10.72894
G1 X133.751 Y94.705 E10.77745
G1 X133.764 Y95.33 E10.79824
G1 X133.762 Y104.406 E11.10011
G1 X133.751 Y105.164 E11.12533
G1 X133.694 Y106.136 E11.15771
G1 X133.563 Y107.029 E11.18773
G1 X133.33 Y108.012 E11.22133
G1 X133.01 Y108.968 E11.25486
G1 X132.649 Y109.796 E11.28491
G1 X132.148 Y110.713 E11.31966
G1 X131.647 Y111.464 E11.34969
G1 X131.017 Y112.252 E11.38324
G1 X130.316 Y112.98 E11.41686
G1 X129.635 Y113.573 E11.44689
G1 X128.819 Y114.167 E11.48046
G1 X127.952 Y114.684 E11.51403
G1 X127.075 Y115.106 E11.5464
G1 X126.231 Y115.426 E11.57643
G1 X125.225 Y115.709 E11.61118
G1 X124.338 Y115.875 E11.6412
G1 X123.698 Y115.951 E11.66263
G1 X122.028 Y116.089 E11.71837
G1 X119.537 Y116.339 E11.80164
G1 X116.937 Y116.676 E11.88883
G1 X115.491 Y116.884 E11.93742
G1 X114.318 Y116.985 E11.97658
G1 X113.652 Y117 E11.99874
G1 X106.563 Y116.999 E12.23452
G1 X105.804 Y116.986 E12.25977
G1 X104.467 Y116.878 E12.30438
G1 X101.671 Y116.478 E12.39832
G1 X99.149 Y116.191 E12.48275
G1 X96.277 Y115.946 E12.57862
G1 X95.312 Y115.818 E12.611
G1 X94.431 Y115.623 E12.64101
G1 X93.434 Y115.306 E12.6758
G1 X92.535 Y114.929 E12.70823
G1 X91.704 Y114.491 E12.73947
G1 X90.915 Y113.984 E12.77066
G1 X90.119 Y113.367 E12.80416
G1 X89.38 Y112.678 E12.83776
G1 X88.752 Y111.979 E12.86902
G1 X88.148 Y111.172 E12.90254
G1 X87.671 Y110.405 E12.93259
G1 X87.2 Y109.473 E12.96732
G1 X86.866 Y108.634 E12.99735
G1 X86.568 Y107.632 E13.03212
G1 X86.387 Y106.747 E13.06217
G1 X86.248 Y105.26 E13.11184
G1 X86.236 Y104.628 E13.13286
G1 X86.238 Y95.499 E13.4365
G1 X86.25 Y94.806 E13.45955
G1 X86.31 Y93.834 E13.49194
G1 X86.443 Y92.941 E13.52197
G1 X86.669 Y91.994 E13.55435
G1 X86.99 Y91.037 E13.58792
G1 X87.396 Y90.113 E13.62149
G1 X87.831 Y89.321 E13.65155
G1 X88.414 Y88.453 E13.68632
G1 X89.028 Y87.699 E13.71866
G1 X89.655 Y87.049 E13.7487
G1 F2700 E8.7487
G0 F6000 X106.227 Y94.2
G1 F2700 E13.7487
G1 F1200 X113.773 Y94.2 E13.99968
G1 X113.773 Y94.924 E14.02376
G1 X113.737 Y94.992 E14.02632
G1 X113.704 Y95.847 E14.05478
G1 X113.704 Y95.855 E14.05505
G1 X113.701 Y99.2 E14.1663
G1 X113.74 Y99.319 E14.17047
G1 X113.773 Y99.336 E14.1717
G1 X113.773 Y100.728 E14.218
G1 X113.738 Y100.795 E14.22051
G1 X113.711 Y101.825 E14.25478
G1 X113.711 Y101.83 E14.25495
G1 X113.708 Y105 E14.36038
G1 X113.747 Y105.119 E14.36455
G1 X113.773 Y105.132 E14.36552
G1 X113.773 Y105.8 E14.38773
G1 X106.227 Y105.8 E14.63872
G1 X106.227 Y105.08 E14.66266
G1 X106.265 Y105.008 E14.66537
G1 X106.296 Y104.183 E14.69283
G1 X106.296 Y104.173 E14.69316
G1 X106.291 Y103.581 E14.71285
G1 X106.291 Y103.572 E14.71315
G1 X106.27 Y103.192 E14.72581
G1 X106.269 Y103.18 E14.72621
G1 X106.237 Y102.901 E14.73555
G1 X106.233 Y102.881 E14.73623
G1 X106.148 Y102.491 E14.74951
G1 X106.144 Y102.475 E14.75005
G1 X106.032 Y102.113 E14.76266
G1 X106.019 Y102.081 E14.76381
G1 X105.847 Y101.743 E14.77642
G1 X105.848 Y98.25 E14.8926
G1 X105.945 Y98.066 E14.89952
G1 X105.952 Y98.051 E14.90007
G1 X106.103 Y97.692 E14.91302
G1 X106.114 Y97.659 E14.91418
G1 X106.253 Y97.051 E14.93492
G1 X106.257 Y97.021 E14.93593
G1 X106.287 Y96.617 E14.9494
G1 X106.288 Y96.608 E14.9497
G1 X106.299 Y96.24 E14.96195
G1 X106.299 Y96.235 E14.96211
G1 X106.303 Y95.001 E15.00316
G1 X106.264 Y94.882 E15.00732
G1 X106.227 Y94.863 E15.00871
G1 X106.227 Y94.2 E15.03076
G0 F6000 X106.627 Y94.6
G1 F1200 X113.373 Y94.6 E15.25513
G1 X113.373 Y94.84 E15.26311
G1 X113.337 Y94.977 E15.26782
G1 X113.304 Y95.832 E15.29628
G1 X113.304 Y95.854 E15.29701
G1 X113.301 Y99.199 E15.40827
G1 X113.34 Y99.414 E15.41554
G1 X113.373 Y99.468 E15.41764
G1 X113.373 Y100.647 E15.45686
G1 X113.338 Y100.784 E15.46156
G1 X113.311 Y101.814 E15.49583
G1 X113.311 Y101.829 E15.49633
G1 X113.308 Y104.999 E15.60176
G1 X113.347 Y105.214 E15.60903
G1 X113.373 Y105.256 E15.61067
G1 X113.373 Y105.4 E15.61546
G1 X106.627 Y105.4 E15.83984
G1 X106.627 Y105.168 E15.84755
G1 X106.665 Y105.023 E15.85254
G1 X106.696 Y104.198 E15.88
G1 X106.696 Y104.17 E15.88093
G1 X106.691 Y103.578 E15.90062
G1 X106.69 Y103.55 E15.90155
G1 X106.669 Y103.17 E15.91421
G1 X106.666 Y103.135 E15.91538
G1 X106.634 Y102.856 E15.92472
G1 X106.624 Y102.796 E15.92674
G1 X106.539 Y102.406 E15.94002
G1 X106.526 Y102.357 E15.9417
G1 X106.414 Y101.995 E15.95431
G1 X106.376 Y101.9 E15.95771
G1 X106.247 Y101.647 E15.96715
G1 X106.248 Y98.348 E16.07688
G1 X106.298 Y98.253 E16.08045
G1 X106.321 Y98.206 E16.08219
G1 X106.472 Y97.847 E16.09514
G1 X106.504 Y97.748 E16.0986
G1 X106.643 Y97.14 E16.11935
G1 X106.656 Y97.05 E16.12237
G1 X106.686 Y96.646 E16.13585
G1 X106.688 Y96.62 E16.13671
G1 X106.699 Y96.252 E16.14896
G1 X106.699 Y96.236 E16.14949
G1 X106.703 Y95.002 E16.19053
G1 X106.664 Y94.787 E16.1978
G1 X106.627 Y94.726 E16.20018
G1 X106.627 Y94.6 E16.20437
G0 F6000 X107.103 Y95
G1 F1200 X112.936 Y95 E16.39837
G1 X112.905 Y95.816 E16.42553
G1 X112.904 Y95.854 E16.4268
G1 X112.901 Y99.199 E16.53805
G1 X112.941 Y99.478 E16.54743
G1 X112.973 Y99.549 E16.55002
G1 X112.973 Y100.627 E16.58587
G1 X112.938 Y100.774 E16.5909
G1 X112.911 Y101.804 E16.62517
G1 X112.911 Y101.829 E16.626
G1 X112.908 Y104.999 E16.73143
G1 X107.065 Y105 E16.92577
G1 X107.095 Y104.213 E16.95197
G1 X107.096 Y104.167 E16.9535
G1 X107.091 Y103.575 E16.97319
G1 X107.089 Y103.528 E16.97475
G1 X107.068 Y103.148 E16.98741
G1 X107.063 Y103.089 E16.98938
G1 X107.031 Y102.81 E16.99872
G1 X107.015 Y102.711 E17.00206
G1 X106.93 Y102.321 E17.01533
G1 X106.908 Y102.238 E17.01819
G1 X106.796 Y101.876 E17.03079
G1 X106.732 Y101.718 E17.03646
G1 X106.647 Y101.551 E17.04269
G1 X106.648 Y98.448 E17.1459
G1 X106.652 Y98.44 E17.1462
G1 X106.69 Y98.361 E17.14911
G1 X106.841 Y98.002 E17.16207
G1 X106.894 Y97.837 E17.16783
G1 X107.033 Y97.229 E17.18857
G1 X107.055 Y97.08 E17.19358
G1 X107.085 Y96.676 E17.20706
G1 X107.088 Y96.632 E17.20852
G1 X107.099 Y96.264 E17.22077
G1 X107.099 Y96.237 E17.22167
G1 X107.103 Y95.003 E17.26271
G0 F6000 X107.502 Y95.4
G1 F1200 X112.52 Y95.4 E17.42961
G1 X112.505 Y95.801 E17.44296
G1 X112.504 Y95.854 E17.44472
G1 X112.501 Y99.199 E17.55598
G1 X112.541 Y99.53 E17.56706
G1 X112.573 Y99.616 E17.57012
G1 X112.573 Y100.591 E17.60254
G1 X112.538 Y100.763 E17.60838
G1 X112.511 Y101.793 E17.64265
G1 X112.511 Y101.829 E17.64385
G1 X112.508 Y104.6 E17.73601
G1 X107.481 Y104.6 E17.90321
G1 X107.495 Y104.228 E17.91559
G1 X107.496 Y104.163 E17.91776
G1 X107.491 Y103.571 E17.93745
G1 X107.489 Y103.506 E17.93961
G1 X107.468 Y103.126 E17.95227
G1 X107.461 Y103.043 E17.95504
G1 X107.429 Y102.764 E17.96438
G1 X107.406 Y102.626 E17.96903
G1 X107.321 Y102.236 E17.98231
G1 X107.29 Y102.12 E17.9863
G1 X107.178 Y101.758 E17.9989
G1 X107.089 Y101.537 E18.00683
G1 X107.047 Y101.455 E18.00989
G1 X107.048 Y98.538 E18.10691
G1 X107.058 Y98.516 E18.10772
G1 X107.209 Y98.157 E18.12067
G1 X107.284 Y97.926 E18.12875
G1 X107.423 Y97.318 E18.14949
G1 X107.454 Y97.11 E18.15649
G1 X107.484 Y96.706 E18.16996
G1 X107.487 Y96.644 E18.17203
G1 X107.498 Y96.276 E18.18427
G1 X107.499 Y96.239 E18.1855
G1 X107.502 Y95.4 E18.21341
G0 F6000 X107.9 Y95.8
G1 F1200 X112.105 Y95.8 E18.35327
G1 X112.104 Y95.853 E18.35503
G1 X112.101 Y99.198 E18.46628
G1 X112.141 Y99.575 E18.47889
G1 X112.173 Y99.674 E18.48235
G1 X112.173 Y100.548 E18.51142
G1 X112.139 Y100.753 E18.51833
G1 X112.112 Y101.783 E18.5526
G1 X112.111 Y101.828 E18.5541
G1 X112.109 Y104.2 E18.63299
G1 X107.896 Y104.2 E18.77312
G1 X107.896 Y104.16 E18.77445
G1 X107.891 Y103.568 E18.79414
G1 X107.888 Y103.484 E18.79694
G1 X107.867 Y103.104 E18.80959
G1 X107.858 Y102.998 E18.81313
G1 X107.826 Y102.719 E18.82247
G1 X107.797 Y102.541 E18.82847
G1 X107.712 Y102.151 E18.84175
G1 X107.673 Y102.002 E18.84687
G1 X107.561 Y101.64 E18.85947
G1 X107.447 Y101.36 E18.86953
G1 X107.448 Y98.621 E18.96063
G1 X107.578 Y98.312 E18.97178
G1 X107.674 Y98.015 E18.98216
G1 X107.813 Y97.407 E19.0029
G1 X107.853 Y97.139 E19.01192
G1 X107.883 Y96.735 E19.02539
G1 X107.887 Y96.656 E19.02802
G1 X107.898 Y96.288 E19.04027
G1 X107.899 Y96.24 E19.04186
G1 X107.9 Y95.8 E19.0565
G0 F6000 X108.299 Y96.2
G1 F1200 X111.704 Y96.2 E19.16975
G1 X111.701 Y99.198 E19.26946
G1 X111.741 Y99.615 E19.2834
G1 X111.773 Y99.725 E19.28721
G1 X111.773 Y100.484 E19.31245
G1 X111.739 Y100.742 E19.32111
G1 X111.712 Y101.772 E19.35538
G1 X111.711 Y101.828 E19.35724
G1 X111.709 Y103.8 E19.42283
G1 X108.293 Y103.8 E19.53644
G1 X108.291 Y103.564 E19.54429
G1 X108.288 Y103.462 E19.54769
G1 X108.267 Y103.082 E19.56035
G1 X108.256 Y102.952 E19.56468
G1 X108.224 Y102.673 E19.57403
G1 X108.188 Y102.456 E19.58134
G1 X108.103 Y102.066 E19.59462
