;FLAVOR:Marlin
;TIME:2126
;Filament used: 0.597559m
;Layer height: 0.2
;MINX:95.501
;MINY:84.806
;MINZ:0.2
;MAXX:124.499
;MAXY:115.194
;MAXZ:45.4
;Generated with Cura_SteamEngine 5.3.0
M140 S60
M105
M190 S60
M104 S220
M105
M109 S220
M82 ;absolute extrusion mode
; Ender 3 Custom Start G-code
G92 E0 ; Reset Extruder
G28 ; Home all axes
G1 Z2.0 F3000 ; Move Z Axis up little to prevent scratching of Heat Bed
G1 X0.1 Y20 Z0.3 F5000.0 ; Move to start position
G1 X0.1 Y200.0 Z0.3 F1500.0 E15 ; Draw the first line
G1 X0.4 Y200.0 Z0.3 F5000.0 ; Move to side a little
G1 X0.4 Y20 Z0.3 F1500.0 E30 ; Draw the second line
G92 E0 ; Reset Extruder
G1 Z2.0 F3000 ; Move Z Axis up little to prevent scratching of Heat Bed
G1 X5 Y20 Z0.3 F5000.0 ; Move over to prevent blob squish
G92 E0
G92 E0
G1 F2700 E-5
;LAYER_COUNT:227
;LAYER:0
M107
G0 F6000 X99.29 Y90.032 Z0.2
;TYPE:SKIRT
G1 F2700 E0
G1 F1200 X99.636 Y89.666 E0.01675
G1 X100.084 Y89.214 E0.03792
G1 X100.747 Y88.601 E0.06795
G1 X101.462 Y88.049 E0.09799
G1 X102.223 Y87.563 E0.12803
G1 X102.662 Y87.324 E0.14465
G1 X103.216 Y87.039 E0.16537
G1 X104.037 Y86.662 E0.19542
G1 X104.887 Y86.359 E0.22543
G1 X105.761 Y86.132 E0.25547
G1 X106.286 Y86.035 E0.27323
G1 X106.911 Y85.936 E0.29427
G1 X108.186 Y85.815 E0.33687
G1 X108.788 Y85.801 E0.3569
G1 X110.953 Y85.801 E0.42891
G1 X111.723 Y85.813 E0.45452
G1 X112.624 Y85.867 E0.48454
G1 X113.298 Y85.96 E0.50717
G1 X113.843 Y86.054 E0.52556
G1 X114.725 Y86.247 E0.55559
G1 X115.587 Y86.517 E0.58564
G1 X116.704 Y86.999 E0.6261
G1 X117.253 Y87.276 E0.64655
G1 X118.04 Y87.719 E0.67659
G1 X118.786 Y88.229 E0.70665
G1 X119.483 Y88.803 E0.73668
G1 X119.83 Y89.13 E0.75254
G1 X120.274 Y89.569 E0.7733
G1 X120.887 Y90.232 E0.80334
G1 X121.439 Y90.946 E0.83335
G1 X121.926 Y91.706 E0.86338
G1 X122.17 Y92.151 E0.88026
G1 X122.459 Y92.712 E0.90124
G1 X122.836 Y93.532 E0.93126
G1 X123.14 Y94.383 E0.96132
G1 X123.367 Y95.257 E0.99135
G1 X123.461 Y95.762 E1.00844
G1 X123.56 Y96.377 E1.02916
G1 X123.685 Y97.687 E1.07292
G1 X123.699 Y98.29 E1.09299
G1 X123.699 Y101.422 E1.19716
G1 X123.687 Y102.219 E1.22367
G1 X123.633 Y103.12 E1.25369
G1 X123.537 Y103.813 E1.27696
G1 X123.442 Y104.359 E1.29539
G1 X123.248 Y105.241 E1.32543
G1 X122.977 Y106.103 E1.35548
G1 X122.506 Y107.193 E1.39497
G1 X122.233 Y107.736 E1.41519
G1 X121.792 Y108.524 E1.44522
G1 X121.283 Y109.27 E1.47526
G1 X120.71 Y109.968 E1.5053
G1 X120.364 Y110.334 E1.52205
G1 X119.916 Y110.786 E1.54322
G1 X119.253 Y111.399 E1.57325
G1 X118.538 Y111.951 E1.60329
G1 X117.777 Y112.437 E1.63332
G1 X117.338 Y112.676 E1.64995
G1 X116.784 Y112.961 E1.67067
G1 X115.963 Y113.338 E1.70072
G1 X115.113 Y113.641 E1.73073
G1 X114.239 Y113.868 E1.76077
G1 X113.714 Y113.965 E1.77852
G1 X113.089 Y114.064 E1.79957
G1 X111.814 Y114.185 E1.84217
G1 X111.212 Y114.199 E1.86219
G1 X109.047 Y114.199 E1.9342
G1 X108.277 Y114.187 E1.95982
G1 X107.376 Y114.133 E1.98984
G1 X106.702 Y114.04 E2.01247
G1 X106.157 Y113.946 E2.03086
G1 X105.275 Y113.753 E2.06089
G1 X104.413 Y113.483 E2.09093
G1 X103.296 Y113.001 E2.1314
G1 X102.747 Y112.724 E2.15185
G1 X101.96 Y112.281 E2.18189
G1 X101.214 Y111.771 E2.21194
G1 X100.517 Y111.197 E2.24198
G1 X100.17 Y110.87 E2.25783
G1 X99.726 Y110.431 E2.2786
G1 X99.113 Y109.768 E2.30863
G1 X98.561 Y109.054 E2.33865
G1 X97.889 Y107.96 E2.38135
G1 X97.691 Y107.587 E2.3954
G1 X97.419 Y107.041 E2.41569
G1 X97.063 Y106.211 E2.44573
G1 X96.783 Y105.352 E2.47578
G1 X96.538 Y104.232 E2.51391
G1 X96.439 Y103.615 E2.53469
G1 X96.315 Y102.313 E2.57819
G1 X96.301 Y101.71 E2.59825
G1 X96.301 Y98.544 E2.70356
G1 X96.311 Y97.853 E2.72654
G1 X96.39 Y96.73 E2.76398
G1 X96.484 Y96.066 E2.78629
G1 X96.555 Y95.655 E2.80016
G1 X96.748 Y94.772 E2.83022
G1 X97.018 Y93.911 E2.86024
G1 X97.493 Y92.809 E2.90015
G1 X97.767 Y92.264 E2.92044
G1 X98.208 Y91.476 E2.95047
G1 X98.717 Y90.73 E2.98051
G1 X99.29 Y90.032 E3.01054
G0 F6000 X98.999 Y89.757
G1 F1200 X99.352 Y89.384 E3.02763
G1 X99.812 Y88.92 E3.04936
G1 X100.475 Y88.307 E3.07939
G1 X101.218 Y87.732 E3.11064
G1 X102.008 Y87.226 E3.14184
G1 X102.479 Y86.968 E3.1597
G1 X103.049 Y86.675 E3.18102
G1 X103.87 Y86.298 E3.21107
G1 X104.753 Y85.982 E3.24226
G1 X105.66 Y85.745 E3.27344
G1 X106.223 Y85.64 E3.29249
G1 X106.873 Y85.538 E3.31437
G1 X108.177 Y85.415 E3.35794
G1 X108.779 Y85.401 E3.37796
G1 X110.959 Y85.401 E3.45047
G1 X111.747 Y85.414 E3.47668
G1 X112.679 Y85.471 E3.50774
G1 X113.366 Y85.566 E3.53081
G1 X113.929 Y85.663 E3.54981
G1 X114.845 Y85.865 E3.58101
G1 X115.707 Y86.135 E3.61105
G1 X116.884 Y86.642 E3.65367
G1 X117.449 Y86.927 E3.67472
G1 X118.236 Y87.37 E3.70476
G1 X119.04 Y87.92 E3.73716
G1 X119.737 Y88.494 E3.76719
G1 X120.111 Y88.846 E3.78427
G1 X120.568 Y89.297 E3.80563
G1 X121.181 Y89.96 E3.83566
G1 X121.776 Y90.73 E3.86803
G1 X122.263 Y91.49 E3.89805
G1 X122.526 Y91.968 E3.91619
G1 X122.815 Y92.529 E3.93718
G1 X123.213 Y93.397 E3.96894
G1 X123.517 Y94.248 E3.999
G1 X123.754 Y95.156 E4.03021
G1 X123.856 Y95.698 E4.04856
G1 X123.955 Y96.313 E4.06927
G1 X124.085 Y97.678 E4.11488
G1 X124.099 Y98.281 E4.13494
G1 X124.099 Y101.428 E4.23961
G1 X124.086 Y102.243 E4.26672
G1 X124.029 Y103.175 E4.29778
G1 X123.931 Y103.882 E4.32152
G1 X123.833 Y104.445 E4.34052
G1 X123.63 Y105.361 E4.37173
G1 X123.359 Y106.223 E4.40178
G1 X122.863 Y107.373 E4.44344
G1 X122.582 Y107.931 E4.46422
G1 X122.141 Y108.719 E4.49425
G1 X121.592 Y109.524 E4.52666
G1 X121.001 Y110.243 E4.55762
G1 X120.648 Y110.616 E4.5747
G1 X120.188 Y111.08 E4.59643
G1 X119.525 Y111.693 E4.62646
G1 X118.782 Y112.268 E4.65771
G1 X117.992 Y112.774 E4.68891
G1 X117.521 Y113.032 E4.70677
G1 X116.951 Y113.325 E4.72809
G1 X116.13 Y113.702 E4.75814
G1 X115.247 Y114.018 E4.78933
G1 X114.34 Y114.255 E4.82051
G1 X113.777 Y114.36 E4.83956
G1 X113.127 Y114.462 E4.86144
G1 X111.823 Y114.585 E4.90501
G1 X111.221 Y114.599 E4.92503
G1 X109.041 Y114.599 E4.99754
G1 X108.253 Y114.586 E5.02375
G1 X107.321 Y114.529 E5.05481
G1 X106.634 Y114.434 E5.07788
G1 X106.071 Y114.337 E5.09688
G1 X105.155 Y114.135 E5.12808
G1 X104.293 Y113.865 E5.15812
G1 X103.116 Y113.358 E5.20075
G1 X102.551 Y113.073 E5.22179
G1 X101.764 Y112.63 E5.25183
G1 X100.96 Y112.08 E5.28423
G1 X100.263 Y111.506 E5.31426
G1 X99.889 Y111.154 E5.33134
G1 X99.432 Y110.703 E5.3527
G1 X98.819 Y110.04 E5.38273
G1 X98.22 Y109.263 E5.41536
G1 X97.536 Y108.148 E5.45887
G1 X97.333 Y107.765 E5.47329
G1 X97.051 Y107.199 E5.49432
G1 X96.695 Y106.369 E5.52436
G1 X96.392 Y105.437 E5.55695
G1 X96.143 Y104.295 E5.59583
G1 X96.041 Y103.653 E5.61745
G1 X95.915 Y102.322 E5.66192
G1 X95.901 Y101.719 E5.68198
G1 X95.901 Y98.538 E5.78778
G1 X95.912 Y97.825 E5.8115
G1 X95.991 Y96.702 E5.84894
G1 X96.09 Y95.998 E5.87258
G1 X96.164 Y95.57 E5.88703
G1 X96.366 Y94.652 E5.91829
G1 X96.636 Y93.791 E5.94831
G1 X97.136 Y92.629 E5.99038
G1 X97.418 Y92.069 E6.01123
G1 X97.859 Y91.281 E6.04127
G1 X98.408 Y90.476 E6.07368
G1 X98.999 Y89.757 E6.10463
G0 F6000 X98.708 Y89.482
G1 F1200 X98.099 Y90.222 E6.13651
G1 X97.51 Y91.086 E6.17129
G1 X97.069 Y91.874 E6.20132
G1 X96.779 Y92.449 E6.22274
G1 X96.254 Y93.671 E6.26698
G1 X95.984 Y94.532 E6.29699
G1 X95.773 Y95.484 E6.32942
G1 X95.696 Y95.93 E6.34447
G1 X95.592 Y96.674 E6.36946
G1 X95.513 Y97.797 E6.4069
G1 X95.501 Y98.532 E6.43135
G1 X95.501 Y101.728 E6.53765
G1 X95.515 Y102.331 E6.55771
G1 X95.643 Y103.691 E6.60315
G1 X95.748 Y104.358 E6.62561
G1 X96.001 Y105.522 E6.66522
G1 X96.327 Y106.527 E6.70037
G1 X96.683 Y107.357 E6.7304
G1 X96.975 Y107.943 E6.75218
G1 X97.195 Y108.357 E6.76777
G1 X97.903 Y109.507 E6.81269
G1 X98.525 Y110.312 E6.84653
G1 X99.138 Y110.975 E6.87656
G1 X99.608 Y111.439 E6.89852
G1 X100.009 Y111.815 E6.91681
G1 X100.706 Y112.389 E6.94684
G1 X101.568 Y112.979 E6.98158
G1 X102.355 Y113.422 E7.01162
G1 X102.936 Y113.715 E7.03326
G1 X104.173 Y114.247 E7.07805
G1 X105.035 Y114.517 E7.10809
G1 X105.985 Y114.728 E7.14046
G1 X106.566 Y114.828 E7.16007
G1 X107.266 Y114.925 E7.18357
G1 X108.229 Y114.985 E7.21566
G1 X109.034 Y114.999 E7.24244
G1 X111.23 Y114.999 E7.31548
G1 X111.832 Y114.985 E7.33551
G1 X113.165 Y114.86 E7.38004
G1 X113.839 Y114.755 E7.40273
G1 X114.441 Y114.642 E7.4231
G1 X115.382 Y114.395 E7.45546
G1 X116.297 Y114.066 E7.4878
G1 X117.118 Y113.689 E7.51785
G1 X117.704 Y113.388 E7.53976
G1 X118.208 Y113.111 E7.55889
G1 X118.998 Y112.605 E7.59009
G1 X119.797 Y111.987 E7.62369
G1 X120.46 Y111.374 E7.65372
G1 X120.932 Y110.898 E7.67601
G1 X121.292 Y110.518 E7.69342
G1 X121.901 Y109.778 E7.7253
G1 X122.49 Y108.914 E7.76008
G1 X122.931 Y108.126 E7.79011
G1 X123.22 Y107.553 E7.81146
G1 X123.741 Y106.343 E7.85527
G1 X124.021 Y105.448 E7.88646
G1 X124.224 Y104.532 E7.91767
G1 X124.325 Y103.951 E7.93728
G1 X124.425 Y103.23 E7.96149
G1 X124.485 Y102.267 E7.99359
G1 X124.499 Y101.434 E8.0213
G1 X124.499 Y98.272 E8.12646
G1 X124.485 Y97.669 E8.14653
G1 X124.35 Y96.249 E8.19397
G1 X124.251 Y95.634 E8.21469
G1 X124.147 Y95.082 E8.23337
G1 X123.894 Y94.113 E8.26668
G1 X123.59 Y93.262 E8.29673
G1 X123.179 Y92.362 E8.32964
G1 X122.882 Y91.785 E8.35123
G1 X122.6 Y91.274 E8.37064
G1 X122.093 Y90.485 E8.40183
G1 X121.498 Y89.715 E8.4342
G1 X120.862 Y89.025 E8.46541
G1 X120.392 Y88.561 E8.48738
G1 X119.991 Y88.185 E8.50566
G1 X119.294 Y87.611 E8.53569
G1 X118.432 Y87.021 E8.57043
G1 X117.645 Y86.578 E8.60047
G1 X117.064 Y86.285 E8.62211
G1 X115.827 Y85.753 E8.6669
G1 X114.965 Y85.483 E8.69694
G1 X114.015 Y85.272 E8.72931
G1 X113.434 Y85.172 E8.74892
G1 X112.734 Y85.075 E8.77242
G1 X111.771 Y85.015 E8.80451
G1 X110.966 Y85.001 E8.83129
G1 X108.77 Y85.001 E8.90433
G1 X108.168 Y85.015 E8.92436
G1 X106.835 Y85.14 E8.96889
G1 X106.161 Y85.245 E8.99158
G1 X105.559 Y85.358 E9.01195
G1 X104.618 Y85.605 E9.04431
G1 X103.703 Y85.934 E9.07665
G1 X102.882 Y86.311 E9.1067
G1 X102.296 Y86.612 E9.12861
G1 X101.792 Y86.889 E9.14774
G1 X101.002 Y87.395 E9.17894
G1 X100.203 Y88.013 E9.21254
G1 X99.54 Y88.626 E9.24257
G1 X99.068 Y89.102 E9.26486
G1 X98.708 Y89.482 E9.28227
G1 F2700 E4.28227
;MESH:??????3.stl
G0 F6000 X105.848 Y97.863
G0 X106.919 Y98.032
G0 X107.663 Y102.054
G0 X108.113 Y103.108
G0 X108.075 Y103.31
;TYPE:WALL-INNER
G1 F2700 E9.28227
G1 F1179.4 X108.546 Y103.407 E9.29855
G1 F1293.8 X108.854 Y103.422 E9.30806
G1 F1344.5 X111.146 Y103.422 E9.3761
G1 F1293.8 X111.453 Y103.407 E9.38558
G1 F1179.4 X111.923 Y103.31 E9.40182
G1 F1093.4 X112.305 Y103.103 E9.41768
G1 F1069 X112.605 Y102.805 E9.43347
G1 F1093.4 X112.81 Y102.426 E9.4492
G1 F1148.3 X112.904 Y102.016 E9.46382
G1 F1259.8 X112.923 Y101.627 E9.47616
G1 F1348.3 X112.922 Y98.354 E9.57304
G1 F1293.8 X112.907 Y98.047 E9.58252
G1 F1176.5 X112.809 Y97.574 E9.59891
G1 F1090.9 X112.608 Y97.199 E9.61448
G1 F1066.7 X112.302 Y96.895 E9.63062
G1 F1093.4 X111.925 Y96.69 E9.64628
G1 F1148.3 X111.52 Y96.596 E9.66073
G1 F1256.5 X111.146 Y96.578 E9.67262
G1 F1344.5 X108.854 Y96.578 E9.74066
G1 F1256.5 X108.464 Y96.597 E9.75306
G1 F1151.1 X108.077 Y96.69 E9.76687
G1 F1095.9 X107.692 Y96.899 E9.78282
G1 F1069 X107.396 Y97.195 E9.79845
G1 F1090.9 X107.191 Y97.575 E9.81425
G1 F1176.5 X107.093 Y98.046 E9.83057
G1 F1293.8 X107.078 Y98.354 E9.84008
G1 F1344.5 X107.078 Y101.646 E9.9378
G1 F1256.5 X107.097 Y102.034 E9.95014
G1 F1148.3 X107.19 Y102.426 E9.96414
G1 F1093.4 X107.393 Y102.8 E9.97968
G1 F1066.7 X107.698 Y103.105 E9.99582
G1 F1093.4 X108.075 Y103.31 E10.01148
G0 F6000 X108.113 Y103.108
G0 X111.769 Y103.025
G0 X111.642 Y102.984
G1 F1286.9 X111.098 Y103.07 E10.02856
G1 F1348.3 X108.934 Y103.075 E10.09262
G1 F1290.3 X108.501 Y103.006 E10.10618
G1 F1176.5 X108.261 Y102.925 E10.11478
G1 F1093.4 X107.956 Y102.734 E10.12791
G1 F1066.7 X107.764 Y102.543 E10.13805
G1 F1113.7 X107.511 Y102.132 E10.15534
G1 F1250 X107.43 Y101.597 E10.17262
G1 F1348.3 X107.425 Y98.433 E10.26628
G1 F1290.3 X107.494 Y98.002 E10.27978
G1 F1173.6 X107.575 Y97.761 E10.28843
G1 F1090.9 X107.767 Y97.453 E10.30171
G1 F1069 X107.949 Y97.27 E10.31134
G1 F1103.4 X108.344 Y97.024 E10.32817
G1 F1233.9 X108.902 Y96.93 E10.34648
G1 F1348.3 X111.063 Y96.925 E10.41044
G1 F1250 X111.635 Y97.01 E10.42891
G1 F1113.7 X112.044 Y97.266 E10.4462
G1 F1071.4 X112.221 Y97.435 E10.45532
G1 F1095.9 X112.425 Y97.759 E10.46926
G1 F1173.6 X112.504 Y97.998 E10.47782
G1 F1290.3 X112.575 Y98.432 E10.49142
G1 F1352.1 X112.57 Y101.597 E10.58485
G1 F1240.3 X112.478 Y102.152 E10.60295
G1 F1106 X112.234 Y102.547 E10.61971
G1 F1071.4 X112.055 Y102.728 E10.62919
G1 F1145.6 X111.642 Y102.984 E10.64612
G1 F2700 E5.64612
G0 F6000 X111.769 Y103.025
G0 X108.165 Y103.088
G0 X108.538 Y102.612
;TYPE:WALL-OUTER
G1 F2700 E10.64612
G1 F1200 X108.149 Y102.347 E10.66178
G1 X107.892 Y101.969 E10.67698
G1 X107.802 Y101.532 E10.69182
G1 X107.803 Y98.463 E10.79389
G1 X107.888 Y98.039 E10.80828
G1 X108.154 Y97.648 E10.82401
G1 X108.531 Y97.391 E10.83918
G1 X108.967 Y97.302 E10.85398
G1 X111.037 Y97.303 E10.92283
G1 X111.448 Y97.386 E10.93678
G1 X111.856 Y97.651 E10.95296
G1 X112.11 Y98.036 E10.9683
G1 X112.197 Y98.463 E10.98279
G1 X112.197 Y101.537 E11.08503
G1 X112.113 Y101.951 E11.09908
G1 X111.85 Y102.35 E11.11498
G1 X111.463 Y102.612 E11.13052
G1 X111.033 Y102.698 E11.14511
G1 X108.963 Y102.697 E11.21396
G1 X108.538 Y102.612 E11.22837
G0 F6000 X108.165 Y103.088
G0 X107.945 Y103.709
G1 F1200 X108.515 Y103.8 E11.24757
G1 X111.484 Y103.8 E11.34632
G1 X112.053 Y103.709 E11.36548
G1 X112.558 Y103.452 E11.38433
G1 X112.953 Y103.058 E11.40289
G1 X113.209 Y102.555 E11.42166
G1 X113.3 Y101.985 E11.44086
G1 X113.3 Y98.016 E11.57287
G1 X113.209 Y97.445 E11.5921
G1 X112.956 Y96.946 E11.61071
G1 X112.555 Y96.546 E11.62954
G1 X112.055 Y96.291 E11.64821
G1 X111.485 Y96.201 E11.66741
G1 X108.516 Y96.2 E11.76615
G1 X107.947 Y96.291 E11.78532
G1 X107.442 Y96.549 E11.80418
G1 X107.047 Y96.942 E11.82271
G1 X106.791 Y97.445 E11.84149
G1 X106.7 Y98.015 E11.86068
G1 X106.7 Y101.984 E11.99269
G1 X106.791 Y102.555 E12.01193
G1 X107.044 Y103.053 E12.0305
G1 X107.445 Y103.454 E12.04937
G1 X107.945 Y103.709 E12.06803
;MESH:NOMESH
G0 F300 X107.945 Y103.709 Z0.4
G0 F6000 X108.351 Y102.982
;TIME_ELAPSED:24.625173
;LAYER:1
M106 S85
;TYPE:WALL-INNER
;MESH:??????3.stl
G1 F572.8 X107.934 Y102.719 E12.08521
G1 F535.7 X107.774 Y102.555 E12.09374
G1 F550.5 X107.569 Y102.228 E12.10774
G1 F600 X107.497 Y102.042 E12.11437
G1 F657.5 X107.43 Y101.597 E12.12803
G1 F674.2 X107.425 Y98.433 E12.22169
G1 F643.4 X107.519 Y97.851 E12.23997
G1 F572.8 X107.781 Y97.434 E12.25713
G1 F535.7 X107.947 Y97.272 E12.26577
G1 F559.4 X108.368 Y97.011 E12.28344
G1 F626.6 X108.903 Y96.93 E12.30067
G1 F674.2 X111.068 Y96.925 E12.36476
G1 F620.2 X111.659 Y97.023 E12.38404
G1 F554.3 X112.053 Y97.271 E12.4008
G1 F538.1 X112.219 Y97.432 E12.40937
G1 F575.5 X112.483 Y97.851 E12.42655
G1 F643.4 X112.575 Y98.432 E12.44479
G1 F676.1 X112.57 Y101.598 E12.53825
G1 F659.3 X112.505 Y102.043 E12.55186
G1 F600 X112.427 Y102.239 E12.55887
G1 F547.9 X112.226 Y102.556 E12.57254
G1 F538.1 X112.068 Y102.719 E12.58096
G1 F575.5 X111.64 Y102.983 E12.5984
G1 F643.4 X111.097 Y103.07 E12.61546
G1 F674.2 X108.934 Y103.075 E12.67948
G1 F643.4 X108.351 Y102.982 E12.69779
G0 F7500 X107.583 Y102.675
G0 X108.696 Y102.888
G0 X111.885 Y103.11
G0 X111.923 Y103.31
G1 F546.7 X112.301 Y103.105 E12.71349
G1 F534.5 X112.607 Y102.801 E12.72959
G1 F547.9 X112.81 Y102.425 E12.74516
G1 F575.5 X112.904 Y102.025 E12.7594
G1 F629.9 X112.923 Y101.628 E12.772
G1 F674.2 X112.922 Y98.353 E12.86894
G1 F646.9 X112.907 Y98.047 E12.87839
G1 F589.7 X112.81 Y97.577 E12.89463
G1 F547.9 X112.606 Y97.198 E12.91031
G1 F534.5 X112.301 Y96.893 E12.92641
G1 F547.9 X111.925 Y96.69 E12.94197
G1 F575.5 X111.531 Y96.598 E12.956
G1 F628.3 X111.146 Y96.578 E12.96825
G1 F672.3 X108.854 Y96.578 E13.03629
G1 F628.3 X108.47 Y96.597 E13.0485
G1 F574.2 X108.077 Y96.69 E13.06253
G1 F546.7 X107.698 Y96.895 E13.07826
G1 F533.3 X107.393 Y97.199 E13.09438
G1 F545.5 X107.19 Y97.575 E13.11001
G1 F589.7 X107.094 Y98.043 E13.12618
G1 F646.9 X107.078 Y98.354 E13.13578
G1 F672.3 X107.078 Y101.646 E13.23351
G1 F628.3 X107.097 Y102.037 E13.24594
G1 F574.2 X107.19 Y102.424 E13.25977
G1 F546.7 X107.395 Y102.801 E13.27544
