;FLAVOR:Marlin
;TIME:5753
;Filament used: 3.85704m
;Layer height: 0.2
;MINX:85.731
;MINY:75.717
;MINZ:0.2
;MAXX:134.286
;MAXY:124.282
;MAXZ:42
;Generated with Cura_SteamEngine 5.3.0
M140 S60
M105
M190 S60
M104 S230
M105
M109 S230
M82 ;absolute extrusion mode
; Ender 3 Custom Start G-code
G92 E0 ; Reset Extruder
G28 ; Home all axes
G1 Z2.0 F3000 ; Move Z Axis up little to prevent scratching of Heat Bed
G1 X0.1 Y20 Z0.3 F5000.0 ; Move to start position
G1 X0.1 Y200.0 Z0.3 F1500.0 E15 ; Draw the first line
G1 X0.4 Y200.0 Z0.3 F5000.0 ; Move to side a little
G1 X0.4 Y20 Z0.3 F1500.0 E30 ; Draw the second line
G92 E0 ; Reset Extruder
G1 Z2.0 F3000 ; Move Z Axis up little to prevent scratching of Heat Bed
G1 X5 Y20 Z0.3 F5000.0 ; Move over to prevent blob squish
G92 E0
G92 E0
G1 F2700 E-5
;LAYER_COUNT:210
;LAYER:0
M107
G0 F3600 X92.82 Y84.005 Z0.2
;TYPE:SKIRT
G1 F2700 E0
G1 F1200 X93.408 Y83.39 E0.0283
G1 X93.898 Y82.928 E0.0507
G1 X94.941 Y81.996 E0.09722
G1 X95.664 Y81.407 E0.12824
G1 X96.107 Y81.083 E0.14649
G1 X96.652 Y80.701 E0.16863
G1 X97.419 Y80.182 E0.19943
G1 X98.132 Y79.742 E0.2273
G1 X98.702 Y79.427 E0.24896
G1 X99.271 Y79.129 E0.27032
G1 X100.066 Y78.729 E0.29992
G1 X100.804 Y78.394 E0.32688
G1 X101.461 Y78.136 E0.35035
G1 X102.776 Y77.662 E0.39685
G1 X103.692 Y77.38 E0.42872
G1 X104.252 Y77.239 E0.44793
G1 X104.926 Y77.084 E0.47093
G1 X105.753 Y76.907 E0.49906
G1 X106.585 Y76.765 E0.52713
G1 X107.205 Y76.69 E0.54791
G1 X107.872 Y76.625 E0.5702
G1 X108.77 Y76.551 E0.60016
G1 X109.63 Y76.517 E0.62879
G1 X110.309 Y76.525 E0.65138
G1 X111.672 Y76.577 E0.69674
G1 X112.604 Y76.656 E0.72785
G1 X113.316 Y76.756 E0.75177
G1 X114.65 Y76.981 E0.79676
G1 X115.556 Y77.176 E0.82759
G1 X116.159 Y77.34 E0.84837
G1 X116.953 Y77.575 E0.87591
G1 X117.658 Y77.796 E0.90048
G1 X118.451 Y78.081 E0.92851
G1 X119.014 Y78.315 E0.94879
G1 X119.785 Y78.657 E0.97684
G1 X120.439 Y78.959 E1.0008
G1 X121.186 Y79.342 E1.02872
G1 X121.789 Y79.691 E1.0519
G1 X122.956 Y80.409 E1.09747
G1 X123.735 Y80.939 E1.12881
G1 X124.334 Y81.397 E1.15388
G1 X125.358 Y82.226 E1.19771
G1 X126.058 Y82.848 E1.22885
G1 X126.544 Y83.33 E1.25162
G1 X127.497 Y84.326 E1.29747
G1 X128.104 Y85.021 E1.32816
G1 X128.553 Y85.597 E1.35245
G1 X129.372 Y86.711 E1.39843
G1 X129.885 Y87.479 E1.42915
G1 X130.183 Y87.981 E1.44857
G1 X130.596 Y88.713 E1.47652
G1 X130.937 Y89.337 E1.50017
G1 X131.352 Y90.187 E1.53164
G1 X131.525 Y90.588 E1.54616
G1 X132.11 Y92.058 E1.59878
G1 X132.398 Y92.889 E1.62804
G1 X132.603 Y93.605 E1.65281
G1 X132.943 Y94.941 E1.69866
G1 X133.132 Y95.856 E1.72973
G1 X133.22 Y96.434 E1.74918
G1 X133.325 Y97.246 E1.77641
G1 X133.411 Y97.996 E1.80152
G1 X133.473 Y98.858 E1.83026
G1 X133.486 Y99.538 E1.85289
G1 X133.476 Y100.916 E1.89872
G1 X133.429 Y101.821 E1.92886
G1 X133.362 Y102.466 E1.95043
G1 X133.279 Y103.116 E1.97222
G1 X133.155 Y103.988 E2.00152
G1 X132.992 Y104.859 E2.03099
G1 X132.853 Y105.438 E2.05079
G1 X132.637 Y106.258 E2.079
G1 X132.447 Y106.94 E2.10255
G1 X132.192 Y107.729 E2.13012
G1 X131.994 Y108.255 E2.14882
G1 X131.66 Y109.082 E2.17848
G1 X131.391 Y109.72 E2.20151
G1 X131.022 Y110.5 E2.23021
G1 X130.662 Y111.17 E2.25551
G1 X130.001 Y112.322 E2.29968
G1 X129.499 Y113.112 E2.33081
G1 X129.07 Y113.71 E2.35529
G1 X128.262 Y114.776 E2.39978
G1 X127.662 Y115.496 E2.43095
G1 X127.211 Y115.984 E2.45306
G1 X126.774 Y116.436 E2.47397
G1 X126.162 Y117.049 E2.50278
G1 X125.551 Y117.613 E2.53043
G1 X124.993 Y118.077 E2.55457
G1 X123.925 Y118.916 E2.59974
G1 X123.188 Y119.444 E2.6299
G1 X122.673 Y119.773 E2.65022
G1 X121.943 Y120.216 E2.67862
G1 X121.336 Y120.573 E2.70205
G1 X120.553 Y120.989 E2.73154
G1 X120.018 Y121.24 E2.75119
G1 X119.257 Y121.578 E2.77889
G1 X118.597 Y121.859 E2.80274
G1 X117.766 Y122.171 E2.83227
G1 X117.235 Y122.341 E2.85081
G1 X116.536 Y122.55 E2.87508
G1 X115.731 Y122.777 E2.9029
G1 X114.898 Y122.973 E2.93136
G1 X114.188 Y123.103 E2.95537
G1 X112.853 Y123.309 E3.00029
G1 X111.931 Y123.408 E3.03114
G1 X111.297 Y123.443 E3.05225
G1 X110.468 Y123.47 E3.07984
G1 X109.766 Y123.482 E3.10319
G1 X108.878 Y123.458 E3.13274
G1 X108.206 Y123.408 E3.15515
G1 X107.611 Y123.351 E3.17503
G1 X106.741 Y123.254 E3.20415
G1 X105.909 Y123.125 E3.23215
G1 X105.337 Y123.008 E3.25157
G1 X104.501 Y122.817 E3.28009
G1 X103.806 Y122.647 E3.30389
G1 X103.024 Y122.422 E3.33095
G1 X102.348 Y122.19 E3.35472
G1 X101.05 Y121.703 E3.40083
G1 X100.163 Y121.321 E3.43296
G1 X99.637 Y121.061 E3.45247
G1 X98.897 Y120.674 E3.48025
G1 X98.282 Y120.342 E3.50349
G1 X97.521 Y119.888 E3.53296
G1 X96.932 Y119.493 E3.55655
G1 X95.836 Y118.717 E3.60122
G1 X95.105 Y118.148 E3.63203
G1 X94.643 Y117.747 E3.65238
G1 X94.042 Y117.202 E3.67936
G1 X93.502 Y116.698 E3.70393
G1 X92.891 Y116.076 E3.73293
G1 X92.421 Y115.545 E3.75651
G1 X91.542 Y114.496 E3.80203
G1 X90.971 Y113.748 E3.83333
G1 X90.624 Y113.239 E3.85382
G1 X90.29 Y112.727 E3.87415
G1 X89.803 Y111.955 E3.90451
G1 X89.387 Y111.232 E3.93225
G1 X89.095 Y110.661 E3.95359
G1 X88.732 Y109.905 E3.98148
G1 X88.438 Y109.269 E4.00478
G1 X88.111 Y108.475 E4.03334
G1 X87.917 Y107.932 E4.05252
G1 X87.668 Y107.187 E4.07865
G1 X87.434 Y106.449 E4.1044
G1 X87.21 Y105.625 E4.1328
G1 X87.073 Y104.999 E4.15411
G1 X86.947 Y104.352 E4.17604
G1 X86.791 Y103.484 E4.20537
G1 X86.658 Y102.43 E4.2407
G1 X86.589 Y101.485 E4.27222
G1 X86.538 Y100.508 E4.30476
G1 X86.531 Y99.664 E4.33283
G1 X86.557 Y99.015 E4.35443
G1 X86.609 Y98.208 E4.38133
G1 X86.665 Y97.497 E4.40505
G1 X86.773 Y96.621 E4.43441
G1 X86.902 Y95.883 E4.45932
G1 X87.161 Y94.608 E4.5026
G1 X87.382 Y93.725 E4.53287
G1 X87.569 Y93.115 E4.55409
G1 X87.824 Y92.346 E4.58104
G1 X88.064 Y91.656 E4.60534
G1 X88.391 Y90.832 E4.63482
G1 X88.695 Y90.17 E4.65905
G1 X89.272 Y88.992 E4.70268
G1 X89.752 Y88.121 E4.73576
G1 X90.083 Y87.591 E4.75654
G1 X90.515 Y86.929 E4.78283
G1 X90.901 Y86.356 E4.80581
G1 X91.399 Y85.68 E4.83374
G1 X91.833 Y85.145 E4.85665
G1 X92.258 Y84.646 E4.87845
G1 X92.82 Y84.005 E4.9068
G0 F3600 X92.519 Y83.741
G1 F1200 X93.134 Y83.099 E4.93637
G1 X93.631 Y82.63 E4.9591
G1 X94.688 Y81.686 E5.00624
G1 X95.428 Y81.084 E5.03797
G1 X95.877 Y80.755 E5.05648
G1 X96.428 Y80.37 E5.07884
G1 X97.209 Y79.842 E5.11019
G1 X97.939 Y79.392 E5.13871
G1 X98.516 Y79.073 E5.16064
G1 X99.091 Y78.772 E5.18223
G1 X99.901 Y78.365 E5.21238
G1 X100.658 Y78.022 E5.24002
G1 X101.325 Y77.76 E5.26386
G1 X102.658 Y77.28 E5.31098
G1 X103.594 Y76.992 E5.34355
G1 X104.162 Y76.849 E5.36303
G1 X104.842 Y76.693 E5.38624
G1 X105.686 Y76.513 E5.41494
G1 X106.537 Y76.368 E5.44365
G1 X107.166 Y76.292 E5.46472
G1 X107.839 Y76.226 E5.48722
G1 X108.754 Y76.151 E5.51775
G1 X109.635 Y76.117 E5.54708
G1 X110.324 Y76.125 E5.56999
G1 X111.706 Y76.178 E5.61599
G1 X112.638 Y76.257 E5.6471
G1 X113.383 Y76.362 E5.67213
G1 X114.734 Y76.59 E5.7177
G1 X115.661 Y76.79 E5.74924
G1 X116.273 Y76.956 E5.77033
G1 X117.073 Y77.193 E5.79808
G1 X117.778 Y77.414 E5.82265
G1 X118.605 Y77.712 E5.85189
G1 X119.176 Y77.949 E5.87245
G1 X119.953 Y78.294 E5.90073
G1 X120.621 Y78.603 E5.92521
G1 X121.386 Y78.996 E5.95381
G1 X121.999 Y79.35 E5.97736
G1 X123.181 Y80.078 E6.02353
G1 X123.978 Y80.621 E6.0556
G1 X124.586 Y81.086 E6.08106
G1 X125.624 Y81.927 E6.1255
G1 X126.34 Y82.564 E6.15737
G1 X126.833 Y83.053 E6.18047
G1 X127.798 Y84.063 E6.22693
G1 X128.419 Y84.775 E6.25835
G1 X128.875 Y85.36 E6.28302
G1 X129.705 Y86.489 E6.32963
G1 X130.229 Y87.275 E6.36105
G1 X130.531 Y87.784 E6.38073
G1 X130.947 Y88.521 E6.40888
G1 X131.288 Y89.145 E6.43253
G1 X131.719 Y90.029 E6.46524
G1 X131.897 Y90.44 E6.48014
G1 X132.488 Y91.927 E6.53336
G1 X132.783 Y92.779 E6.56335
G1 X132.991 Y93.506 E6.5885
G1 X133.335 Y94.86 E6.63496
G1 X133.524 Y95.775 E6.66604
G1 X133.617 Y96.383 E6.68649
G1 X133.722 Y97.2 E6.71389
G1 X133.81 Y97.967 E6.73957
G1 X133.873 Y98.85 E6.76901
G1 X133.886 Y99.541 E6.792
G1 X133.875 Y100.937 E6.83843
G1 X133.827 Y101.862 E6.86924
G1 X133.759 Y102.517 E6.89114
G1 X133.675 Y103.172 E6.91311
G1 X133.548 Y104.062 E6.94301
G1 X133.381 Y104.952 E6.97313
G1 X133.24 Y105.54 E6.99324
G1 X132.828 Y107.063 E7.04571
G1 X132.573 Y107.852 E7.07329
G1 X132.365 Y108.405 E7.09294
G1 X132.029 Y109.237 E7.12279
G1 X131.753 Y109.891 E7.1464
G1 X131.384 Y110.671 E7.1751
G1 X131.009 Y111.369 E7.20145
G1 X130.339 Y112.537 E7.24624
G1 X129.837 Y113.327 E7.27737
G1 X129.389 Y113.952 E7.30294
G1 X128.581 Y115.018 E7.34743
G1 X127.956 Y115.767 E7.37988
G1 X127.499 Y116.262 E7.40229
G1 X127.057 Y116.719 E7.42343
G1 X126.433 Y117.343 E7.45278
G1 X125.807 Y117.921 E7.48112
G1 X125.24 Y118.392 E7.50564
G1 X124.158 Y119.241 E7.55138
G1 X123.403 Y119.781 E7.58225
G1 X122.881 Y120.115 E7.60287
G1 X122.146 Y120.561 E7.63146
G1 X121.524 Y120.926 E7.65545
G1 X120.723 Y121.351 E7.68561
G1 X120.18 Y121.606 E7.70556
G1 X119.414 Y121.946 E7.73343
G1 X118.738 Y122.233 E7.75786
G1 X117.888 Y122.552 E7.78806
G1 X117.35 Y122.724 E7.80684
G1 X116.645 Y122.935 E7.83132
G1 X115.84 Y123.162 E7.85914
G1 X114.97 Y123.366 E7.88886
G1 X114.249 Y123.498 E7.91324
G1 X112.896 Y123.707 E7.95877
G1 X111.974 Y123.806 E7.98961
G1 X111.31 Y123.843 E8.01173
G1 X110.475 Y123.87 E8.03952
G1 X109.755 Y123.882 E8.06347
G1 X108.848 Y123.857 E8.09365
G1 X108.168 Y123.806 E8.11633
G1 X107.567 Y123.749 E8.13641
G1 X106.697 Y123.652 E8.16552
G1 X105.829 Y123.517 E8.19474
G1 X105.248 Y123.398 E8.21447
G1 X104.406 Y123.206 E8.24319
G1 X103.711 Y123.036 E8.26699
G1 X102.894 Y122.8 E8.29527
G1 X102.207 Y122.565 E8.31942
G1 X100.909 Y122.078 E8.36553
G1 X99.986 Y121.68 E8.39896
G1 X99.452 Y121.415 E8.41879
G1 X98.707 Y121.026 E8.44674
G1 X98.077 Y120.686 E8.47055
G1 X97.316 Y120.232 E8.50003
G1 X96.701 Y119.819 E8.52467
G1 X95.59 Y119.033 E8.56993
G1 X94.859 Y118.464 E8.60074
G1 X94.374 Y118.043 E8.6221
G1 X93.769 Y117.494 E8.64928
G1 X93.217 Y116.978 E8.67441
G1 X92.591 Y116.341 E8.70411
G1 X92.114 Y115.802 E8.72805
G1 X91.224 Y114.739 E8.77416
G1 X90.64 Y113.973 E8.8062
G1 X90.289 Y113.458 E8.82693
G1 X89.952 Y112.94 E8.84748
G1 X89.456 Y112.154 E8.8784
G1 X89.031 Y111.414 E8.90678
G1 X88.734 Y110.834 E8.92845
G1 X88.369 Y110.073 E8.95652
G1 X88.068 Y109.421 E8.98041
G1 X87.734 Y108.61 E9.00958
G1 X87.538 Y108.059 E9.02903
G1 X87.287 Y107.308 E9.05537
G1 X87.048 Y106.554 E9.08168
G1 X86.819 Y105.711 E9.11073
G1 X86.68 Y105.075 E9.13238
G1 X86.553 Y104.423 E9.15448
G1 X86.394 Y103.534 E9.18451
G1 X86.259 Y102.459 E9.22055
G1 X86.19 Y101.506 E9.25233
G1 X86.138 Y100.511 E9.28547
G1 X86.131 Y99.648 E9.31417
G1 X86.158 Y98.989 E9.33611
G1 X86.21 Y98.177 E9.36317
G1 X86.268 Y97.448 E9.38749
G1 X86.379 Y96.552 E9.41752
G1 X86.51 Y95.803 E9.44281
G1 X86.773 Y94.511 E9.48667
G1 X87 Y93.608 E9.51764
G1 X87.189 Y92.989 E9.53916
G1 X87.446 Y92.215 E9.56629
G1 X87.692 Y91.508 E9.59118
G1 X88.027 Y90.665 E9.62136
G1 X88.336 Y89.994 E9.64593
G1 X88.922 Y88.799 E9.69019
G1 X89.413 Y87.909 E9.724
G1 X89.748 Y87.372 E9.74505
G1 X90.183 Y86.706 E9.77151
G1 X90.579 Y86.119 E9.79506
G1 X91.088 Y85.428 E9.82361
G1 X91.528 Y84.886 E9.84683
G1 X91.957 Y84.382 E9.86884
G1 X92.519 Y83.741 E9.89719
G0 F3600 X92.23 Y83.464
G1 F1200 X92.859 Y82.808 E9.92742
G1 X93.356 Y82.339 E9.95015
G1 X94.436 Y81.376 E9.99828
G1 X95.192 Y80.761 E10.03069
G1 X95.648 Y80.427 E10.04949
G1 X96.204 Y80.039 E10.07204
G1 X96.999 Y79.501 E10.10397
G1 X97.745 Y79.042 E10.1331
G1 X98.33 Y78.719 E10.15533
G1 X98.911 Y78.415 E10.17714
G1 X99.736 Y78.001 E10.20784
G1 X100.512 Y77.65 E10.23616
G1 X101.189 Y77.384 E10.26036
G1 X102.54 Y76.898 E10.30811
G1 X103.496 Y76.604 E10.34138
G1 X104.073 Y76.459 E10.36116
G1 X104.759 Y76.302 E10.38457
G1 X105.619 Y76.119 E10.41381
G1 X106.489 Y75.971 E10.44317
G1 X107.127 Y75.894 E10.46454
G1 X107.806 Y75.827 E10.48723
G1 X108.739 Y75.751 E10.51837
G1 X109.64 Y75.717 E10.54836
G1 X110.339 Y75.725 E10.57161
G1 X111.74 Y75.779 E10.61824
G1 X112.672 Y75.858 E10.64935
G1 X113.45 Y75.968 E10.67548
G1 X114.818 Y76.199 E10.72163
G1 X115.766 Y76.404 E10.75389
G1 X116.387 Y76.572 E10.77528
G1 X117.193 Y76.811 E10.80324
G1 X117.914 Y77.038 E10.82839
G1 X118.758 Y77.343 E10.85823
G1 X119.338 Y77.583 E10.87911
G1 X120.121 Y77.931 E10.90761
G1 X120.804 Y78.247 E10.93264
G1 X121.569 Y78.64 E10.96125
G1 X122.209 Y79.009 E10.98582
G1 X123.406 Y79.747 E11.03259
G1 X124.221 Y80.303 E11.0654
G1 X124.838 Y80.775 E11.09124
G1 X125.89 Y81.628 E11.13629
G1 X126.622 Y82.28 E11.16889
G1 X127.122 Y82.777 E11.19234
G1 X128.099 Y83.8 E11.23939
G1 X128.734 Y84.529 E11.27154
G1 X129.197 Y85.123 E11.29659
G1 X130.038 Y86.267 E11.34382
G1 X130.573 Y87.071 E11.37594
G1 X130.879 Y87.587 E11.39589
G1 X131.298 Y88.329 E11.42423
G1 X131.648 Y88.97 E11.44852
G1 X132.086 Y89.87 E11.48181
G1 X132.269 Y90.292 E11.49711
G1 X132.866 Y91.796 E11.55093
G1 X133.168 Y92.669 E11.58166
G1 X133.379 Y93.408 E11.60722
G1 X133.727 Y94.779 E11.65426
G1 X133.916 Y95.694 E11.68534
G1 X134.014 Y96.332 E11.70681
G1 X134.119 Y97.154 E11.73437
G1 X134.209 Y97.939 E11.76065
G1 X134.273 Y98.842 E11.79076
G1 X134.286 Y99.544 E11.81411
G1 X134.274 Y100.958 E11.86114
G1 X134.225 Y101.903 E11.89262
G1 X134.156 Y102.568 E11.91485
G1 X134.071 Y103.229 E11.93702
G1 X133.941 Y104.136 E11.96749
G1 X133.77 Y105.045 E11.99826
G1 X133.626 Y105.644 E12.01875
G1 X133.209 Y107.186 E12.07188
G1 X132.954 Y107.975 E12.09946
G1 X132.736 Y108.555 E12.12007
G1 X132.398 Y109.393 E12.15012
G1 X132.115 Y110.062 E12.17428
G1 X131.746 Y110.842 E12.20298
G1 X131.356 Y111.568 E12.23039
G1 X130.677 Y112.752 E12.27579
G1 X130.175 Y113.542 E12.30692
G1 X129.708 Y114.194 E12.33359
G1 X128.9 Y115.26 E12.37808
G1 X128.25 Y116.038 E12.4118
G1 X127.787 Y116.54 E12.43451
G1 X127.345 Y116.997 E12.45566
G1 X126.704 Y117.637 E12.48579
G1 X126.063 Y118.229 E12.51481
G1 X125.487 Y118.707 E12.5397
G1 X124.391 Y119.566 E12.58602
G1 X123.619 Y120.118 E12.61758
G1 X123.089 Y120.457 E12.63851
G1 X122.348 Y120.906 E12.66733
G1 X121.711 Y121.279 E12.69188
G1 X120.893 Y121.713 E12.72268
G1 X120.342 Y121.972 E12.74293
G1 X119.57 Y122.314 E12.77101
G1 X118.879 Y122.607 E12.79597
G1 X118.01 Y122.933 E12.82684
G1 X117.465 Y123.107 E12.84587
G1 X116.754 Y123.32 E12.87056
G1 X115.949 Y123.547 E12.89838
G1 X115.042 Y123.759 E12.92936
G1 X114.31 Y123.893 E12.95411
G1 X112.939 Y124.105 E13.00025
G1 X112.017 Y124.204 E13.03109
G1 X111.323 Y124.243 E13.05421
G1 X110.488 Y124.27 E13.082
G1 X109.744 Y124.282 E13.10675
G1 X108.818 Y124.256 E13.13756
G1 X108.13 Y124.204 E13.16051
G1 X107.523 Y124.147 E13.18078
G1 X106.653 Y124.05 E13.2099
G1 X105.749 Y123.909 E13.24033
G1 X105.159 Y123.788 E13.26036
G1 X104.311 Y123.595 E13.28929
G1 X103.616 Y123.425 E13.31308
G1 X102.765 Y123.178 E13.34256
G1 X102.066 Y122.94 E13.36712
G1 X100.768 Y122.453 E13.41323
G1 X99.808 Y122.038 E13.44801
G1 X99.267 Y121.77 E13.46809
G1 X98.517 Y121.378 E13.49624
G1 X97.872 Y121.03 E13.52062
G1 X97.111 Y120.576 E13.55009
G1 X96.47 Y120.146 E13.57576
G1 X95.344 Y119.349 E13.62164
G1 X94.613 Y118.78 E13.65245
G1 X94.105 Y118.339 E13.67483
G1 X93.496 Y117.786 E13.70219
G1 X92.932 Y117.258 E13.72789
G1 X92.291 Y116.606 E13.7583
G1 X91.807 Y116.059 E13.78259
G1 X90.906 Y114.982 E13.82929
G1 X90.309 Y114.198 E13.86207
G1 X89.954 Y113.676 E13.88306
G1 X89.614 Y113.153 E13.90381
G1 X89.109 Y112.353 E13.93528
G1 X88.675 Y111.596 E13.9643
G1 X88.373 Y111.007 E13.98632
G1 X88.006 Y110.241 E14.01457
G1 X87.698 Y109.573 E14.03903
G1 X87.357 Y108.744 E14.06885
G1 X87.159 Y108.186 E14.08854
G1 X86.906 Y107.429 E14.11509
G1 X86.662 Y106.659 E14.14195
G1 X86.428 Y105.796 E14.17169
G1 X86.287 Y105.151 E14.19365
G1 X86.159 Y104.493 E14.21595
G1 X85.997 Y103.584 E14.24666
G1 X85.86 Y102.488 E14.28339
G1 X85.791 Y101.527 E14.31544
G1 X85.738 Y100.514 E14.34918
G1 X85.731 Y99.632 E14.37851
G1 X85.759 Y98.963 E14.40078
G1 X85.811 Y98.145 E14.42804
G1 X85.871 Y97.399 E14.45294
G1 X85.985 Y96.483 E14.48364
G1 X86.118 Y95.723 E14.5093
G1 X86.385 Y94.413 E14.55377
G1 X86.617 Y93.491 E14.58539
G1 X86.809 Y92.863 E14.60723
G1 X87.068 Y92.084 E14.63453
G1 X87.32 Y91.36 E14.66003
G1 X87.655 Y90.517 E14.6902
G1 X87.977 Y89.818 E14.7158
G1 X88.572 Y88.606 E14.76071
