;FLAVOR:Marlin
;TIME:4396
;Filament used: 2.71149m
;Layer height: 0.2
;MINX:85.72
;MINY:75.724
;MINZ:0.2
;MAXX:134.28
;MAXY:124.276
;MAXZ:27
;Generated with Cura_SteamEngine 5.3.0
M140 S60
M105
M190 S60
M104 S230
M105
M109 S230
M82 ;absolute extrusion mode
; Ender 3 Custom Start G-code
G92 E0 ; Reset Extruder
G28 ; Home all axes
G1 Z2.0 F3000 ; Move Z Axis up little to prevent scratching of Heat Bed
G1 X0.1 Y20 Z0.3 F5000.0 ; Move to start position
G1 X0.1 Y200.0 Z0.3 F1500.0 E15 ; Draw the first line
G1 X0.4 Y200.0 Z0.3 F5000.0 ; Move to side a little
G1 X0.4 Y20 Z0.3 F1500.0 E30 ; Draw the second line
G92 E0 ; Reset Extruder
G1 Z2.0 F3000 ; Move Z Axis up little to prevent scratching of Heat Bed
G1 X5 Y20 Z0.3 F5000.0 ; Move over to prevent blob squish
G92 E0
G92 E0
G1 F2700 E-5
;LAYER_COUNT:135
;LAYER:0
M107
G0 F3600 X92.273 Y84.6 Z0.2
;TYPE:SKIRT
G1 F2700 E0
G1 F1200 X92.886 Y83.931 E0.03018
G1 X93.538 Y83.253 E0.06146
G1 X94.179 Y82.647 E0.0908
G1 X95.024 Y81.92 E0.12788
G1 X95.584 Y81.462 E0.15194
G1 X96.297 Y80.929 E0.18155
G1 X97.209 Y80.313 E0.21815
G1 X97.842 Y79.909 E0.24313
G1 X98.604 Y79.468 E0.27241
G1 X99.327 Y79.09 E0.29955
G1 X100.261 Y78.632 E0.33415
G1 X101.064 Y78.284 E0.36325
G1 X101.798 Y78.003 E0.3894
G1 X102.787 Y77.652 E0.4243
G1 X103.664 Y77.388 E0.45476
G1 X104.555 Y77.163 E0.48533
G1 X105.451 Y76.96 E0.51588
G1 X106.325 Y76.806 E0.5454
G1 X107.206 Y76.69 E0.57496
G1 X108.176 Y76.587 E0.6074
G1 X109.051 Y76.536 E0.63655
G1 X109.838 Y76.524 E0.66273
G1 X110.886 Y76.534 E0.69759
G1 X111.792 Y76.586 E0.72777
G1 X112.689 Y76.678 E0.75776
G1 X113.588 Y76.792 E0.7879
G1 X114.48 Y76.949 E0.81803
G1 X115.654 Y77.214 E0.85806
G1 X116.293 Y77.376 E0.87998
G1 X117.131 Y77.627 E0.90908
G1 X117.978 Y77.921 E0.9389
G1 X118.846 Y78.246 E0.96972
G1 X119.668 Y78.6 E0.99949
G1 X120.678 Y79.092 E1.03686
G1 X121.322 Y79.426 E1.06099
G1 X122.097 Y79.872 E1.09073
G1 X122.761 Y80.294 E1.1169
G1 X123.633 Y80.88 E1.15184
G1 X124.342 Y81.406 E1.1812
G1 X124.985 Y81.928 E1.20875
G1 X125.756 Y82.587 E1.24248
G1 X126.423 Y83.214 E1.27293
G1 X127.01 Y83.819 E1.30097
G1 X127.68 Y84.545 E1.33382
G1 X128.243 Y85.215 E1.36293
G1 X128.761 Y85.888 E1.39118
G1 X129.348 Y86.691 E1.42426
G1 X129.842 Y87.44 E1.4541
G1 X130.26 Y88.139 E1.48119
G1 X130.761 Y89.024 E1.51502
G1 X131.169 Y89.832 E1.54512
G1 X131.58 Y90.753 E1.57867
G1 X131.88 Y91.469 E1.60449
G1 X132.197 Y92.336 E1.63519
G1 X132.462 Y93.174 E1.66442
G1 X132.742 Y94.149 E1.69816
G1 X132.939 Y94.979 E1.72654
G1 X133.138 Y96.028 E1.76205
G1 X133.261 Y96.777 E1.78729
G1 X133.368 Y97.677 E1.81744
G1 X133.446 Y98.783 E1.85432
G1 X133.479 Y99.519 E1.87882
G1 X133.48 Y100.404 E1.90825
G1 X133.43 Y101.491 E1.94445
G1 X133.376 Y102.244 E1.96956
G1 X133.272 Y103.136 E1.99942
G1 X133.081 Y104.298 E2.03859
G1 X132.956 Y104.952 E2.06074
G1 X132.752 Y105.814 E2.0902
G1 X132.516 Y106.648 E2.11903
G1 X132.234 Y107.561 E2.15081
G1 X131.926 Y108.41 E2.18085
G1 X131.502 Y109.426 E2.21747
G1 X131.204 Y110.094 E2.24179
G1 X130.803 Y110.896 E2.27162
G1 X130.422 Y111.581 E2.29769
G1 X129.892 Y112.481 E2.33243
G1 X129.401 Y113.23 E2.36221
G1 X128.728 Y114.158 E2.40034
G1 X128.308 Y114.707 E2.42333
G1 X127.732 Y115.395 E2.45318
G1 X127.15 Y116.031 E2.48185
G1 X126.47 Y116.739 E2.5145
G1 X125.826 Y117.349 E2.544
G1 X124.985 Y118.073 E2.58091
G1 X124.415 Y118.539 E2.6054
G1 X123.703 Y119.071 E2.63496
G1 X122.791 Y119.687 E2.67157
G1 X122.158 Y120.091 E2.69654
G1 X121.396 Y120.532 E2.72582
G1 X120.673 Y120.91 E2.75296
G1 X119.739 Y121.368 E2.78756
G1 X118.936 Y121.716 E2.81667
G1 X118.202 Y121.997 E2.84281
G1 X117.213 Y122.348 E2.87771
G1 X116.336 Y122.612 E2.90817
G1 X115.445 Y122.837 E2.93874
G1 X114.549 Y123.04 E2.96929
G1 X113.675 Y123.194 E2.99881
G1 X112.794 Y123.31 E3.02837
G1 X111.824 Y123.413 E3.06081
G1 X110.949 Y123.464 E3.08996
G1 X110.162 Y123.476 E3.11614
G1 X109.114 Y123.466 E3.151
G1 X108.208 Y123.414 E3.18118
G1 X107.311 Y123.322 E3.21117
G1 X106.412 Y123.208 E3.24131
G1 X105.52 Y123.051 E3.27144
G1 X104.346 Y122.786 E3.31147
G1 X103.707 Y122.624 E3.33339
G1 X102.869 Y122.373 E3.36249
G1 X102.022 Y122.079 E3.39231
G1 X101.153 Y121.754 E3.42317
G1 X100.324 Y121.397 E3.45319
G1 X99.574 Y121.034 E3.4809
G1 X98.67 Y120.569 E3.51471
G1 X97.901 Y120.126 E3.54423
G1 X96.99 Y119.542 E3.58022
G1 X96.364 Y119.118 E3.60537
G1 X95.652 Y118.589 E3.63487
G1 X95.012 Y118.069 E3.6623
G1 X94.244 Y117.413 E3.69589
G1 X93.577 Y116.786 E3.72634
G1 X92.99 Y116.181 E3.75438
G1 X92.319 Y115.454 E3.78728
G1 X91.75 Y114.777 E3.8167
G1 X91.058 Y113.87 E3.85464
G1 X90.647 Y113.302 E3.87796
G1 X90.151 Y112.547 E3.908
G1 X89.551 Y111.534 E3.94716
G1 X89.23 Y110.96 E3.96904
G1 X88.829 Y110.164 E3.99868
G1 X88.42 Y109.246 E4.03211
G1 X88.118 Y108.525 E4.05811
G1 X87.799 Y107.655 E4.08893
G1 X87.536 Y106.822 E4.11798
G1 X87.258 Y105.851 E4.15157
G1 X87.061 Y105.021 E4.17995
G1 X86.861 Y103.965 E4.21569
G1 X86.738 Y103.213 E4.24104
G1 X86.632 Y102.323 E4.27085
G1 X86.572 Y101.516 E4.29776
G1 X86.521 Y100.465 E4.33276
G1 X86.52 Y99.58 E4.3622
G1 X86.553 Y98.805 E4.388
G1 X86.624 Y97.756 E4.42297
G1 X86.728 Y96.864 E4.45284
G1 X86.919 Y95.702 E4.492
G1 X87.044 Y95.048 E4.51415
G1 X87.248 Y94.186 E4.54361
G1 X87.484 Y93.352 E4.57244
G1 X87.766 Y92.439 E4.60422
G1 X88.074 Y91.59 E4.63426
G1 X88.501 Y90.567 E4.67113
G1 X88.801 Y89.896 E4.69558
G1 X89.197 Y89.104 E4.72503
G1 X89.576 Y88.422 E4.75098
G1 X90.108 Y87.519 E4.78584
G1 X90.599 Y86.77 E4.81562
G1 X91.272 Y85.842 E4.85375
G1 X91.692 Y85.293 E4.87674
G1 X92.273 Y84.6 E4.90682
G0 F3600 X91.978 Y84.33
G1 F1200 X92.598 Y83.654 E4.93733
G1 X93.263 Y82.962 E4.96925
G1 X93.918 Y82.344 E4.9992
G1 X94.771 Y81.61 E5.03663
G1 X95.331 Y81.152 E5.06069
G1 X96.073 Y80.598 E5.09149
G1 X96.994 Y79.976 E5.12845
G1 X97.642 Y79.563 E5.15401
G1 X98.419 Y79.114 E5.18386
G1 X99.151 Y78.731 E5.21134
G1 X100.102 Y78.265 E5.24656
G1 X100.921 Y77.91 E5.27625
G1 X101.664 Y77.626 E5.30271
G1 X102.672 Y77.269 E5.33827
G1 X103.566 Y77 E5.36932
G1 X104.467 Y76.773 E5.40023
G1 X105.382 Y76.566 E5.43143
G1 X106.273 Y76.409 E5.46152
G1 X107.164 Y76.292 E5.49141
G1 X108.153 Y76.188 E5.52449
G1 X109.045 Y76.136 E5.55421
G1 X109.842 Y76.124 E5.58072
G1 X110.909 Y76.135 E5.61621
G1 X111.833 Y76.188 E5.64699
G1 X112.739 Y76.281 E5.67728
G1 X113.657 Y76.398 E5.70806
G1 X114.568 Y76.559 E5.73883
G1 X115.752 Y76.826 E5.7792
G1 X116.408 Y76.993 E5.80171
G1 X117.262 Y77.249 E5.83137
G1 X118.118 Y77.546 E5.8615
G1 X118.986 Y77.871 E5.89233
G1 X119.843 Y78.24 E5.92336
G1 X120.862 Y78.737 E5.96107
G1 X121.522 Y79.079 E5.9858
G1 X122.312 Y79.534 E6.01612
G1 X122.984 Y79.962 E6.04262
G1 X123.871 Y80.559 E6.07818
G1 X124.594 Y81.095 E6.10811
G1 X125.245 Y81.624 E6.13601
G1 X126.03 Y82.296 E6.17038
G1 X126.71 Y82.935 E6.20142
G1 X127.304 Y83.548 E6.22981
G1 X127.986 Y84.288 E6.26328
G1 X128.56 Y84.971 E6.29295
G1 X129.084 Y85.652 E6.32153
G1 X129.682 Y86.471 E6.35526
G1 X130.185 Y87.235 E6.38569
G1 X130.608 Y87.942 E6.41309
G1 X131.118 Y88.844 E6.44755
G1 X131.534 Y89.669 E6.47828
G1 X131.949 Y90.598 E6.51212
G1 X132.256 Y91.332 E6.53859
G1 X132.578 Y92.215 E6.56985
G1 X132.846 Y93.064 E6.59946
G1 X133.131 Y94.057 E6.63382
G1 X133.332 Y94.904 E6.66277
G1 X133.533 Y95.963 E6.69862
G1 X133.658 Y96.73 E6.72447
G1 X133.767 Y97.649 E6.75525
G1 X133.846 Y98.765 E6.79246
G1 X133.879 Y99.519 E6.81756
G1 X133.88 Y100.422 E6.8476
G1 X133.829 Y101.52 E6.88416
G1 X133.773 Y102.29 E6.90984
G1 X133.667 Y103.201 E6.94034
G1 X133.474 Y104.373 E6.97985
G1 X133.345 Y105.044 E7.00257
G1 X133.137 Y105.923 E7.03261
G1 X132.898 Y106.766 E7.06176
G1 X132.61 Y107.697 E7.09417
G1 X132.295 Y108.564 E7.12485
G1 X131.867 Y109.589 E7.1618
G1 X131.562 Y110.273 E7.18671
G1 X131.153 Y111.09 E7.21709
G1 X130.767 Y111.784 E7.24351
G1 X130.227 Y112.7 E7.27887
G1 X129.725 Y113.465 E7.30931
G1 X129.046 Y114.401 E7.34777
G1 X128.615 Y114.964 E7.37135
G1 X128.027 Y115.665 E7.40178
G1 X127.438 Y116.308 E7.43078
G1 X126.745 Y117.029 E7.46404
G1 X126.087 Y117.652 E7.49418
G1 X125.238 Y118.383 E7.53145
G1 X124.668 Y118.849 E7.55593
G1 X123.927 Y119.402 E7.58669
G1 X123.006 Y120.024 E7.62365
G1 X122.358 Y120.437 E7.64921
G1 X121.581 Y120.886 E7.67905
G1 X120.849 Y121.269 E7.70653
G1 X119.898 Y121.735 E7.74176
G1 X119.079 Y122.09 E7.77145
G1 X118.336 Y122.374 E7.7979
G1 X117.328 Y122.731 E7.83347
G1 X116.434 Y123 E7.86452
G1 X115.533 Y123.227 E7.89542
G1 X114.618 Y123.434 E7.92663
G1 X113.727 Y123.591 E7.95672
G1 X112.836 Y123.708 E7.98661
G1 X111.847 Y123.812 E8.01968
G1 X110.955 Y123.864 E8.0494
G1 X110.158 Y123.876 E8.07591
G1 X109.091 Y123.865 E8.1114
G1 X108.167 Y123.812 E8.14218
G1 X107.261 Y123.719 E8.17248
G1 X106.343 Y123.602 E8.20326
G1 X105.432 Y123.441 E8.23403
G1 X104.248 Y123.174 E8.27439
G1 X103.592 Y123.007 E8.29691
G1 X102.738 Y122.751 E8.32656
G1 X101.882 Y122.454 E8.3567
G1 X101.013 Y122.129 E8.38756
G1 X100.15 Y121.757 E8.41881
G1 X99.391 Y121.39 E8.44685
G1 X98.47 Y120.916 E8.4813
G1 X97.685 Y120.463 E8.51145
G1 X96.766 Y119.873 E8.54777
G1 X96.125 Y119.439 E8.57352
G1 X95.413 Y118.91 E8.60302
G1 X94.752 Y118.373 E8.63135
G1 X93.97 Y117.704 E8.66558
G1 X93.29 Y117.065 E8.69661
G1 X92.696 Y116.452 E8.725
G1 X92.013 Y115.711 E8.75852
G1 X91.432 Y115.02 E8.78855
G1 X90.734 Y114.104 E8.82685
G1 X90.313 Y113.522 E8.85074
G1 X89.807 Y112.751 E8.88141
G1 X89.202 Y111.729 E8.92092
G1 X88.873 Y111.14 E8.94336
G1 X88.464 Y110.327 E8.97362
G1 X88.051 Y109.401 E9.00735
G1 X87.742 Y108.663 E9.03396
G1 X87.423 Y107.793 E9.06478
G1 X87.151 Y106.932 E9.09481
G1 X86.873 Y105.961 E9.1284
G1 X86.668 Y105.095 E9.158
G1 X86.466 Y104.03 E9.19406
G1 X86.341 Y103.26 E9.22
G1 X86.233 Y102.353 E9.25038
G1 X86.172 Y101.535 E9.27766
G1 X86.121 Y100.465 E9.31329
G1 X86.12 Y99.563 E9.34329
G1 X86.154 Y98.778 E9.36943
G1 X86.227 Y97.71 E9.40503
G1 X86.333 Y96.799 E9.43554
G1 X86.526 Y95.627 E9.47504
G1 X86.655 Y94.956 E9.49777
G1 X86.863 Y94.077 E9.52781
G1 X87.102 Y93.234 E9.55696
G1 X87.39 Y92.303 E9.58937
G1 X87.705 Y91.436 E9.62005
G1 X88.136 Y90.404 E9.65725
G1 X88.443 Y89.717 E9.68227
G1 X88.847 Y88.91 E9.71229
G1 X89.231 Y88.219 E9.73858
G1 X89.773 Y87.3 E9.77407
G1 X90.275 Y86.535 E9.8045
G1 X90.954 Y85.599 E9.84296
G1 X91.385 Y85.036 E9.86655
G1 X91.978 Y84.33 E9.89721
G0 F3600 X91.683 Y84.06
G1 F1200 X92.31 Y83.377 E9.92805
G1 X92.988 Y82.671 E9.96061
G1 X93.657 Y82.041 E9.99117
G1 X94.518 Y81.3 E10.02895
G1 X95.092 Y80.831 E10.05361
G1 X95.849 Y80.267 E10.085
G1 X96.779 Y79.639 E10.12233
G1 X97.442 Y79.217 E10.14847
G1 X98.234 Y78.76 E10.17888
G1 X98.975 Y78.372 E10.2067
G1 X99.943 Y77.898 E10.24255
G1 X100.778 Y77.536 E10.27282
G1 X101.53 Y77.249 E10.29959
G1 X102.557 Y76.886 E10.33582
G1 X103.468 Y76.612 E10.36746
G1 X104.379 Y76.383 E10.3987
G1 X105.313 Y76.172 E10.43055
G1 X106.221 Y76.012 E10.46121
G1 X107.122 Y75.894 E10.49144
G1 X108.13 Y75.789 E10.52515
G1 X109.039 Y75.736 E10.55543
G1 X109.846 Y75.724 E10.58227
G1 X110.932 Y75.736 E10.6184
G1 X111.874 Y75.79 E10.64978
G1 X112.79 Y75.884 E10.68041
G1 X113.727 Y76.004 E10.71182
G1 X114.656 Y76.169 E10.74321
G1 X115.851 Y76.438 E10.78395
G1 X116.523 Y76.61 E10.80702
G1 X117.393 Y76.871 E10.83723
G1 X118.258 Y77.171 E10.86768
G1 X119.126 Y77.496 E10.89851
G1 X120.018 Y77.88 E10.93081
G1 X121.046 Y78.382 E10.96886
G1 X121.722 Y78.732 E10.99418
G1 X122.512 Y79.187 E11.0245
G1 X123.207 Y79.63 E11.05191
G1 X124.109 Y80.238 E11.08809
G1 X124.846 Y80.785 E11.11862
G1 X125.505 Y81.32 E11.14685
G1 X126.304 Y82.005 E11.18185
G1 X126.997 Y82.657 E11.2135
G1 X127.598 Y83.277 E11.24222
G1 X128.292 Y84.031 E11.2763
G1 X128.877 Y84.727 E11.30654
G1 X129.407 Y85.416 E11.33546
G1 X130.016 Y86.251 E11.36983
G1 X130.528 Y87.03 E11.40084
G1 X130.956 Y87.745 E11.42855
G1 X131.475 Y88.664 E11.46365
G1 X131.899 Y89.506 E11.49501
G1 X132.318 Y90.444 E11.52918
G1 X132.632 Y91.195 E11.55625
G1 X132.954 Y92.078 E11.58751
G1 X133.23 Y92.954 E11.61806
G1 X133.52 Y93.965 E11.65304
G1 X133.725 Y94.829 E11.68258
G1 X133.928 Y95.899 E11.7188
G1 X134.055 Y96.683 E11.74522
G1 X134.166 Y97.621 E11.77663
G1 X134.246 Y98.748 E11.81421
G1 X134.279 Y99.519 E11.83988
G1 X134.28 Y100.441 E11.87054
G1 X134.228 Y101.549 E11.90744
G1 X134.17 Y102.336 E11.93368
G1 X134.062 Y103.266 E11.96482
G1 X133.867 Y104.449 E12.0047
G1 X133.734 Y105.136 E12.02798
G1 X133.522 Y106.032 E12.0586
G1 X133.28 Y106.884 E12.08806
G1 X132.986 Y107.834 E12.12113
G1 X132.664 Y108.718 E12.15242
G1 X132.232 Y109.752 E12.1897
G1 X131.92 Y110.452 E12.21519
G1 X131.503 Y111.284 E12.24614
G1 X131.112 Y111.987 E12.2729
G1 X130.572 Y112.903 E12.30826
G1 X130.049 Y113.7 E12.33997
G1 X129.364 Y114.644 E12.37876
G1 X128.921 Y115.221 E12.40296
G1 X128.322 Y115.935 E12.43395
G1 X127.726 Y116.585 E12.46329
G1 X127.02 Y117.319 E12.49716
G1 X126.348 Y117.955 E12.52793
G1 X125.491 Y118.693 E12.56555
G1 X124.907 Y119.17 E12.59063
G1 X124.151 Y119.733 E12.62198
G1 X123.221 Y120.361 E12.6593
G1 X122.558 Y120.783 E12.68544
G1 X121.766 Y121.24 E12.71586
G1 X121.025 Y121.628 E12.74368
G1 X120.057 Y122.102 E12.77952
G1 X119.222 Y122.464 E12.80979
G1 X118.47 Y122.751 E12.83656
G1 X117.443 Y123.114 E12.87279
G1 X116.532 Y123.388 E12.90443
G1 X115.621 Y123.617 E12.93568
G1 X114.687 Y123.828 E12.96752
G1 X113.779 Y123.988 E12.99819
G1 X112.878 Y124.106 E13.02841
G1 X111.87 Y124.211 E13.06212
G1 X110.961 Y124.264 E13.09241
G1 X110.154 Y124.276 E13.11925
G1 X109.068 Y124.264 E13.15537
G1 X108.126 Y124.21 E13.18676
G1 X107.21 Y124.116 E13.21738
G1 X106.273 Y123.996 E13.2488
G1 X105.344 Y123.831 E13.28018
G1 X104.149 Y123.562 E13.32092
G1 X103.477 Y123.39 E13.34399
G1 X102.607 Y123.129 E13.37421
G1 X101.742 Y122.829 E13.40466
G1 X100.873 Y122.504 E13.43551
G1 X99.976 Y122.117 E13.46801
G1 X99.208 Y121.746 E13.49638
G1 X98.287 Y121.272 E13.53083
G1 X97.469 Y120.8 E13.56224
G1 X96.542 Y120.204 E13.59889
G1 X95.886 Y119.76 E13.62524
G1 X95.174 Y119.231 E13.65474
G1 X94.492 Y118.677 E13.68397
G1 X93.696 Y117.995 E13.71883
G1 X93.003 Y117.343 E13.75048
G1 X92.402 Y116.723 E13.7792
G1 X91.707 Y115.968 E13.81333
G1 X91.114 Y115.262 E13.84399
G1 X90.41 Y114.338 E13.88263
G1 X89.979 Y113.741 E13.90712
G1 X89.463 Y112.955 E13.93839
G1 X88.853 Y111.924 E13.97823
G1 X88.516 Y111.32 E14.00124
G1 X88.099 Y110.49 E14.03213
G1 X87.682 Y109.555 E14.06618
G1 X87.366 Y108.801 E14.09338
G1 X87.047 Y107.931 E14.1242
G1 X86.766 Y107.042 E14.15521
G1 X86.488 Y106.071 E14.1888
G1 X86.275 Y105.17 E14.21959
G1 X86.071 Y104.094 E14.25602
G1 X85.944 Y103.307 E14.28253
G1 X85.834 Y102.383 E14.31348
G1 X85.772 Y101.554 E14.34113
G1 X85.721 Y100.465 E14.37739
G1 X85.72 Y99.546 E14.40796
G1 X85.755 Y98.751 E14.43442
G1 X85.83 Y97.664 E14.47066
G1 X85.938 Y96.734 E14.5018
G1 X86.133 Y95.551 E14.54168
G1 X86.266 Y94.864 E14.56496
G1 X86.478 Y93.968 E14.59558
G1 X86.72 Y93.116 E14.62504
G1 X87.014 Y92.166 E14.65811
G1 X87.336 Y91.282 E14.68941
G1 X87.771 Y90.241 E14.72693
G1 X88.085 Y89.538 E14.75254
G1 X88.497 Y88.716 E14.78312
G1 X88.886 Y88.016 E14.80976
G1 X89.428 Y87.097 E14.84524
G1 X89.951 Y86.3 E14.87695
G1 X90.636 Y85.356 E14.91574
G1 X91.079 Y84.779 E14.93994
G1 X91.683 Y84.06 E14.97117
G1 F2700 E9.97117
;MESH:??????????????????(??????).stl
G0 F3600 X104.406 Y96.524
G0 X103.863 Y98.857
G0 X103.757 Y100.003
G0 X103.864 Y101.15
G0 X104.18 Y102.259
G0 X104.695 Y103.29
G0 X105.389 Y104.208
G0 X106.241 Y104.984
G0 X107.221 Y105.589
G0 X108.292 Y106.005
G0 X110.587 Y106.377
;TYPE:WALL-INNER
G1 F2700 E14.97117
G1 F1200 X109.417 Y106.377 E15.01008
G1 X108.253 Y106.16 E15.04947
G1 X107.147 Y105.729 E15.08895
G1 X106.143 Y105.111 E15.12816
G1 X105.256 Y104.303 E15.16806
G1 X104.561 Y103.381 E15.20647
G1 X104.029 Y102.312 E15.24618
G1 X103.707 Y101.173 E15.28555
G1 X103.595 Y100 E15.32474
G1 X103.706 Y98.838 E15.36357
G1 X104.028 Y97.686 E15.40335
G1 X104.56 Y96.621 E15.44295
G1 X105.256 Y95.699 E15.48137
G1 X106.141 Y94.889 E15.52127
G1 X107.137 Y94.276 E15.56017
G1 X108.242 Y93.842 E15.59965
G1 X109.413 Y93.623 E15.63928
G1 X110.584 Y93.622 E15.67822
G1 X111.759 Y93.842 E15.71798
