;FLAVOR:Marlin
;TIME:1652
;Filament used: 0.880426m
;Layer height: 0.2
;MINX:86.341
;MINY:83.25
;MINZ:0.2
;MAXX:133.659
;MAXY:116.75
;MAXZ:19.4
;Generated with Cura_SteamEngine 5.3.0
M140 S60
M105
M190 S60
M104 S230
M105
M109 S230
M82 ;absolute extrusion mode
; Ender 3 Custom Start G-code
G92 E0 ; Reset Extruder
G28 ; Home all axes
G1 Z2.0 F3000 ; Move Z Axis up little to prevent scratching of Heat Bed
G1 X0.1 Y20 Z0.3 F5000.0 ; Move to start position
G1 X0.1 Y200.0 Z0.3 F1500.0 E15 ; Draw the first line
G1 X0.4 Y200.0 Z0.3 F5000.0 ; Move to side a little
G1 X0.4 Y20 Z0.3 F1500.0 E30 ; Draw the second line
G92 E0 ; Reset Extruder
G1 Z2.0 F3000 ; Move Z Axis up little to prevent scratching of Heat Bed
G1 X5 Y20 Z0.3 F5000.0 ; Move over to prevent blob squish
G92 E0
G92 E0
G1 F2700 E-5
;LAYER_COUNT:97
;LAYER:0
M107
G0 F3600 X90.336 Y87.605 Z0.2
;TYPE:SKIRT
G1 F2700 E0
G1 F1200 X91.019 Y87.013 E0.03006
G1 X91.751 Y86.485 E0.06008
G1 X92.527 Y86.023 E0.09012
G1 X93.34 Y85.631 E0.12014
G1 X94.186 Y85.313 E0.1502
G1 X95.056 Y85.071 E0.18023
G1 X95.944 Y84.907 E0.21027
G1 X96.771 Y84.826 E0.23791
G1 X97.818 Y84.766 E0.27279
G1 X100.478 Y84.576 E0.36148
G1 X102.963 Y84.328 E0.44455
G1 X104.676 Y84.125 E0.50192
G1 X105.545 Y84.063 E0.5309
G1 X106.152 Y84.05 E0.55109
G1 X113.627 Y84.051 E0.79971
G1 X114.344 Y84.062 E0.82356
G1 X115.357 Y84.128 E0.85732
G1 X118.358 Y84.474 E0.9578
G1 X120.885 Y84.689 E1.04215
G1 X123.247 Y84.828 E1.12085
G1 X124.146 Y84.92 E1.1509
G1 X125.032 Y85.092 E1.18092
G1 X125.9 Y85.342 E1.21097
G1 X126.743 Y85.667 E1.24102
G1 X127.553 Y86.066 E1.27105
G1 X128.325 Y86.534 E1.30107
G1 X129.052 Y87.07 E1.33112
G1 X129.73 Y87.667 E1.36116
G1 X130.351 Y88.322 E1.39118
G1 X130.913 Y89.029 E1.42122
G1 X131.409 Y89.784 E1.45127
G1 X131.837 Y90.579 E1.4813
G1 X132.193 Y91.409 E1.51134
G1 X132.474 Y92.267 E1.54136
G1 X132.678 Y93.147 E1.57141
G1 X132.804 Y94.041 E1.60144
G1 X132.846 Y94.722 E1.62413
G1 X132.859 Y95.33 E1.64436
G1 X132.857 Y104.41 E1.94636
G1 X132.847 Y105.132 E1.97038
G1 X132.795 Y106.034 E2.00043
G1 X132.663 Y106.927 E2.03045
G1 X132.452 Y107.805 E2.06048
G1 X132.165 Y108.662 E2.09054
G1 X131.803 Y109.489 E2.12057
G1 X131.369 Y110.281 E2.15061
G1 X130.867 Y111.032 E2.18065
G1 X130.3 Y111.735 E2.21069
G1 X129.674 Y112.386 E2.24073
G1 X128.992 Y112.978 E2.27077
G1 X128.261 Y113.508 E2.3008
G1 X127.485 Y113.971 E2.33085
G1 X126.672 Y114.364 E2.36089
G1 X125.827 Y114.683 E2.39093
G1 X124.958 Y114.926 E2.42094
G1 X124.07 Y115.091 E2.45098
G1 X123.229 Y115.174 E2.47909
G1 X122.182 Y115.234 E2.51397
G1 X119.522 Y115.424 E2.60267
G1 X117.037 Y115.672 E2.68573
G1 X115.324 Y115.875 E2.7431
G1 X114.455 Y115.937 E2.77208
G1 X113.848 Y115.95 E2.79227
G1 X106.373 Y115.949 E3.04089
G1 X105.655 Y115.938 E3.06477
G1 X104.641 Y115.872 E3.09857
G1 X101.638 Y115.525 E3.19912
G1 X99.115 Y115.311 E3.28333
G1 X96.753 Y115.172 E3.36203
G1 X95.854 Y115.08 E3.39209
G1 X94.968 Y114.908 E3.42211
G1 X94.1 Y114.658 E3.45215
G1 X93.257 Y114.333 E3.4822
G1 X92.447 Y113.934 E3.51223
G1 X91.675 Y113.466 E3.54226
G1 X90.948 Y112.93 E3.5723
G1 X90.27 Y112.333 E3.60234
G1 X89.649 Y111.678 E3.63236
G1 X89.087 Y110.971 E3.6624
G1 X88.591 Y110.216 E3.69245
G1 X88.163 Y109.421 E3.72248
G1 X87.807 Y108.591 E3.75252
G1 X87.526 Y107.733 E3.78255
G1 X87.322 Y106.853 E3.81259
G1 X87.196 Y105.959 E3.84262
G1 X87.153 Y105.244 E3.86644
G1 X87.141 Y104.628 E3.88694
G1 X87.143 Y95.512 E4.19014
G1 X87.153 Y94.854 E4.21202
G1 X87.207 Y93.952 E4.24208
G1 X87.34 Y93.059 E4.27211
G1 X87.552 Y92.181 E4.30215
G1 X87.84 Y91.326 E4.33216
G1 X88.203 Y90.499 E4.36219
G1 X88.638 Y89.707 E4.39225
G1 X89.141 Y88.957 E4.42228
G1 X89.709 Y88.255 E4.45232
G1 X90.336 Y87.605 E4.48236
G0 F3600 X90.048 Y87.327
G1 F1200 X90.785 Y86.689 E4.51478
G1 X91.546 Y86.141 E4.54597
G1 X92.322 Y85.679 E4.57601
G1 X93.199 Y85.257 E4.60838
G1 X94.079 Y84.928 E4.63962
G1 X94.983 Y84.678 E4.67082
G1 X95.905 Y84.509 E4.702
G1 X96.748 Y84.427 E4.73017
G1 X97.79 Y84.367 E4.76488
G1 X100.443 Y84.177 E4.85335
G1 X102.923 Y83.93 E4.93624
G1 X104.648 Y83.726 E4.99401
G1 X105.536 Y83.663 E5.02362
G1 X106.152 Y83.65 E5.04412
G1 X113.633 Y83.651 E5.29294
G1 X114.37 Y83.663 E5.31745
G1 X115.403 Y83.731 E5.35188
G1 X118.392 Y84.075 E5.45195
G1 X120.919 Y84.291 E5.53631
G1 X123.288 Y84.43 E5.61524
G1 X124.222 Y84.527 E5.64647
G1 X125.108 Y84.699 E5.67649
G1 X126.044 Y84.969 E5.70889
G1 X126.92 Y85.308 E5.74013
G1 X127.73 Y85.707 E5.77016
G1 X128.562 Y86.212 E5.80253
G1 X129.289 Y86.748 E5.83257
G1 X130.02 Y87.392 E5.86498
G1 X130.664 Y88.073 E5.89615
G1 X131.247 Y88.809 E5.92738
G1 X131.761 Y89.594 E5.95859
G1 X132.205 Y90.421 E5.98981
G1 X132.561 Y91.251 E6.01985
G1 X132.864 Y92.177 E6.05225
G1 X133.068 Y93.057 E6.0823
G1 X133.203 Y94.016 E6.11451
G1 X133.246 Y94.713 E6.13773
G1 X133.259 Y95.33 E6.15826
G1 X133.257 Y104.416 E6.46046
G1 X133.246 Y105.155 E6.48504
G1 X133.191 Y106.092 E6.51626
G1 X133.059 Y106.985 E6.54629
G1 X132.841 Y107.898 E6.57751
G1 X132.544 Y108.789 E6.60874
G1 X132.154 Y109.681 E6.64112
G1 X131.702 Y110.503 E6.67232
G1 X131.2 Y111.254 E6.70237
G1 X130.611 Y111.986 E6.73362
G1 X129.936 Y112.688 E6.76601
G1 X129.227 Y113.302 E6.79721
G1 X128.466 Y113.852 E6.82843
G1 X127.69 Y114.315 E6.85849
G1 X126.846 Y114.724 E6.88968
G1 X125.935 Y115.068 E6.92207
G1 X125.031 Y115.319 E6.95328
G1 X124.109 Y115.489 E6.98446
G1 X123.252 Y115.573 E7.0131
G1 X122.21 Y115.633 E7.04781
G1 X119.557 Y115.823 E7.13628
G1 X117.077 Y116.07 E7.21917
G1 X115.371 Y116.272 E7.27631
G1 X114.464 Y116.337 E7.30656
G1 X113.857 Y116.35 E7.32675
G1 X106.367 Y116.349 E7.57587
G1 X105.629 Y116.337 E7.60042
G1 X104.595 Y116.269 E7.63488
G1 X101.604 Y115.924 E7.73502
G1 X99.081 Y115.709 E7.81924
G1 X96.712 Y115.57 E7.89817
G1 X95.778 Y115.473 E7.9294
G1 X94.892 Y115.301 E7.95942
G1 X93.956 Y115.031 E7.99182
G1 X93.08 Y114.692 E8.02306
G1 X92.27 Y114.293 E8.0531
G1 X91.438 Y113.788 E8.08547
G1 X90.711 Y113.252 E8.11551
G1 X89.98 Y112.608 E8.14791
G1 X89.336 Y111.927 E8.17908
G1 X88.753 Y111.191 E8.21031
G1 X88.239 Y110.406 E8.24152
G1 X87.795 Y109.579 E8.27274
G1 X87.439 Y108.749 E8.30278
G1 X87.136 Y107.823 E8.33519
G1 X86.932 Y106.943 E8.36523
G1 X86.8 Y106.015 E8.39641
G1 X86.753 Y105.252 E8.42183
G1 X86.741 Y104.628 E8.44259
G1 X86.743 Y95.506 E8.74599
G1 X86.754 Y94.83 E8.76848
G1 X86.811 Y93.893 E8.7997
G1 X86.944 Y93 E8.82973
G1 X87.163 Y92.087 E8.86096
G1 X87.461 Y91.198 E8.89214
G1 X87.852 Y90.306 E8.92453
G1 X88.287 Y89.514 E8.95459
G1 X88.83 Y88.705 E8.98699
G1 X89.421 Y87.977 E9.01818
G1 X90.048 Y87.327 E9.04822
G0 F3600 X89.76 Y87.049
G1 F1200 X90.551 Y86.364 E9.08302
G1 X91.341 Y85.797 E9.11536
G1 X92.117 Y85.335 E9.1454
G1 X93.059 Y84.882 E9.18017
G1 X93.972 Y84.542 E9.21257
G1 X94.876 Y84.292 E9.24377
G1 X95.866 Y84.111 E9.27724
G1 X96.725 Y84.028 E9.30594
G1 X97.761 Y83.968 E9.34046
G1 X100.411 Y83.778 E9.42883
G1 X102.883 Y83.532 E9.51145
G1 X104.62 Y83.327 E9.56962
G1 X105.528 Y83.263 E9.5999
G1 X106.152 Y83.25 E9.62066
G1 X113.64 Y83.251 E9.86971
G1 X114.396 Y83.264 E9.89486
G1 X115.449 Y83.334 E9.92996
G1 X118.426 Y83.676 E10.02963
G1 X120.953 Y83.893 E10.11398
G1 X123.329 Y84.032 E10.19314
G1 X124.298 Y84.134 E10.22555
G1 X125.184 Y84.306 E10.25557
G1 X126.188 Y84.596 E10.29033
G1 X127.097 Y84.949 E10.32276
G1 X127.938 Y85.365 E10.35397
G1 X128.77 Y85.87 E10.38634
G1 X129.526 Y86.426 E10.41755
G1 X130.311 Y87.117 E10.45234
G1 X130.955 Y87.798 E10.48351
G1 X131.582 Y88.59 E10.51711
G1 X132.096 Y89.375 E10.54832
G1 X132.573 Y90.263 E10.58184
G1 X132.929 Y91.093 E10.61188
G1 X133.254 Y92.087 E10.64666
G1 X133.458 Y92.967 E10.67671
G1 X133.602 Y93.991 E10.7111
G1 X133.646 Y94.705 E10.73489
G1 X133.659 Y95.33 E10.75569
G1 X133.657 Y104.422 E11.05809
G1 X133.645 Y105.178 E11.08324
G1 X133.587 Y106.15 E11.11562
G1 X133.455 Y107.043 E11.14565
G1 X133.23 Y107.991 E11.17805
G1 X132.911 Y108.949 E11.21164
G1 X132.505 Y109.874 E11.24523
G1 X132.053 Y110.696 E11.27643
G1 X131.512 Y111.505 E11.3088
G1 X130.923 Y112.237 E11.34005
G1 X130.198 Y112.99 E11.37482
G1 X129.489 Y113.604 E11.40602
G1 X128.671 Y114.196 E11.4396
G1 X127.895 Y114.659 E11.46965
G1 X127.02 Y115.084 E11.50201
G1 X126.042 Y115.453 E11.53677
G1 X125.104 Y115.712 E11.56914
G1 X124.148 Y115.887 E11.60147
G1 X123.275 Y115.972 E11.63064
G1 X122.239 Y116.032 E11.66515
G1 X119.589 Y116.222 E11.75352
G1 X117.117 Y116.468 E11.83614
G1 X115.418 Y116.669 E11.89305
G1 X114.473 Y116.737 E11.92456
G1 X113.857 Y116.75 E11.94505
G1 X106.36 Y116.749 E12.1944
G1 X105.603 Y116.736 E12.21959
G1 X104.549 Y116.666 E12.25472
G1 X101.57 Y116.323 E12.35446
G1 X99.047 Y116.107 E12.43868
G1 X96.671 Y115.968 E12.51784
G1 X95.702 Y115.866 E12.55025
G1 X94.816 Y115.694 E12.58026
G1 X93.812 Y115.404 E12.61502
G1 X92.903 Y115.051 E12.64746
G1 X92.062 Y114.635 E12.67866
G1 X91.23 Y114.13 E12.71103
G1 X90.474 Y113.574 E12.74225
G1 X89.689 Y112.883 E12.77703
G1 X89.045 Y112.202 E12.8082
G1 X88.418 Y111.41 E12.8418
G1 X87.904 Y110.625 E12.87301
G1 X87.427 Y109.737 E12.90654
G1 X87.071 Y108.907 E12.93657
G1 X86.746 Y107.913 E12.97136
G1 X86.542 Y107.033 E13.0014
G1 X86.401 Y106.04 E13.03476
G1 X86.353 Y105.26 E13.06075
G1 X86.341 Y104.628 E13.08178
G1 X86.343 Y95.499 E13.38541
G1 X86.355 Y94.806 E13.40846
G1 X86.415 Y93.834 E13.44085
G1 X86.548 Y92.941 E13.47088
G1 X86.774 Y91.994 E13.50326
G1 X87.095 Y91.037 E13.53684
G1 X87.501 Y90.113 E13.5704
G1 X87.936 Y89.321 E13.60046
G1 X88.519 Y88.453 E13.63524
G1 X89.133 Y87.699 E13.66758
G1 X89.76 Y87.049 E13.69761
G1 F2700 E8.69761
G0 F3600 X106.022 Y94.45
G1 F2700 E13.69761
G1 F1200 X113.978 Y94.45 E13.96223
G1 X113.978 Y94.86 E13.97587
G1 X113.908 Y94.994 E13.9809
G1 X113.886 Y95.772 E14.00678
G1 X113.886 Y95.778 E14.00698
G1 X113.879 Y98.701 E14.1042
G1 X113.88 Y98.719 E14.1048
G1 X113.925 Y99.218 E14.12147
G1 X113.974 Y99.333 E14.12562
G1 X113.978 Y100.66 E14.16976
G1 X113.908 Y100.795 E14.17482
G1 X113.886 Y101.597 E14.2015
G1 X113.886 Y101.602 E14.20167
G1 X113.879 Y104.564 E14.30019
G1 X113.88 Y104.585 E14.30089
G1 X113.925 Y105.021 E14.31546
G1 X113.976 Y105.135 E14.31962
G1 X113.978 Y105.55 E14.33342
G1 X106.022 Y105.55 E14.59804
G1 X106.022 Y105.469 E14.60073
G1 X106 Y105.377 E14.60388
G1 X105.901 Y105.185 E14.61106
G1 X105.974 Y105.161 E14.61362
G1 X106.054 Y105.019 E14.61904
G1 X106.121 Y104.303 E14.64296
G1 X106.122 Y104.283 E14.64362
G1 X106.115 Y103.212 E14.67925
G1 X106.115 Y103.206 E14.67945
G1 X106.1 Y102.806 E14.69276
G1 X106.099 Y102.794 E14.69316
G1 X106.077 Y102.568 E14.70071
G1 X106.075 Y102.552 E14.70125
G1 X106.002 Y102.137 E14.71526
G1 X105.999 Y102.125 E14.71568
G1 X105.91 Y101.754 E14.72837
G1 X105.904 Y101.732 E14.72912
G1 X105.847 Y101.577 E14.73462
G1 X105.848 Y98.353 E14.84185
G1 X105.959 Y98.007 E14.85393
G1 X105.965 Y97.986 E14.85466
G1 X106.045 Y97.594 E14.86797
G1 X106.047 Y97.581 E14.8684
G1 X106.085 Y97.304 E14.8777
G1 X106.087 Y97.289 E14.87821
G1 X106.108 Y96.926 E14.8903
G1 X106.108 Y96.916 E14.89063
G1 X106.112 Y96.542 E14.90307
G1 X106.112 Y96.537 E14.90324
G1 X106.096 Y95.592 E14.93467
G1 X106.096 Y95.584 E14.93494
G1 X106.052 Y94.803 E14.96096
G1 X106.026 Y94.715 E14.96401
G1 X105.988 Y94.649 E14.96654
G1 X105.994 Y94.64 E14.9669
G1 X106.022 Y94.538 E14.97042
G1 X106.022 Y94.45 E14.97335
G0 F3600 X106.455 Y94.85
G1 F1200 X113.542 Y94.85 E15.20906
G1 X113.508 Y94.983 E15.21363
G1 X113.486 Y95.761 E15.23951
G1 X113.486 Y95.777 E15.24005
G1 X113.479 Y98.7 E15.33727
G1 X113.481 Y98.755 E15.3391
G1 X113.526 Y99.254 E15.35576
G1 X113.578 Y99.439 E15.36215
G1 X113.578 Y100.521 E15.39814
G1 X113.574 Y100.526 E15.39835
G1 X113.508 Y100.784 E15.40721
G1 X113.486 Y101.586 E15.43389
G1 X113.486 Y101.601 E15.43439
G1 X113.479 Y104.563 E15.53291
G1 X113.482 Y104.626 E15.53501
G1 X113.527 Y105.062 E15.54959
G1 X113.553 Y105.15 E15.55264
G1 X106.425 Y105.15 E15.78972
G1 X106.452 Y105.056 E15.79297
G1 X106.519 Y104.34 E15.81689
G1 X106.522 Y104.28 E15.81889
G1 X106.515 Y103.209 E15.85451
G1 X106.515 Y103.191 E15.85511
G1 X106.5 Y102.791 E15.86842
G1 X106.497 Y102.755 E15.86962
G1 X106.475 Y102.529 E15.87717
G1 X106.469 Y102.483 E15.87872
G1 X106.396 Y102.068 E15.89273
G1 X106.388 Y102.032 E15.89396
G1 X106.299 Y101.661 E15.90665
G1 X106.279 Y101.594 E15.90897
G1 X106.247 Y101.507 E15.91206
G1 X106.248 Y98.416 E16.01486
G1 X106.34 Y98.129 E16.02489
G1 X106.357 Y98.066 E16.02706
G1 X106.437 Y97.674 E16.04037
G1 X106.443 Y97.636 E16.04165
G1 X106.481 Y97.359 E16.05094
G1 X106.486 Y97.312 E16.05252
G1 X106.507 Y96.949 E16.06461
G1 X106.508 Y96.92 E16.06558
G1 X106.512 Y96.546 E16.07802
G1 X106.512 Y96.53 E16.07855
G1 X106.496 Y95.585 E16.10998
G1 X106.495 Y95.561 E16.11078
G1 X106.455 Y94.85 E16.13447
G0 F3600 X106.878 Y95.25
G1 F1200 X113.1 Y95.25 E16.34141
G1 X113.086 Y95.75 E16.35805
G1 X113.086 Y95.776 E16.35891
G1 X113.079 Y98.699 E16.45613
G1 X113.083 Y98.791 E16.4592
G1 X113.128 Y99.29 E16.47586
G1 X113.178 Y99.501 E16.48307
G1 X113.178 Y100.48 E16.51563
G1 X113.108 Y100.773 E16.52565
G1 X113.086 Y101.575 E16.55234
G1 X113.086 Y101.6 E16.55317
G1 X113.079 Y104.562 E16.65169
G1 X113.084 Y104.667 E16.65518
G1 X113.093 Y104.75 E16.65796
G1 X106.883 Y104.75 E16.8645
G1 X106.918 Y104.377 E16.87696
G1 X106.922 Y104.277 E16.88029
G1 X106.915 Y103.206 E16.91592
G1 X106.914 Y103.176 E16.91691
G1 X106.899 Y102.776 E16.93023
G1 X106.895 Y102.716 E16.93223
G1 X106.873 Y102.49 E16.93978
G1 X106.863 Y102.414 E16.94233
G1 X106.79 Y101.999 E16.95634
G1 X106.777 Y101.939 E16.95839
G1 X106.688 Y101.568 E16.97108
G1 X106.655 Y101.456 E16.97496
G1 X106.647 Y101.434 E16.97574
G1 X106.648 Y98.48 E17.07399
G1 X106.721 Y98.252 E17.08195
G1 X106.749 Y98.146 E17.0856
G1 X106.829 Y97.754 E17.0989
G1 X106.84 Y97.69 E17.10106
G1 X106.878 Y97.413 E17.11036
G1 X106.885 Y97.335 E17.11297
G1 X106.906 Y96.972 E17.12506
G1 X106.908 Y96.925 E17.12663
G1 X106.912 Y96.551 E17.13907
G1 X106.912 Y96.523 E17.14
G1 X106.896 Y95.578 E17.17143
G1 X106.894 Y95.539 E17.17273
G1 X106.878 Y95.25 E17.18236
G0 F3600 X107.297 Y95.65
G1 F1200 X112.689 Y95.65 E17.3617
G1 X112.687 Y95.738 E17.36463
G1 X112.686 Y95.775 E17.36586
G1 X112.679 Y98.698 E17.46308
G1 X112.685 Y98.827 E17.46737
G1 X112.73 Y99.326 E17.48404
G1 X112.778 Y99.553 E17.49175
G1 X112.778 Y100.421 E17.52062
G1 X112.709 Y100.762 E17.53219
G1 X112.687 Y101.564 E17.55888
G1 X112.686 Y101.599 E17.56004
G1 X112.679 Y104.35 E17.65154
G1 X107.319 Y104.35 E17.82982
G1 X107.322 Y104.275 E17.83231
G1 X107.315 Y103.204 E17.86793
G1 X107.314 Y103.161 E17.86937
G1 X107.299 Y102.761 E17.88268
G1 X107.293 Y102.677 E17.88548
G1 X107.271 Y102.451 E17.89303
G1 X107.257 Y102.344 E17.89662
G1 X107.184 Y101.929 E17.91064
G1 X107.166 Y101.845 E17.91349
G1 X107.077 Y101.474 E17.92618
G1 X107.047 Y101.375 E17.92962
G1 X107.048 Y98.542 E18.02385
G1 X107.102 Y98.374 E18.02972
G1 X107.141 Y98.226 E18.03481
G1 X107.221 Y97.834 E18.04812
G1 X107.236 Y97.744 E18.05115
G1 X107.274 Y97.467 E18.06045
G1 X107.285 Y97.358 E18.06409
G1 X107.306 Y96.995 E18.07619
G1 X107.308 Y96.929 E18.07838
G1 X107.312 Y96.555 E18.09082
G1 X107.312 Y96.516 E18.09212
G1 X107.297 Y95.65 E18.12093
G0 F3600 X107.704 Y96.05
G1 F1200 X112.285 Y96.05 E18.27329
G1 X112.279 Y98.697 E18.36133
G1 X112.286 Y98.863 E18.36686
G1 X112.331 Y99.362 E18.38352
G1 X112.378 Y99.598 E18.39153
G1 X112.378 Y100.337 E18.41611
G1 X112.309 Y100.751 E18.43007
G1 X112.287 Y101.553 E18.45675
G1 X112.286 Y101.598 E18.45825
G1 X112.28 Y103.95 E18.53648
G1 X107.72 Y103.95 E18.68814
G1 X107.715 Y103.201 E18.71305
G1 X107.714 Y103.146 E18.71488
G1 X107.699 Y102.746 E18.7282
G1 X107.692 Y102.639 E18.73176
G1 X107.67 Y102.413 E18.73932
G1 X107.651 Y102.275 E18.74395
G1 X107.578 Y101.86 E18.75796
G1 X107.555 Y101.752 E18.76164
G1 X107.466 Y101.381 E18.77433
G1 X107.447 Y101.318 E18.77651
G1 X107.448 Y98.605 E18.86675
G1 X107.483 Y98.496 E18.87056
G1 X107.533 Y98.306 E18.87709
G1 X107.613 Y97.914 E18.8904
G1 X107.632 Y97.799 E18.89428
G1 X107.67 Y97.522 E18.90357
G1 X107.684 Y97.381 E18.90829
G1 X107.705 Y97.018 E18.92038
