;FLAVOR:Marlin
;TIME:3988
;Filament used: 2.1987m
;Layer height: 0.2
;MINX:94.001
;MINY:81.101
;MINZ:0.2
;MAXX:125.999
;MAXY:118.899
;MAXZ:60.4
;Generated with Cura_SteamEngine 5.3.0
M140 S60
M105
M190 S60
M104 S230
M105
M109 S230
M82 ;absolute extrusion mode
; Ender 3 Custom Start G-code
G92 E0 ; Reset Extruder
G28 ; Home all axes
G1 Z2.0 F3000 ; Move Z Axis up little to prevent scratching of Heat Bed
G1 X0.1 Y20 Z0.3 F5000.0 ; Move to start position
G1 X0.1 Y200.0 Z0.3 F1500.0 E15 ; Draw the first line
G1 X0.4 Y200.0 Z0.3 F5000.0 ; Move to side a little
G1 X0.4 Y20 Z0.3 F1500.0 E30 ; Draw the second line
G92 E0 ; Reset Extruder
G1 Z2.0 F3000 ; Move Z Axis up little to prevent scratching of Heat Bed
G1 X5 Y20 Z0.3 F5000.0 ; Move over to prevent blob squish
G92 E0
G92 E0
G1 F2700 E-5
;LAYER_COUNT:302
;LAYER:0
M107
G0 F6000 X97.815 Y86.102 Z0.2
;TYPE:SKIRT
G1 F2700 E0
G1 F1200 X98.149 Y85.75 E0.01614
G1 X98.591 Y85.305 E0.037
G1 X99.255 Y84.693 E0.06703
G1 X99.971 Y84.142 E0.09708
G1 X100.733 Y83.657 E0.12713
G1 X101.167 Y83.42 E0.14357
G1 X101.714 Y83.139 E0.16403
G1 X102.535 Y82.762 E0.19407
G1 X103.386 Y82.46 E0.22411
G1 X104.26 Y82.234 E0.25413
G1 X104.735 Y82.145 E0.27021
G1 X105.361 Y82.043 E0.2913
G1 X106.694 Y81.915 E0.33584
G1 X107.298 Y81.901 E0.35594
G1 X112.453 Y81.901 E0.52739
G1 X113.223 Y81.913 E0.55301
G1 X114.124 Y81.967 E0.58303
G1 X114.798 Y82.06 E0.60566
G1 X115.343 Y82.154 E0.62405
G1 X116.225 Y82.347 E0.65408
G1 X117.087 Y82.617 E0.68413
G1 X118.217 Y83.106 E0.72508
G1 X118.77 Y83.386 E0.74569
G1 X119.556 Y83.829 E0.7757
G1 X120.301 Y84.34 E0.80575
G1 X120.997 Y84.915 E0.83578
G1 X121.35 Y85.249 E0.85194
G1 X121.795 Y85.691 E0.8728
G1 X122.407 Y86.355 E0.90284
G1 X122.958 Y87.071 E0.93289
G1 X123.443 Y87.833 E0.96293
G1 X123.68 Y88.267 E0.97937
G1 X123.961 Y88.814 E0.99983
G1 X124.338 Y89.635 E1.02988
G1 X124.64 Y90.486 E1.05991
G1 X124.866 Y91.36 E1.08994
G1 X124.952 Y91.814 E1.1053
G1 X125.054 Y92.432 E1.12614
G1 X125.161 Y93.329 E1.15618
G1 X125.186 Y93.794 E1.17167
G1 X125.199 Y94.399 E1.1918
G1 X125.199 Y105.311 E1.55473
G1 X125.187 Y106.116 E1.58151
G1 X125.133 Y107.018 E1.61156
G1 X125.04 Y107.698 E1.63439
G1 X124.946 Y108.243 E1.65279
G1 X124.753 Y109.125 E1.68282
G1 X124.483 Y109.987 E1.71286
G1 X123.994 Y111.117 E1.75381
G1 X123.714 Y111.67 E1.77443
G1 X123.271 Y112.456 E1.80444
G1 X122.76 Y113.201 E1.83448
G1 X122.185 Y113.897 E1.86451
G1 X121.851 Y114.25 E1.88067
G1 X121.409 Y114.695 E1.90154
G1 X120.745 Y115.307 E1.93157
G1 X120.029 Y115.858 E1.96162
G1 X119.267 Y116.343 E1.99166
G1 X118.833 Y116.58 E2.00811
G1 X118.286 Y116.861 E2.02856
G1 X117.465 Y117.238 E2.05861
G1 X116.614 Y117.54 E2.08864
G1 X115.74 Y117.766 E2.11867
G1 X115.265 Y117.855 E2.13474
G1 X114.639 Y117.957 E2.15584
G1 X113.306 Y118.085 E2.20038
G1 X112.702 Y118.099 E2.22047
G1 X107.547 Y118.099 E2.39193
G1 X106.777 Y118.087 E2.41754
G1 X105.876 Y118.033 E2.44756
G1 X105.202 Y117.94 E2.47019
G1 X104.657 Y117.846 E2.48859
G1 X103.775 Y117.653 E2.51862
G1 X102.913 Y117.383 E2.54866
G1 X101.783 Y116.894 E2.58961
G1 X101.23 Y116.614 E2.61023
G1 X100.444 Y116.171 E2.64024
G1 X99.699 Y115.66 E2.67029
G1 X99.003 Y115.085 E2.70031
G1 X98.65 Y114.751 E2.71648
G1 X98.205 Y114.309 E2.73734
G1 X97.593 Y113.645 E2.76737
G1 X97.042 Y112.929 E2.79742
G1 X96.557 Y112.167 E2.82746
G1 X96.32 Y111.733 E2.84391
G1 X96.039 Y111.186 E2.86436
G1 X95.662 Y110.365 E2.89441
G1 X95.36 Y109.514 E2.92445
G1 X95.134 Y108.64 E2.95447
G1 X95.044 Y108.158 E2.97078
G1 X94.942 Y107.529 E2.99197
G1 X94.815 Y106.206 E3.03618
G1 X94.801 Y105.601 E3.05631
G1 X94.801 Y94.624 E3.4214
G1 X94.811 Y93.95 E3.44382
G1 X94.89 Y92.83 E3.48117
G1 X94.987 Y92.15 E3.50401
G1 X95.059 Y91.737 E3.51796
G1 X95.253 Y90.855 E3.54799
G1 X95.524 Y89.994 E3.57801
G1 X96.007 Y88.881 E3.61837
G1 X96.286 Y88.33 E3.63891
G1 X96.729 Y87.543 E3.66895
G1 X97.24 Y86.799 E3.69897
G1 X97.815 Y86.102 E3.72902
G0 F6000 X97.506 Y85.847
G1 F1200 X97.865 Y85.468 E3.74638
G1 X98.32 Y85.011 E3.76783
G1 X99.011 Y84.376 E3.79905
G1 X99.727 Y83.825 E3.8291
G1 X100.541 Y83.306 E3.8612
G1 X100.984 Y83.064 E3.87799
G1 X101.547 Y82.775 E3.89904
G1 X102.368 Y82.398 E3.92909
G1 X103.252 Y82.083 E3.9603
G1 X104.186 Y81.841 E3.99239
G1 X104.671 Y81.75 E4.00881
G1 X105.297 Y81.648 E4.0299
G1 X106.685 Y81.515 E4.07628
G1 X107.289 Y81.501 E4.09637
G1 X112.459 Y81.501 E4.26833
G1 X113.247 Y81.514 E4.29454
G1 X114.179 Y81.571 E4.3256
G1 X114.866 Y81.666 E4.34866
G1 X115.429 Y81.763 E4.36767
G1 X116.345 Y81.965 E4.39886
G1 X117.207 Y82.235 E4.42891
G1 X118.398 Y82.749 E4.47205
G1 X118.951 Y83.029 E4.49267
G1 X119.782 Y83.499 E4.52442
G1 X120.556 Y84.032 E4.55568
G1 X121.272 Y84.624 E4.58658
G1 X121.632 Y84.965 E4.60307
G1 X122.089 Y85.42 E4.62452
G1 X122.724 Y86.111 E4.65573
G1 X123.275 Y86.827 E4.68578
G1 X123.794 Y87.641 E4.71789
G1 X124.036 Y88.084 E4.73468
G1 X124.325 Y88.647 E4.75573
G1 X124.702 Y89.468 E4.78578
G1 X125.017 Y90.352 E4.81699
G1 X125.259 Y91.286 E4.84908
G1 X125.347 Y91.749 E4.86476
G1 X125.451 Y92.385 E4.88619
G1 X125.558 Y93.282 E4.91624
G1 X125.586 Y93.785 E4.93299
G1 X125.599 Y94.39 E4.95312
G1 X125.599 Y105.317 E5.31655
G1 X125.586 Y106.14 E5.34393
G1 X125.529 Y107.072 E5.37499
G1 X125.434 Y107.766 E5.39828
G1 X125.337 Y108.329 E5.41728
G1 X125.135 Y109.245 E5.44848
G1 X124.865 Y110.107 E5.47853
G1 X124.351 Y111.298 E5.52167
G1 X124.071 Y111.851 E5.54229
G1 X123.601 Y112.682 E5.57404
G1 X123.068 Y113.456 E5.6053
G1 X122.476 Y114.172 E5.6362
G1 X122.135 Y114.532 E5.65269
G1 X121.68 Y114.989 E5.67414
G1 X120.989 Y115.624 E5.70535
G1 X120.273 Y116.175 E5.7354
G1 X119.459 Y116.694 E5.76751
G1 X119.016 Y116.936 E5.7843
G1 X118.453 Y117.225 E5.80535
G1 X117.632 Y117.602 E5.8354
G1 X116.748 Y117.917 E5.86661
G1 X115.814 Y118.159 E5.8987
G1 X115.329 Y118.25 E5.91511
G1 X114.703 Y118.352 E5.93621
G1 X113.315 Y118.485 E5.98258
G1 X112.711 Y118.499 E6.00268
G1 X107.541 Y118.499 E6.17463
G1 X106.753 Y118.486 E6.20085
G1 X105.821 Y118.429 E6.2319
G1 X105.134 Y118.334 E6.25497
G1 X104.571 Y118.237 E6.27397
G1 X103.655 Y118.035 E6.30517
G1 X102.793 Y117.765 E6.33521
G1 X101.602 Y117.251 E6.37836
G1 X101.049 Y116.971 E6.39897
G1 X100.218 Y116.501 E6.43073
G1 X99.444 Y115.968 E6.46198
G1 X98.728 Y115.376 E6.49288
G1 X98.368 Y115.035 E6.50938
G1 X97.911 Y114.58 E6.53083
G1 X97.276 Y113.889 E6.56204
G1 X96.725 Y113.173 E6.59209
G1 X96.206 Y112.359 E6.6242
G1 X95.964 Y111.916 E6.64099
G1 X95.675 Y111.353 E6.66203
G1 X95.298 Y110.532 E6.69208
G1 X94.983 Y109.648 E6.7233
G1 X94.741 Y108.713 E6.75542
G1 X94.649 Y108.222 E6.77203
G1 X94.547 Y107.593 E6.79323
G1 X94.415 Y106.215 E6.83927
G1 X94.401 Y105.61 E6.8594
G1 X94.401 Y94.618 E7.22499
G1 X94.412 Y93.922 E7.24814
G1 X94.494 Y92.774 E7.28642
G1 X94.593 Y92.081 E7.30971
G1 X94.668 Y91.651 E7.32423
G1 X94.871 Y90.735 E7.35543
G1 X95.142 Y89.874 E7.38545
G1 X95.65 Y88.7 E7.428
G1 X95.937 Y88.134 E7.44911
G1 X96.38 Y87.347 E7.47914
G1 X96.931 Y86.544 E7.51153
G1 X97.506 Y85.847 E7.54159
G0 F6000 X97.197 Y85.592
G1 F1200 X97.582 Y85.186 E7.5602
G1 X98.049 Y84.716 E7.58223
G1 X98.74 Y84.081 E7.61345
G1 X99.483 Y83.508 E7.64466
G1 X100.349 Y82.955 E7.67883
G1 X100.801 Y82.708 E7.69596
G1 X101.38 Y82.411 E7.71761
G1 X102.201 Y82.034 E7.74765
G1 X103.118 Y81.706 E7.78005
G1 X104.112 Y81.448 E7.8142
G1 X104.607 Y81.355 E7.83095
G1 X105.233 Y81.253 E7.85205
G1 X106.676 Y81.115 E7.90026
G1 X107.28 Y81.101 E7.92036
G1 X112.466 Y81.101 E8.09284
G1 X113.271 Y81.115 E8.11962
G1 X114.234 Y81.175 E8.15171
G1 X114.934 Y81.272 E8.17522
G1 X115.515 Y81.372 E8.19483
G1 X116.465 Y81.583 E8.22719
G1 X117.327 Y81.853 E8.25724
G1 X118.579 Y82.392 E8.30257
G1 X119.148 Y82.681 E8.3238
G1 X119.979 Y83.151 E8.35555
G1 X120.811 Y83.724 E8.38915
G1 X121.527 Y84.316 E8.42005
G1 X121.914 Y84.682 E8.43777
G1 X122.384 Y85.149 E8.45981
G1 X123.019 Y85.84 E8.49102
G1 X123.592 Y86.583 E8.52223
G1 X124.145 Y87.449 E8.5564
G1 X124.392 Y87.901 E8.57353
G1 X124.689 Y88.48 E8.59518
G1 X125.066 Y89.301 E8.62523
G1 X125.394 Y90.218 E8.65762
G1 X125.652 Y91.211 E8.69174
G1 X125.742 Y91.684 E8.70776
G1 X125.848 Y92.338 E8.72979
G1 X125.957 Y93.26 E8.76067
G1 X125.986 Y93.776 E8.77786
G1 X125.999 Y94.381 E8.79799
G1 X125.999 Y105.323 E9.16192
G1 X125.985 Y106.164 E9.1899
G1 X125.925 Y107.126 E9.22195
G1 X125.828 Y107.834 E9.24572
G1 X125.728 Y108.415 E9.26533
G1 X125.517 Y109.365 E9.2977
G1 X125.247 Y110.227 E9.32774
G1 X124.708 Y111.479 E9.37308
G1 X124.419 Y112.048 E9.3943
G1 X123.949 Y112.879 E9.42606
G1 X123.376 Y113.711 E9.45966
G1 X122.784 Y114.427 E9.49056
G1 X122.418 Y114.814 E9.50827
G1 X121.951 Y115.284 E9.53031
G1 X121.26 Y115.919 E9.56152
G1 X120.517 Y116.492 E9.59273
G1 X119.651 Y117.045 E9.62691
G1 X119.199 Y117.292 E9.64404
G1 X118.62 Y117.589 E9.66568
G1 X117.799 Y117.966 E9.69573
G1 X116.882 Y118.294 E9.72812
G1 X115.888 Y118.552 E9.76228
G1 X115.393 Y118.645 E9.77903
G1 X114.767 Y118.747 E9.80013
G1 X113.324 Y118.885 E9.84834
G1 X112.72 Y118.899 E9.86843
G1 X107.534 Y118.899 E10.04092
G1 X106.729 Y118.885 E10.0677
G1 X105.766 Y118.825 E10.09979
G1 X105.066 Y118.728 E10.12329
G1 X104.485 Y118.628 E10.1429
G1 X103.535 Y118.417 E10.17527
G1 X102.673 Y118.147 E10.20531
G1 X101.421 Y117.608 E10.25065
G1 X100.852 Y117.319 E10.27188
G1 X100.021 Y116.849 E10.30363
G1 X99.189 Y116.276 E10.33723
G1 X98.473 Y115.684 E10.36813
G1 X98.086 Y115.318 E10.38585
G1 X97.616 Y114.851 E10.40788
G1 X96.981 Y114.16 E10.4391
G1 X96.408 Y113.417 E10.4703
G1 X95.855 Y112.551 E10.50448
G1 X95.608 Y112.099 E10.52161
G1 X95.311 Y111.52 E10.54325
G1 X94.934 Y110.699 E10.5733
G1 X94.606 Y109.782 E10.60569
G1 X94.348 Y108.787 E10.63988
G1 X94.254 Y108.286 E10.65684
G1 X94.152 Y107.657 E10.67803
G1 X94.015 Y106.224 E10.72591
G1 X94.001 Y105.619 E10.74604
G1 X94.001 Y94.612 E11.11213
G1 X94.013 Y93.894 E11.13602
G1 X94.098 Y92.717 E11.17527
G1 X94.199 Y92.012 E11.19895
G1 X94.277 Y91.564 E11.21408
G1 X94.48 Y90.648 E11.24528
G1 X94.76 Y89.754 E11.27644
G1 X95.293 Y88.519 E11.32118
G1 X95.588 Y87.938 E11.34285
G1 X96.031 Y87.151 E11.37289
G1 X96.622 Y86.289 E11.40765
G1 X97.197 Y85.592 E11.43771
G1 F2700 E6.43771
;MESH:??????4.stl
G0 F6000 X104.348 Y93.963
G0 X105.419 Y94.132
G0 X106.216 Y98.323
G0 X107.14 Y102.125
G0 X108.268 Y103.4
;TYPE:WALL-INNER
G1 F2700 E11.43771
G1 F1200 X107.641 Y103.233 E11.45929
G1 X107.192 Y102.974 E11.47653
G1 X106.825 Y102.607 E11.49379
G1 X106.566 Y102.157 E11.51106
G1 F1194 X106.4 Y101.537 E11.53251
G1 X106.4 Y98.6 E11.63069
G1 F1170.7 X106.423 Y98.338 E11.63965
G1 X106.568 Y97.84 E11.65733
G1 F1200 X106.826 Y97.392 E11.67453
G1 X107.193 Y97.025 E11.69179
G1 X107.642 Y96.766 E11.70903
G1 X108.28 Y96.6 E11.73096
G1 X111.733 Y96.601 E11.84581
G1 X112.359 Y96.767 E11.86735
G1 X112.807 Y97.027 E11.88457
G1 X113.174 Y97.394 E11.90184
G1 X113.434 Y97.843 E11.91909
G1 F1170.7 X113.576 Y98.338 E11.93665
G1 X113.6 Y98.599 E11.94559
G1 F1194 X113.6 Y101.536 E12.04376
G1 X113.432 Y102.16 E12.06536
G1 F1200 X113.174 Y102.608 E12.08255
G1 X112.807 Y102.975 E12.09982
G1 X112.358 Y103.234 E12.11706
G1 X111.72 Y103.4 E12.13898
G1 X108.268 Y103.4 E12.2538
G0 F6000 X108.319 Y103
G1 F1200 X107.744 Y102.846 E12.2736
G1 X107.475 Y102.691 E12.28392
G1 X107.108 Y102.324 E12.30119
G1 X106.953 Y102.054 E12.31154
G1 X106.8 Y101.475 E12.33146
G1 X106.8 Y98.519 E12.42978
G1 X106.954 Y97.944 E12.44957
G1 X107.109 Y97.675 E12.4599
G1 X107.476 Y97.308 E12.47716
G1 X107.746 Y97.153 E12.48752
G1 X108.325 Y97 E12.50744
G1 X111.683 Y97.001 E12.61912
G1 X112.255 Y97.154 E12.63882
G1 X112.525 Y97.309 E12.64917
G1 X112.892 Y97.676 E12.66643
G1 X113.047 Y97.946 E12.67679
G1 X113.2 Y98.519 E12.69652
G1 X113.2 Y101.474 E12.7948
G1 X113.046 Y102.056 E12.81482
G1 X112.891 Y102.325 E12.82515
G1 X112.524 Y102.692 E12.84241
G1 X112.254 Y102.847 E12.85277
G1 X111.675 Y103 E12.87268
G1 X108.319 Y103 E12.98431
G0 F6000 X108.242 Y103.288
G0 X112.394 Y103.39
G0 X113.752 Y101.602
G0 X113.84 Y102.234
G0 X113.839 Y105.808
G0 X113.783 Y106.152
G0 X113.303 Y106.838
G1 F1200 X113.576 Y106.699 E12.99449
G1 X113.799 Y106.476 E13.00498
G1 X113.938 Y106.203 E13.01517
G1 X114 Y105.821 E13.02804
G1 X114 Y98.599 E13.26825
G1 F1170.7 X113.99 Y98.284 E13.27899
G1 X114 Y97.769 E13.29655
G1 F1200 X114 Y94.179 E13.41596
G1 X113.939 Y93.797 E13.42882
G1 X113.799 Y93.524 E13.43903
G1 X113.576 Y93.301 E13.44952
G1 X113.303 Y93.161 E13.45972
G1 X112.921 Y93.1 E13.47259
G1 X107.079 Y93.1 E13.66689
G1 X106.697 Y93.161 E13.67976
G1 X106.424 Y93.301 E13.68997
G1 X106.201 Y93.524 E13.70045
G1 X106.061 Y93.797 E13.71066
G1 X106 Y94.179 E13.72353
G1 X106 Y97.766 E13.84283
G1 F1170.7 X106.011 Y98.284 E13.86049
G1 X106 Y98.6 E13.87127
G1 F1200 X106.001 Y105.821 E14.11144
G1 X106.062 Y106.203 E14.12431
G1 X106.201 Y106.476 E14.1345
G1 X106.424 Y106.699 E14.14499
G1 X106.697 Y106.838 E14.15518
G1 X107.079 Y106.9 E14.16805
G1 X112.921 Y106.899 E14.36236
G1 X113.303 Y106.838 E14.37522
G0 F6000 X113.429 Y107.223
G1 F1200 X113.814 Y107.027 E14.38959
G1 X114.127 Y106.714 E14.40431
G1 X114.323 Y106.328 E14.41871
G1 X114.4 Y105.853 E14.43472
G1 X114.4 Y94.148 E14.82403
G1 X114.324 Y93.671 E14.84009
G1 X114.127 Y93.286 E14.85448
G1 X113.814 Y92.973 E14.8692
G1 X113.428 Y92.776 E14.88361
G1 X112.953 Y92.7 E14.89961
G1 X107.048 Y92.7 E15.09601
G1 X106.571 Y92.776 E15.11208
G1 X106.186 Y92.973 E15.12646
G1 X105.873 Y93.286 E15.14118
G1 X105.676 Y93.672 E15.1556
G1 X105.6 Y94.147 E15.1716
G1 X105.601 Y105.852 E15.56091
G1 X105.677 Y106.329 E15.57697
G1 X105.873 Y106.714 E15.59134
G1 X106.186 Y107.027 E15.60606
G1 X106.572 Y107.223 E15.62046
G1 X107.047 Y107.3 E15.63647
G1 X112.952 Y107.299 E15.83287
G1 X113.429 Y107.223 E15.84893
G0 F6000 X113.554 Y107.609
;TYPE:WALL-OUTER
G1 F1200 X114.052 Y107.355 E15.86753
G1 X114.455 Y106.952 E15.88648
G1 X114.709 Y106.454 E15.90508
G1 X114.8 Y105.885 E15.92424
G1 X114.8 Y94.116 E16.31568
G1 X114.709 Y93.546 E16.33488
G1 X114.455 Y93.048 E16.35347
G1 X114.052 Y92.645 E16.37243
G1 X113.554 Y92.391 E16.39102
G1 X112.985 Y92.3 E16.41019
G1 X107.016 Y92.3 E16.60872
G1 X106.446 Y92.391 E16.62792
G1 X105.948 Y92.645 E16.64651
G1 X105.545 Y93.048 E16.66547
G1 X105.291 Y93.546 E16.68406
G1 X105.2 Y94.115 E16.70322
G1 X105.201 Y105.884 E17.09466
G1 X105.291 Y106.454 E17.11386
G1 X105.545 Y106.952 E17.13245
G1 X105.948 Y107.355 E17.15141
G1 X106.446 Y107.609 E17.17
G1 X107.015 Y107.7 E17.18917
G1 X112.984 Y107.699 E17.38769
G1 X113.554 Y107.609 E17.40689
G1 F2700 E12.40689
G0 F6000 X113.337 Y106.937
G0 X113.783 Y106.152
G0 X113.839 Y105.808
G0 X113.839 Y101.58
G0 X113.198 Y102.398
G0 X112.697 Y102.941
G0 X112.203 Y102.447
G1 F2700 E17.40689
G1 F1200 X111.636 Y102.598 E17.4264
G1 X108.355 Y102.596 E17.53553
G1 X107.796 Y102.446 E17.55478
G1 X107.353 Y102.003 E17.57562
G1 X107.202 Y101.436 E17.59513
G1 X107.2 Y98.57 E17.69046
G1 X107.354 Y97.996 E17.71022
G1 X107.797 Y97.553 E17.73106
G1 X108.364 Y97.402 E17.75058
G1 X111.647 Y97.405 E17.85977
G1 X112.204 Y97.554 E17.87895
G1 X112.647 Y97.997 E17.89978
G1 X112.8 Y98.57 E17.91951
G1 X112.798 Y101.435 E18.0148
G1 X112.646 Y102.004 E18.03439
G1 X112.203 Y102.447 E18.05523
G0 F6000 X112.697 Y102.941
G0 X113.752 Y101.602
G0 X113.84 Y102.234
G0 X113.839 Y105.808
G0 X113.783 Y106.152
G0 X113.309 Y106.722
G0 X113.192 Y106.49
;TYPE:SKIN
G1 F1200 X112.891 Y106.538 E18.06536
G1 X107.111 Y106.539 E18.25761
G1 X106.806 Y106.489 E18.26789
G1 X106.642 Y106.406 E18.274
G1 X106.495 Y106.259 E18.28092
G1 X106.41 Y106.092 E18.28715
G1 X106.362 Y105.791 E18.29729
G1 X106.362 Y102.51 E18.40641
G1 X106.56 Y102.852 E18.41956
G1 X106.951 Y103.243 E18.43795
G1 X107.525 Y103.576 E18.46002
G1 X108.098 Y103.728 E18.47974
G1 X108.382 Y103.759 E18.48924
G1 X111.774 Y103.758 E18.60206
G1 X112.468 Y103.577 E18.62591
G1 X113.049 Y103.242 E18.64822
G1 X113.444 Y102.849 E18.66675
G1 X113.64 Y102.507 E18.67986
G1 X113.639 Y105.789 E18.78902
G1 X113.589 Y106.094 E18.7993
G1 X113.506 Y106.258 E18.80541
G1 X113.359 Y106.405 E18.81233
G1 X113.192 Y106.49 E18.81856
G0 F6000 X113.309 Y106.722
G0 X113.667 Y106.38
