;FLAVOR:Marlin
;TIME:2831
;Filament used: 2.08574m
;Layer height: 0.2
;MINX:67.961
;MINY:74
;MINZ:0.2
;MAXX:139.25
;MAXY:126.324
;MAXZ:8
;Generated with Cura_SteamEngine 5.3.0
M140 S60
M105
M190 S60
M104 S230
M105
M109 S230
M82 ;absolute extrusion mode
; Ender 3 Custom Start G-code
G92 E0 ; Reset Extruder
G28 ; Home all axes
G1 Z2.0 F3000 ; Move Z Axis up little to prevent scratching of Heat Bed
G1 X0.1 Y20 Z0.3 F5000.0 ; Move to start position
G1 X0.1 Y200.0 Z0.3 F1500.0 E15 ; Draw the first line
G1 X0.4 Y200.0 Z0.3 F5000.0 ; Move to side a little
G1 X0.4 Y20 Z0.3 F1500.0 E30 ; Draw the second line
G92 E0 ; Reset Extruder
G1 Z2.0 F3000 ; Move Z Axis up little to prevent scratching of Heat Bed
G1 X5 Y20 Z0.3 F5000.0 ; Move over to prevent blob squish
G92 E0
G92 E0
G1 F2700 E-5
;LAYER_COUNT:40
;LAYER:0
M107
G0 F3600 X71.94 Y77.944 Z0.2
;TYPE:SKIRT
G1 F2700 E0
G1 F1200 X72.621 Y77.351 E0.03003
G1 X73.352 Y76.82 E0.06008
G1 X74.127 Y76.357 E0.09011
G1 X74.94 Y75.964 E0.12014
G1 X75.785 Y75.644 E0.1502
G1 X76.655 Y75.4 E0.18025
G1 X77.542 Y75.234 E0.21026
G1 X78.684 Y75.138 E0.24838
G1 X79.291 Y75.125 E0.26857
G1 X83.722 Y75.125 E0.41595
G1 X86.328 Y75.088 E0.50264
G1 X88.884 Y74.98 E0.58772
G1 X90.497 Y74.865 E0.64151
G1 X91.166 Y74.826 E0.6638
G1 X91.793 Y74.804 E0.68466
G1 X99.043 Y74.8 E0.9258
G1 X101.058 Y74.828 E0.99283
G1 X101.684 Y74.846 E1.01366
G1 X104.25 Y74.846 E1.099
G1 X106.334 Y74.8 E1.16833
G1 X113.435 Y74.801 E1.40451
G1 X115.308 Y74.828 E1.46682
G1 X115.934 Y74.846 E1.48764
G1 X118.5 Y74.846 E1.57299
G1 X120.584 Y74.8 E1.64232
G1 X127.689 Y74.801 E1.87863
G1 X128.387 Y74.811 E1.90185
G1 X129.289 Y74.864 E1.9319
G1 X130.182 Y74.996 E1.96193
G1 X131.06 Y75.207 E1.99196
G1 X131.916 Y75.495 E2.022
G1 X132.743 Y75.857 E2.05203
G1 X133.535 Y76.292 E2.08208
G1 X134.286 Y76.794 E2.11213
G1 X134.989 Y77.361 E2.14217
G1 X135.639 Y77.988 E2.1722
G1 X136.231 Y78.67 E2.20224
G1 X136.761 Y79.401 E2.23227
G1 X137.223 Y80.177 E2.26231
G1 X137.616 Y80.99 E2.29234
G1 X137.934 Y81.835 E2.32237
G1 X138.177 Y82.705 E2.35242
G1 X138.342 Y83.593 E2.38246
G1 X138.437 Y84.716 E2.41994
G1 X138.45 Y85.322 E2.4401
G1 X138.449 Y114.39 E3.40691
G1 X138.44 Y115.117 E3.43109
G1 X138.389 Y116.019 E3.46114
G1 X138.258 Y116.913 E3.49119
G1 X138.049 Y117.791 E3.52121
G1 X137.763 Y118.648 E3.55126
G1 X137.402 Y119.476 E3.5813
G1 X136.97 Y120.268 E3.61131
G1 X136.469 Y121.02 E3.64136
G1 X135.903 Y121.724 E3.6714
G1 X135.278 Y122.375 E3.70142
G1 X134.597 Y122.969 E3.73148
G1 X133.866 Y123.5 E3.76153
G1 X133.092 Y123.964 E3.79154
G1 X132.279 Y124.358 E3.82159
G1 X131.435 Y124.678 E3.85161
G1 X130.565 Y124.923 E3.88167
G1 X129.678 Y125.089 E3.91169
G1 X128.527 Y125.187 E3.95011
G1 X127.92 Y125.2 E3.9703
G1 X122.81 Y125.199 E4.14026
G1 X121.764 Y125.183 E4.17506
G1 X119.522 Y125.119 E4.24966
G1 X116.965 Y125.119 E4.3347
G1 X115.557 Y125.149 E4.38154
G1 X113.955 Y125.196 E4.43485
G1 X108.56 Y125.199 E4.61429
G1 X107.514 Y125.183 E4.64908
G1 X105.272 Y125.119 E4.72368
G1 X102.715 Y125.119 E4.80873
G1 X101.307 Y125.149 E4.85557
G1 X99.705 Y125.196 E4.90887
G1 X94.989 Y125.2 E5.06573
G1 X92.383 Y125.237 E5.15241
G1 X89.827 Y125.345 E5.2375
G1 X88.214 Y125.46 E5.29129
G1 X87.545 Y125.499 E5.31357
G1 X86.918 Y125.521 E5.33444
G1 X81.522 Y125.524 E5.51391
G1 X80.824 Y125.514 E5.53713
G1 X79.922 Y125.461 E5.56718
G1 X79.029 Y125.329 E5.59721
G1 X78.151 Y125.118 E5.62724
G1 X77.295 Y124.83 E5.65728
G1 X76.468 Y124.468 E5.68731
G1 X75.676 Y124.033 E5.71736
G1 X74.925 Y123.531 E5.7474
G1 X74.222 Y122.964 E5.77744
G1 X73.572 Y122.337 E5.80748
G1 X72.98 Y121.655 E5.83752
G1 X72.45 Y120.924 E5.86755
G1 X71.988 Y120.148 E5.89759
G1 X71.595 Y119.335 E5.92762
G1 X71.266 Y118.457 E5.95881
G1 X70.963 Y117.519 E5.99159
G1 X70.612 Y116.382 E6.03117
G1 X69.804 Y113.993 E6.11505
G1 X69.354 Y112.72 E6.15996
G1 X69.091 Y111.856 E6.19
G1 X68.905 Y110.972 E6.22004
G1 X68.798 Y110.076 E6.25006
G1 X68.774 Y109.602 E6.26584
G1 X68.761 Y108.995 E6.28603
G1 X68.762 Y85.877 E7.05494
G1 X68.771 Y85.199 E7.07749
G1 X68.823 Y84.297 E7.10755
G1 X68.954 Y83.404 E7.13756
G1 X69.164 Y82.525 E7.16762
G1 X69.451 Y81.669 E7.19765
G1 X69.813 Y80.841 E7.22771
G1 X70.246 Y80.049 E7.25773
G1 X70.748 Y79.298 E7.28777
G1 X71.314 Y78.594 E7.31782
G1 X71.94 Y77.944 E7.34783
G0 F3600 X71.677 Y77.642
G1 F1200 X72.358 Y77.049 E7.37787
G1 X73.117 Y76.496 E7.4091
G1 X73.953 Y75.997 E7.44148
G1 X74.798 Y75.59 E7.47268
G1 X75.643 Y75.27 E7.50273
G1 X76.581 Y75.007 E7.53513
G1 X77.508 Y74.835 E7.56649
G1 X78.65 Y74.739 E7.60461
G1 X79.282 Y74.725 E7.62563
G1 X83.716 Y74.725 E7.77311
G1 X86.311 Y74.688 E7.85943
G1 X88.867 Y74.58 E7.94452
G1 X90.474 Y74.466 E7.9981
G1 X91.152 Y74.426 E8.02069
G1 X91.793 Y74.404 E8.04202
G1 X99.049 Y74.4 E8.28336
G1 X101.069 Y74.428 E8.35055
G1 X101.695 Y74.446 E8.37138
G1 X104.241 Y74.446 E8.45606
G1 X106.334 Y74.4 E8.52569
G1 X113.441 Y74.401 E8.76207
G1 X115.319 Y74.428 E8.82454
G1 X115.945 Y74.446 E8.84537
G1 X118.491 Y74.446 E8.93005
G1 X120.584 Y74.4 E8.99968
G1 X127.695 Y74.401 E9.23619
G1 X128.41 Y74.412 E9.25997
G1 X129.347 Y74.468 E9.29119
G1 X130.24 Y74.6 E9.32122
G1 X131.188 Y74.828 E9.35365
G1 X132.044 Y75.116 E9.38369
G1 X132.936 Y75.506 E9.41607
G1 X133.728 Y75.941 E9.44612
G1 X134.508 Y76.461 E9.4773
G1 X135.267 Y77.073 E9.50973
G1 X135.917 Y77.7 E9.53977
G1 X136.555 Y78.435 E9.57214
G1 X137.105 Y79.196 E9.60337
G1 X137.567 Y79.972 E9.63341
G1 X137.99 Y80.849 E9.66579
G1 X138.319 Y81.727 E9.69698
G1 X138.57 Y82.632 E9.72821
G1 X138.741 Y83.559 E9.75956
G1 X138.836 Y84.682 E9.79705
G1 X138.85 Y85.322 E9.81834
G1 X138.849 Y114.395 E10.78531
G1 X138.839 Y115.14 E10.81009
G1 X138.785 Y116.077 E10.84131
G1 X138.654 Y116.971 E10.87136
G1 X138.438 Y117.884 E10.90257
G1 X138.13 Y118.808 E10.93496
G1 X137.769 Y119.636 E10.96501
G1 X137.303 Y120.49 E10.99736
G1 X136.781 Y121.271 E11.02861
G1 X136.215 Y121.975 E11.05865
G1 X135.567 Y122.652 E11.08982
G1 X134.832 Y123.293 E11.12226
G1 X134.101 Y123.824 E11.15231
G1 X133.298 Y124.307 E11.18348
G1 X132.421 Y124.732 E11.21589
G1 X131.577 Y125.052 E11.24591
G1 X130.639 Y125.316 E11.27832
G1 X129.712 Y125.488 E11.30968
G1 X128.561 Y125.586 E11.3481
G1 X127.92 Y125.6 E11.36942
G1 X122.804 Y125.599 E11.53958
G1 X121.753 Y125.583 E11.57454
G1 X119.511 Y125.519 E11.64914
G1 X116.974 Y125.519 E11.73352
G1 X115.569 Y125.549 E11.78027
G1 X113.955 Y125.596 E11.83397
G1 X108.554 Y125.599 E12.01361
G1 X107.503 Y125.583 E12.04857
G1 X105.261 Y125.519 E12.12317
G1 X102.724 Y125.519 E12.20755
G1 X101.319 Y125.549 E12.25429
G1 X99.705 Y125.596 E12.308
G1 X94.995 Y125.6 E12.46465
G1 X92.4 Y125.637 E12.55097
G1 X89.844 Y125.745 E12.63606
G1 X88.237 Y125.859 E12.68964
G1 X87.559 Y125.899 E12.71223
G1 X86.918 Y125.921 E12.73356
G1 X81.516 Y125.924 E12.91323
G1 X80.801 Y125.913 E12.93702
G1 X79.864 Y125.857 E12.96824
G1 X78.971 Y125.725 E12.99826
G1 X78.023 Y125.497 E13.03069
G1 X77.167 Y125.209 E13.06073
G1 X76.275 Y124.819 E13.09311
G1 X75.483 Y124.384 E13.12316
G1 X74.703 Y123.864 E13.15434
G1 X73.944 Y123.252 E13.18677
G1 X73.294 Y122.625 E13.21681
G1 X72.656 Y121.89 E13.24918
G1 X72.106 Y121.129 E13.28041
G1 X71.644 Y120.353 E13.31045
G1 X71.22 Y119.475 E13.34288
G1 X70.885 Y118.58 E13.37466
G1 X70.581 Y117.637 E13.40762
G1 X70.23 Y116.5 E13.4472
G1 X69.425 Y114.121 E13.53073
G1 X68.971 Y112.836 E13.57606
G1 X68.708 Y111.972 E13.6061
G1 X68.508 Y111.019 E13.63848
G1 X68.401 Y110.123 E13.6685
G1 X68.374 Y109.611 E13.68555
G1 X68.361 Y108.995 E13.70604
G1 X68.362 Y85.872 E14.47512
G1 X68.372 Y85.176 E14.49827
G1 X68.427 Y84.239 E14.52948
G1 X68.558 Y83.346 E14.5595
G1 X68.775 Y82.432 E14.59075
G1 X69.084 Y81.509 E14.62312
G1 X69.446 Y80.681 E14.65318
G1 X69.913 Y79.827 E14.68555
G1 X70.436 Y79.047 E14.71679
G1 X71.002 Y78.343 E14.74683
G1 X71.677 Y77.642 E14.7792
G0 F3600 X71.414 Y77.34
G1 F1200 X72.095 Y76.747 E14.80923
G1 X72.881 Y76.173 E14.8416
G1 X73.779 Y75.637 E14.87639
G1 X74.656 Y75.216 E14.90874
G1 X75.501 Y74.896 E14.9388
G1 X76.473 Y74.622 E14.97239
G1 X77.474 Y74.436 E15.00625
G1 X78.616 Y74.34 E15.04437
G1 X79.273 Y74.325 E15.06622
G1 X83.71 Y74.325 E15.2138
G1 X86.294 Y74.288 E15.29975
G1 X88.85 Y74.18 E15.38484
G1 X90.45 Y74.067 E15.43819
G1 X91.138 Y74.026 E15.46111
G1 X91.793 Y74.004 E15.48291
G1 X99.055 Y74 E15.72445
G1 X101.08 Y74.028 E15.7918
G1 X101.706 Y74.046 E15.81263
G1 X104.232 Y74.046 E15.89665
G1 X106.334 Y74 E15.96658
G1 X113.447 Y74.001 E16.20316
G1 X115.33 Y74.028 E16.26579
G1 X115.956 Y74.046 E16.28662
G1 X118.482 Y74.046 E16.37064
G1 X120.584 Y74 E16.44057
G1 X127.701 Y74.001 E16.67728
G1 X128.434 Y74.013 E16.70166
G1 X129.405 Y74.072 E16.73402
G1 X130.334 Y74.211 E16.76526
G1 X131.282 Y74.439 E16.79769
G1 X132.204 Y74.749 E16.83004
G1 X133.129 Y75.155 E16.86364
G1 X133.921 Y75.59 E16.89369
G1 X134.73 Y76.128 E16.92601
G1 X135.545 Y76.785 E16.96083
G1 X136.195 Y77.412 E16.99086
G1 X136.857 Y78.173 E17.02441
G1 X137.449 Y78.991 E17.058
G1 X137.911 Y79.767 E17.08803
G1 X138.365 Y80.709 E17.12281
G1 X138.694 Y81.587 E17.154
G1 X138.963 Y82.559 E17.18754
G1 X139.14 Y83.525 E17.22021
G1 X139.235 Y84.648 E17.25769
G1 X139.25 Y85.322 E17.28012
G1 X139.249 Y114.4 E18.24725
G1 X139.238 Y115.163 E18.27263
G1 X139.181 Y116.135 E18.30502
G1 X139.05 Y117.029 E18.33507
G1 X138.827 Y117.976 E18.36743
G1 X138.497 Y118.968 E18.4022
G1 X138.136 Y119.796 E18.43224
G1 X137.636 Y120.712 E18.46695
G1 X137.093 Y121.522 E18.49939
G1 X136.527 Y122.226 E18.52943
G1 X135.856 Y122.929 E18.56175
G1 X135.067 Y123.617 E18.59657
G1 X134.336 Y124.148 E18.62662
G1 X133.504 Y124.65 E18.65894
G1 X132.563 Y125.106 E18.69372
G1 X131.719 Y125.426 E18.72374
G1 X130.747 Y125.701 E18.75734
G1 X129.746 Y125.887 E18.7912
G1 X128.595 Y125.985 E18.82963
G1 X127.92 Y126 E18.85208
G1 X122.798 Y125.999 E19.02244
G1 X121.742 Y125.983 E19.05757
G1 X119.5 Y125.919 E19.13217
G1 X116.983 Y125.919 E19.21588
G1 X115.581 Y125.949 E19.26252
G1 X113.955 Y125.996 E19.31663
G1 X108.548 Y125.999 E19.49646
G1 X107.492 Y125.983 E19.53159
G1 X105.25 Y125.919 E19.60619
G1 X102.733 Y125.919 E19.68991
G1 X101.331 Y125.949 E19.73655
G1 X99.705 Y125.996 E19.79065
G1 X95.001 Y126 E19.94711
G1 X92.417 Y126.037 E20.03306
G1 X89.861 Y126.145 E20.11815
G1 X88.261 Y126.258 E20.1715
G1 X87.573 Y126.299 E20.19442
G1 X86.918 Y126.321 E20.21622
G1 X81.51 Y126.324 E20.39609
G1 X80.777 Y126.312 E20.42047
G1 X79.806 Y126.253 E20.45283
G1 X78.877 Y126.114 E20.48407
G1 X77.929 Y125.886 E20.5165
G1 X77.007 Y125.576 E20.54885
G1 X76.082 Y125.17 E20.58245
G1 X75.29 Y124.735 E20.61251
G1 X74.481 Y124.197 E20.64482
G1 X73.666 Y123.54 E20.67964
G1 X73.016 Y122.913 E20.70968
G1 X72.354 Y122.152 E20.74322
G1 X71.762 Y121.334 E20.77681
G1 X71.3 Y120.558 E20.80685
G1 X70.845 Y119.615 E20.84167
G1 X70.504 Y118.703 E20.87405
G1 X70.199 Y117.755 E20.90718
G1 X69.848 Y116.618 E20.94675
G1 X69.046 Y114.249 E21.02994
G1 X68.588 Y112.952 E21.07569
G1 X68.325 Y112.088 E21.10573
G1 X68.111 Y111.066 E21.14046
G1 X68.004 Y110.17 E21.17047
G1 X67.974 Y109.619 E21.18882
G1 X67.961 Y108.995 E21.20958
G1 X67.962 Y85.866 E21.97886
G1 X67.973 Y85.153 E22.00257
G1 X68.031 Y84.181 E22.03496
G1 X68.162 Y83.288 E22.06498
G1 X68.396 Y82.305 E22.09859
G1 X68.717 Y81.349 E22.13213
G1 X69.079 Y80.521 E22.16218
G1 X69.562 Y79.635 E22.19575
G1 X70.124 Y78.796 E22.22933
G1 X70.69 Y78.092 E22.25938
G1 X71.414 Y77.34 E22.2941
G1 F2700 E17.2941
;MESH:??????4.stl(7)
G0 F3600 X79.375 Y84.66
G0 X79.375 Y85.739
G0 X80.133 Y108.153
G0 X82.122 Y109.327
G0 X82.133 Y114.153
G0 X85.961 Y114.325
;TYPE:WALL-INNER
G1 F2700 E22.2941
G1 F1200 X85.961 Y86.325 E23.22538
G1 X79.961 Y86.325 E23.42494
G1 X79.961 Y108.325 E24.15667
G1 X80.961 Y108.325 E24.18993
G1 X81.263 Y108.371 E24.20009
G1 X81.646 Y108.595 E24.21484
G1 X81.808 Y108.791 E24.2233
G1 X81.921 Y109.042 E24.23246
G1 X81.961 Y109.325 E24.24196
G1 X81.961 Y114.325 E24.40826
G1 X85.961 Y114.325 E24.5413
G0 F3600 X86.361 Y114.725
G1 F1200 X86.361 Y85.925 E25.4992
G1 X79.561 Y85.925 E25.72536
G1 X79.561 Y108.725 E26.4837
G1 X81.097 Y108.725 E26.53478
G1 X81.372 Y108.887 E26.5454
G1 X81.561 Y109.194 E26.55739
G1 X81.561 Y114.725 E26.74135
G1 X86.361 Y114.725 E26.901
G0 F3600 X86.761 Y115.125
;TYPE:WALL-OUTER
G1 F1200 X86.761 Y85.525 E27.8855
G1 X79.161 Y85.525 E28.13828
G1 X79.161 Y109.125 E28.92322
G1 X81.007 Y109.125 E28.98461
G1 X81.098 Y109.179 E28.98813
G1 X81.161 Y109.281 E28.99212
G1 X81.161 Y115.125 E29.18649
G1 X86.761 Y115.125 E29.37275
G0 F3600 X86.491 Y114.855
G0 X85.861 Y113.965
G0 X85.601 Y113.965
;TYPE:SKIN
G1 F1200 X82.321 Y113.965 E29.48184
G1 X82.32 Y109.304 E29.63687
G1 X82.266 Y108.934 E29.64931
G1 X82.115 Y108.598 E29.66156
G1 X81.913 Y108.353 E29.67212
G1 X81.66 Y108.159 E29.68272
G1 X81.374 Y108.025 E29.69323
G1 X80.987 Y107.967 E29.70624
G1 X80.321 Y107.965 E29.72839
G1 X80.321 Y86.685 E30.43617
G1 X85.601 Y86.685 E30.61178
G1 X85.601 Y113.965 E31.51912
G0 F3600 X85.861 Y113.965
G0 X82.651 Y114.225
G0 X82.651 Y113.764
G1 F1200 X82.52 Y113.633 E31.52528
G0 F3600 X82.52 Y113.067
G1 F1200 X83.217 Y113.764 E31.55807
G0 F3600 X83.782 Y113.764
G1 F1200 X82.52 Y112.501 E31.61745
G0 F3600 X82.519 Y111.935
G1 F1200 X84.348 Y113.764 E31.70348
G0 F3600 X84.914 Y113.764
G1 F1200 X82.519 Y111.369 E31.81613
G0 F3600 X82.518 Y110.802
G1 F1200 X85.4 Y113.685 E31.95172
G0 F3600 X85.4 Y113.119
G1 F1200 X82.518 Y110.237 E32.08728
G0 F3600 X82.517 Y109.67
G1 F1200 X85.4 Y112.553 E32.22289
G0 F3600 X85.4 Y111.988
G1 F1200 X82.488 Y109.075 E32.35988
G0 F3600 X82.033 Y109.138
G0 X81.789 Y108.497
G0 X81.141 Y108.252
G0 X81.21 Y107.797
G1 F1200 X80.52 Y107.107 E32.39234
G0 F3600 X80.52 Y107.673
G1 F1200 X80.612 Y107.765 E32.39666
G0 F3600 X80.612 Y108.225
G0 X80.133 Y108.153
G0 X80.061 Y106.541
G0 X80.52 Y106.541
G1 F1200 X85.4 Y111.422 E32.62623
G0 F3600 X85.4 Y110.856
G1 F1200 X80.52 Y105.976 E32.85577
G0 F3600 X80.52 Y105.41
G1 F1200 X85.4 Y110.29 E33.08531
G0 F3600 X85.4 Y109.725
G1 F1200 X80.52 Y104.844 E33.31487
G0 F3600 X80.52 Y104.279
G1 F1200 X85.4 Y109.159 E33.54441
G0 F3600 X85.4 Y108.593
G1 F1200 X80.52 Y103.713 E33.77395
G0 F3600 X80.52 Y103.147
G1 F1200 X85.4 Y108.028 E34.00352
G0 F3600 X85.4 Y107.462
G1 F1200 X80.52 Y102.582 E34.23306
G0 F3600 X80.52 Y102.016
G1 F1200 X85.4 Y106.896 E34.4626
G0 F3600 X85.4 Y106.331
G1 F1200 X80.52 Y101.45 E34.69216
G0 F3600 X80.52 Y100.885
G1 F1200 X85.4 Y105.765 E34.9217
G0 F3600 X85.4 Y105.199
G1 F1200 X80.52 Y100.319 E35.15124
G0 F3600 X80.52 Y99.753
G1 F1200 X85.4 Y104.634 E35.38081
G0 F3600 X85.4 Y104.068
G1 F1200 X80.52 Y99.187 E35.61037
G0 F3600 X80.52 Y98.622
G1 F1200 X85.4 Y103.502 E35.83991
G0 F3600 X85.4 Y102.937
G1 F1200 X80.52 Y98.056 E36.06947
G0 F3600 X80.52 Y97.49
G1 F1200 X85.4 Y102.371 E36.29904
G0 F3600 X85.4 Y101.805
G1 F1200 X80.52 Y96.925 E36.52858
G0 F3600 X80.52 Y96.359
G1 F1200 X85.4 Y101.24 E36.75814
G0 F3600 X85.4 Y100.674
G1 F1200 X80.52 Y95.793 E36.9877
G0 F3600 X80.52 Y95.228
G1 F1200 X85.4 Y100.108 E37.21724
G0 F3600 X85.4 Y99.542
G1 F1200 X80.52 Y94.662 E37.44679
G0 F3600 X80.52 Y94.096
G1 F1200 X85.4 Y98.977 E37.67635
G0 F3600 X85.4 Y98.411
G1 F1200 X80.52 Y93.531 E37.90589
G0 F3600 X80.52 Y92.965
G1 F1200 X85.4 Y97.845 E38.13543
G0 F3600 X85.4 Y97.28
G1 F1200 X80.52 Y92.399 E38.36499
G0 F3600 X80.52 Y91.834
G1 F1200 X85.4 Y96.714 E38.59453
G0 F3600 X85.4 Y96.148
G1 F1200 X80.52 Y91.268 E38.82407
G0 F3600 X80.52 Y90.702
G1 F1200 X85.4 Y95.583 E39.05364
G0 F3600 X85.4 Y95.017
G1 F1200 X80.52 Y90.137 E39.28318
G0 F3600 X80.52 Y89.571
G1 F1200 X85.4 Y94.451 E39.51272
G0 F3600 X85.4 Y93.886
G1 F1200 X80.52 Y89.005 E39.74228
G0 F3600 X80.52 Y88.439
G1 F1200 X85.4 Y93.32 E39.97185
G0 F3600 X85.4 Y92.754
G1 F1200 X80.52 Y87.874 E40.20139
G0 F3600 X80.52 Y87.308
G1 F1200 X85.4 Y92.189 E40.43095
G0 F3600 X85.4 Y91.623
G1 F1200 X80.661 Y86.884 E40.65386
G0 F3600 X81.227 Y86.884
G1 F1200 X85.4 Y91.057 E40.85014
G0 F3600 X85.4 Y90.491
G1 F1200 X81.793 Y86.884 E41.0198
G0 F3600 X82.358 Y86.884
G1 F1200 X85.4 Y89.926 E41.16289
G0 F3600 X85.4 Y89.36
G1 F1200 X82.924 Y86.884 E41.27935
