;FLAVOR:Marlin
;TIME:2892
;Filament used: 1.4551m
;Layer height: 0.2
;MINX:78
;MINY:87.012
;MINZ:0.2
;MAXX:142
;MAXY:112.988
;MAXZ:26.4
;Generated with Cura_SteamEngine 5.3.0
M140 S60
M105
M190 S60
M104 S220
M105
M109 S220
M82 ;absolute extrusion mode
; Ender 3 Custom Start G-code
G92 E0 ; Reset Extruder
G28 ; Home all axes
G1 Z2.0 F3000 ; Move Z Axis up little to prevent scratching of Heat Bed
G1 X0.1 Y20 Z0.3 F5000.0 ; Move to start position
G1 X0.1 Y200.0 Z0.3 F1500.0 E15 ; Draw the first line
G1 X0.4 Y200.0 Z0.3 F5000.0 ; Move to side a little
G1 X0.4 Y20 Z0.3 F1500.0 E30 ; Draw the second line
G92 E0 ; Reset Extruder
G1 Z2.0 F3000 ; Move Z Axis up little to prevent scratching of Heat Bed
G1 X5 Y20 Z0.3 F5000.0 ; Move over to prevent blob squish
G92 E0
G92 E0
G1 F2700 E-5
;LAYER_COUNT:132
;LAYER:0
M107
G0 F6000 X81.979 Y91.055 Z0.2
;TYPE:SKIRT
G1 F2700 E0
G1 F1200 X82.66 Y90.463 E0.03001
G1 X83.391 Y89.932 E0.06006
G1 X84.167 Y89.469 E0.09012
G1 X84.98 Y89.076 E0.12015
G1 X85.824 Y88.756 E0.15017
G1 X86.694 Y88.512 E0.18023
G1 X87.582 Y88.346 E0.21027
G1 X88.727 Y88.25 E0.24849
G1 X89.329 Y88.237 E0.26852
G1 X91.467 Y88.237 E0.33963
G1 X92.131 Y88.246 E0.36171
G1 X93.033 Y88.298 E0.39176
G1 X93.693 Y88.388 E0.41392
G1 X96.107 Y88.796 E0.49535
G1 X98.655 Y89.157 E0.58094
G1 X101.152 Y89.44 E0.66452
G1 X103.705 Y89.655 E0.74974
G1 X106.239 Y89.797 E0.83415
G1 X106.492 Y89.804 E0.84257
G1 X107.392 Y89.868 E0.87258
G1 X108.284 Y90.011 E0.90262
G1 X109.159 Y90.233 E0.93265
G1 X109.997 Y90.526 E0.96218
G1 X110.983 Y90.196 E0.99676
G1 X111.861 Y89.985 E1.02679
G1 X112.754 Y89.853 E1.05682
G1 X113.486 Y89.805 E1.08121
G1 X113.842 Y89.794 E1.09306
G1 X116.373 Y89.649 E1.17738
G1 X118.922 Y89.431 E1.26247
G1 X121.436 Y89.144 E1.34663
G1 X123.963 Y88.782 E1.43154
G1 X126.325 Y88.386 E1.51119
G1 X127.221 Y88.277 E1.54121
G1 X127.727 Y88.25 E1.55807
G1 X128.329 Y88.237 E1.57809
G1 X130.324 Y88.236 E1.64445
G1 X131.129 Y88.246 E1.67122
G1 X132.03 Y88.298 E1.70124
G1 X132.924 Y88.43 E1.7313
G1 X133.802 Y88.64 E1.76132
G1 X134.658 Y88.927 E1.79135
G1 X135.486 Y89.289 E1.82141
G1 X136.278 Y89.723 E1.85145
G1 X137.029 Y90.225 E1.88149
G1 X137.732 Y90.791 E1.91151
G1 X138.383 Y91.418 E1.94157
G1 X138.976 Y92.099 E1.97161
G1 X139.506 Y92.83 E2.00164
G1 X139.969 Y93.605 E2.03166
G1 X140.362 Y94.419 E2.06173
G1 X140.681 Y95.263 E2.09174
G1 X140.925 Y96.133 E2.12179
G1 X141.09 Y97.021 E2.15183
G1 X141.185 Y98.129 E2.18882
G1 X141.2 Y98.768 E2.21008
G1 X141.199 Y100.953 E2.28275
G1 X141.19 Y101.68 E2.30693
G1 X141.139 Y102.582 E2.33698
G1 X141.008 Y103.476 E2.36703
G1 X140.799 Y104.354 E2.39705
G1 X140.513 Y105.211 E2.4271
G1 X140.152 Y106.039 E2.45714
G1 X139.72 Y106.831 E2.48715
G1 X139.219 Y107.583 E2.5172
G1 X138.653 Y108.287 E2.54725
G1 X138.028 Y108.938 E2.57726
G1 X137.347 Y109.532 E2.60732
G1 X136.616 Y110.063 E2.63737
G1 X135.842 Y110.527 E2.66739
G1 X135.029 Y110.921 E2.69743
G1 X134.185 Y111.241 E2.72746
G1 X133.315 Y111.486 E2.75752
G1 X132.428 Y111.652 E2.78753
G1 X131.287 Y111.75 E2.82562
G1 X130.686 Y111.763 E2.84561
G1 X128.532 Y111.763 E2.91726
G1 X127.87 Y111.754 E2.93928
G1 X126.969 Y111.702 E2.96929
G1 X126.31 Y111.612 E2.99142
G1 X123.9 Y111.205 E3.07271
G1 X121.345 Y110.843 E3.15854
G1 X118.848 Y110.56 E3.24212
G1 X116.295 Y110.345 E3.32733
G1 X113.766 Y110.203 E3.41158
G1 X113.513 Y110.196 E3.42
G1 X112.612 Y110.131 E3.45004
G1 X111.721 Y109.986 E3.48007
G1 X110.846 Y109.764 E3.51009
G1 X110.018 Y109.472 E3.53929
G1 X109.042 Y109.801 E3.57355
G1 X108.164 Y110.013 E3.60359
G1 X107.271 Y110.145 E3.63362
G1 X106.52 Y110.196 E3.65865
G1 X106.127 Y110.208 E3.67173
G1 X103.627 Y110.351 E3.75502
G1 X101.078 Y110.569 E3.84011
G1 X98.564 Y110.856 E3.92426
G1 X96.037 Y111.218 E4.00917
G1 X93.675 Y111.614 E4.08883
G1 X92.779 Y111.723 E4.11885
G1 X92.287 Y111.75 E4.13524
G1 X91.686 Y111.763 E4.15523
G1 X89.532 Y111.763 E4.22687
G1 X88.871 Y111.754 E4.24886
G1 X87.97 Y111.702 E4.27888
G1 X87.076 Y111.57 E4.30893
G1 X86.198 Y111.36 E4.33896
G1 X85.342 Y111.073 E4.36899
G1 X84.514 Y110.711 E4.39905
G1 X83.722 Y110.277 E4.42908
G1 X82.971 Y109.775 E4.45913
G1 X82.268 Y109.209 E4.48915
G1 X81.617 Y108.582 E4.51921
G1 X81.024 Y107.901 E4.54924
G1 X80.494 Y107.17 E4.57927
G1 X80.031 Y106.395 E4.6093
G1 X79.638 Y105.581 E4.63936
G1 X79.319 Y104.737 E4.66937
G1 X79.075 Y103.867 E4.69943
G1 X78.91 Y102.979 E4.72947
G1 X78.814 Y101.854 E4.76702
G1 X78.8 Y101.214 E4.78831
G1 X78.801 Y98.987 E4.86238
G1 X78.81 Y98.31 E4.8849
G1 X78.862 Y97.409 E4.91492
G1 X78.993 Y96.515 E4.94497
G1 X79.203 Y95.637 E4.975
G1 X79.49 Y94.781 E5.00503
G1 X79.852 Y93.953 E5.03508
G1 X80.285 Y93.161 E5.0651
G1 X80.787 Y92.41 E5.09515
G1 X81.353 Y91.706 E5.12519
G1 X81.979 Y91.055 E5.15523
G0 F6000 X81.717 Y90.753
G1 F1200 X82.425 Y90.139 E5.1864
G1 X83.186 Y89.588 E5.21765
G1 X83.962 Y89.125 E5.24771
G1 X84.838 Y88.702 E5.28006
G1 X85.682 Y88.382 E5.31008
G1 X86.62 Y88.119 E5.34248
G1 X87.549 Y87.947 E5.37391
G1 X88.718 Y87.85 E5.41292
G1 X89.32 Y87.837 E5.43295
G1 X91.472 Y87.837 E5.50452
G1 X92.154 Y87.847 E5.52721
G1 X93.087 Y87.902 E5.5583
G1 X93.76 Y87.994 E5.58089
G1 X96.163 Y88.4 E5.66194
G1 X98.711 Y88.761 E5.74754
G1 X101.186 Y89.041 E5.83038
G1 X103.739 Y89.257 E5.9156
G1 X106.25 Y89.397 E5.99924
G1 X106.52 Y89.405 E6.00823
G1 X107.455 Y89.473 E6.03941
G1 X108.382 Y89.623 E6.07064
G1 X109.291 Y89.855 E6.10184
G1 X110.001 Y90.103 E6.12686
G1 X110.89 Y89.807 E6.15802
G1 X111.803 Y89.589 E6.18924
G1 X112.696 Y89.457 E6.21927
G1 X113.474 Y89.405 E6.2452
G1 X113.83 Y89.394 E6.25705
G1 X116.339 Y89.25 E6.34063
G1 X118.888 Y89.033 E6.42572
G1 X121.379 Y88.748 E6.50911
G1 X123.906 Y88.386 E6.59402
G1 X126.277 Y87.989 E6.67398
G1 X127.173 Y87.88 E6.704
G1 X127.718 Y87.85 E6.72215
G1 X128.329 Y87.837 E6.74248
G1 X130.329 Y87.836 E6.809
G1 X131.152 Y87.847 E6.83637
G1 X132.088 Y87.902 E6.86756
G1 X132.982 Y88.034 E6.89762
G1 X133.895 Y88.251 E6.92883
G1 X134.818 Y88.56 E6.9612
G1 X135.646 Y88.922 E6.99126
G1 X136.5 Y89.39 E7.02365
G1 X137.28 Y89.913 E7.05488
G1 X137.983 Y90.479 E7.0849
G1 X138.685 Y91.155 E7.11732
G1 X139.278 Y91.836 E7.14735
G1 X139.83 Y92.595 E7.17856
G1 X140.329 Y93.431 E7.21095
G1 X140.722 Y94.245 E7.24101
G1 X141.066 Y95.155 E7.27337
G1 X141.318 Y96.06 E7.30461
G1 X141.489 Y96.987 E7.33597
G1 X141.584 Y98.095 E7.37295
G1 X141.6 Y98.768 E7.39534
G1 X141.599 Y100.958 E7.46818
G1 X141.589 Y101.703 E7.49296
G1 X141.535 Y102.64 E7.52418
G1 X141.404 Y103.534 E7.55423
G1 X141.188 Y104.447 E7.58544
G1 X140.88 Y105.371 E7.61783
G1 X140.519 Y106.199 E7.64787
G1 X140.053 Y107.053 E7.68023
G1 X139.531 Y107.834 E7.71148
G1 X138.965 Y108.538 E7.74152
G1 X138.317 Y109.215 E7.77269
G1 X137.582 Y109.856 E7.80513
G1 X136.851 Y110.387 E7.83518
G1 X136.048 Y110.87 E7.86634
G1 X135.171 Y111.295 E7.89876
G1 X134.327 Y111.615 E7.92878
G1 X133.389 Y111.879 E7.96119
G1 X132.462 Y112.051 E7.99255
G1 X131.321 Y112.149 E8.03064
G1 X130.695 Y112.163 E8.05146
G1 X128.527 Y112.163 E8.12357
G1 X127.847 Y112.153 E8.14619
G1 X126.915 Y112.098 E8.17724
G1 X126.243 Y112.006 E8.1998
G1 X123.844 Y111.601 E8.28072
G1 X121.289 Y111.239 E8.36655
G1 X118.814 Y110.959 E8.4494
G1 X116.261 Y110.743 E8.53461
G1 X113.755 Y110.603 E8.61809
G1 X113.484 Y110.595 E8.62711
G1 X112.548 Y110.526 E8.65833
G1 X111.623 Y110.374 E8.6895
G1 X110.748 Y110.152 E8.71953
G1 X110.015 Y109.895 E8.74536
G1 X109.136 Y110.19 E8.7762
G1 X108.222 Y110.409 E8.80746
G1 X107.329 Y110.541 E8.83749
G1 X106.532 Y110.596 E8.86406
G1 X106.139 Y110.608 E8.87713
G1 X103.661 Y110.749 E8.95969
G1 X101.112 Y110.967 E9.04478
G1 X98.621 Y111.252 E9.12817
G1 X96.094 Y111.614 E9.21307
G1 X93.723 Y112.011 E9.29303
G1 X92.827 Y112.12 E9.32305
G1 X92.296 Y112.15 E9.34074
G1 X91.695 Y112.163 E9.36074
G1 X89.527 Y112.163 E9.43284
G1 X88.848 Y112.153 E9.45543
G1 X87.912 Y112.098 E9.48661
G1 X87.018 Y111.966 E9.51667
G1 X86.105 Y111.749 E9.54788
G1 X85.182 Y111.44 E9.58026
G1 X84.354 Y111.078 E9.61031
G1 X83.5 Y110.61 E9.6427
G1 X82.72 Y110.087 E9.67394
G1 X82.017 Y109.521 E9.70396
G1 X81.315 Y108.845 E9.73637
G1 X80.722 Y108.164 E9.76641
G1 X80.17 Y107.405 E9.79762
G1 X79.671 Y106.569 E9.83
G1 X79.278 Y105.755 E9.86007
G1 X78.934 Y104.845 E9.89242
G1 X78.682 Y103.94 E9.92367
G1 X78.511 Y103.013 E9.95502
G1 X78.415 Y101.888 E9.99257
G1 X78.4 Y101.214 E10.015
G1 X78.401 Y98.982 E10.08923
G1 X78.411 Y98.287 E10.11235
G1 X78.466 Y97.351 E10.14354
G1 X78.597 Y96.457 E10.17359
G1 X78.814 Y95.544 E10.2048
G1 X79.123 Y94.621 E10.23718
G1 X79.485 Y93.793 E10.26723
G1 X79.952 Y92.939 E10.29961
G1 X80.475 Y92.159 E10.33084
G1 X81.041 Y91.455 E10.36088
G1 X81.717 Y90.753 E10.3933
G0 F6000 X81.455 Y90.451
G1 F1200 X82.19 Y89.815 E10.42563
G1 X82.981 Y89.244 E10.45807
G1 X83.757 Y88.781 E10.48813
G1 X84.696 Y88.328 E10.5228
G1 X85.54 Y88.008 E10.55283
G1 X86.512 Y87.734 E10.58641
G1 X87.516 Y87.548 E10.62038
G1 X88.709 Y87.45 E10.66019
G1 X89.311 Y87.437 E10.68022
G1 X91.478 Y87.437 E10.75229
G1 X92.178 Y87.448 E10.77558
G1 X93.141 Y87.506 E10.80766
G1 X93.827 Y87.6 E10.83069
G1 X96.219 Y88.004 E10.91138
G1 X98.767 Y88.365 E10.99697
G1 X101.22 Y88.642 E11.07908
G1 X103.773 Y88.859 E11.1643
G1 X106.262 Y88.997 E11.24721
G1 X106.549 Y89.006 E11.25676
G1 X107.519 Y89.078 E11.28911
G1 X108.481 Y89.235 E11.32153
G1 X109.39 Y89.467 E11.35273
G1 X110.004 Y89.68 E11.37435
G1 X110.764 Y89.427 E11.40099
G1 X111.745 Y89.193 E11.43453
G1 X112.638 Y89.061 E11.46456
G1 X113.462 Y89.005 E11.49203
G1 X113.818 Y88.994 E11.50387
G1 X116.305 Y88.851 E11.58673
G1 X118.854 Y88.635 E11.67181
G1 X121.322 Y88.352 E11.75443
G1 X123.84 Y87.991 E11.83904
G1 X126.229 Y87.592 E11.9196
G1 X127.125 Y87.483 E11.94962
G1 X127.709 Y87.45 E11.96907
G1 X128.329 Y87.437 E11.9897
G1 X130.334 Y87.436 E12.05639
G1 X131.175 Y87.448 E12.08436
G1 X132.146 Y87.506 E12.11672
G1 X133.04 Y87.638 E12.14677
G1 X134.022 Y87.872 E12.18035
G1 X134.978 Y88.193 E12.21389
G1 X135.806 Y88.555 E12.24395
G1 X136.692 Y89.039 E12.27752
G1 X137.531 Y89.601 E12.31111
G1 X138.234 Y90.167 E12.34113
G1 X138.987 Y90.892 E12.3759
G1 X139.58 Y91.573 E12.40593
G1 X140.173 Y92.39 E12.43951
G1 X140.689 Y93.257 E12.47306
G1 X141.082 Y94.071 E12.50313
G1 X141.451 Y95.048 E12.53786
G1 X141.711 Y95.987 E12.57027
G1 X141.888 Y96.953 E12.60293
G1 X141.983 Y98.061 E12.63992
G1 X142 Y98.768 E12.66344
G1 X141.999 Y100.963 E12.73645
G1 X141.988 Y101.726 E12.76183
G1 X141.931 Y102.698 E12.79421
G1 X141.8 Y103.592 E12.82427
G1 X141.577 Y104.539 E12.85663
G1 X141.247 Y105.531 E12.8914
G1 X140.886 Y106.359 E12.92144
G1 X140.386 Y107.275 E12.95615
G1 X139.843 Y108.085 E12.98858
G1 X139.277 Y108.789 E13.01863
G1 X138.606 Y109.492 E13.05095
G1 X137.817 Y110.18 E13.08577
G1 X137.086 Y110.711 E13.11582
G1 X136.254 Y111.213 E13.14814
G1 X135.313 Y111.669 E13.18292
G1 X134.469 Y111.989 E13.21294
G1 X133.497 Y112.264 E13.24654
G1 X132.496 Y112.45 E13.2804
G1 X131.355 Y112.548 E13.31849
G1 X130.704 Y112.563 E13.34015
G1 X128.521 Y112.563 E13.41276
G1 X127.823 Y112.552 E13.43597
G1 X126.861 Y112.494 E13.46803
G1 X126.176 Y112.4 E13.49102
G1 X123.788 Y111.997 E13.57157
G1 X121.233 Y111.635 E13.6574
G1 X118.78 Y111.358 E13.73951
G1 X116.227 Y111.141 E13.82473
G1 X113.743 Y111.003 E13.90747
G1 X113.455 Y110.994 E13.91706
G1 X112.483 Y110.921 E13.94948
G1 X111.558 Y110.769 E13.98065
G1 X110.65 Y110.54 E14.0118
G1 X110.013 Y110.317 E14.03425
G1 X109.229 Y110.579 E14.06174
G1 X108.28 Y110.805 E14.09419
G1 X107.387 Y110.937 E14.12421
G1 X106.544 Y110.996 E14.15232
G1 X106.151 Y111.008 E14.1654
G1 X103.695 Y111.147 E14.24721
G1 X101.146 Y111.365 E14.3323
G1 X98.678 Y111.648 E14.41493
G1 X96.16 Y112.009 E14.49953
G1 X93.771 Y112.408 E14.58009
G1 X92.875 Y112.517 E14.61011
G1 X92.305 Y112.55 E14.6291
G1 X91.704 Y112.563 E14.6491
G1 X89.521 Y112.563 E14.7217
G1 X88.825 Y112.552 E14.74485
G1 X87.854 Y112.494 E14.77721
G1 X86.96 Y112.362 E14.80726
G1 X85.978 Y112.128 E14.84084
G1 X85.022 Y111.807 E14.87438
G1 X84.194 Y111.445 E14.90444
G1 X83.308 Y110.961 E14.93802
G1 X82.469 Y110.399 E14.9716
G1 X81.766 Y109.833 E15.00162
G1 X81.013 Y109.108 E15.03639
G1 X80.42 Y108.427 E15.06642
G1 X79.827 Y107.61 E15.1
G1 X79.311 Y106.743 E15.13356
G1 X78.918 Y105.929 E15.16362
G1 X78.549 Y104.952 E15.19836
G1 X78.289 Y104.013 E15.23076
G1 X78.112 Y103.047 E15.26343
G1 X78.016 Y101.922 E15.30098
G1 X78 Y101.214 E15.32454
G1 X78.001 Y98.976 E15.39897
G1 X78.012 Y98.264 E15.42266
G1 X78.07 Y97.293 E15.45501
G1 X78.201 Y96.399 E15.48506
G1 X78.435 Y95.417 E15.51864
G1 X78.756 Y94.461 E15.55218
G1 X79.118 Y93.633 E15.58223
G1 X79.601 Y92.747 E15.6158
G1 X80.163 Y91.908 E15.64938
G1 X80.729 Y91.204 E15.67943
G1 X81.455 Y90.451 E15.71422
G1 F2700 E10.71422
;MESH:??????????????????1.stl
G0 F6000 X89.413 Y97.772
G0 X91.4 Y100.963
;TYPE:WALL-INNER
G1 F2700 E15.71422
G1 F1200 X91.4 Y99.037 E15.77828
G1 X89.6 Y99.037 E15.83815
G1 X89.6 Y100.963 E15.9022
G1 X91.4 Y100.963 E15.96207
G0 F6000 X91.8 Y101.363
;TYPE:WALL-OUTER
G1 F1200 X91.8 Y98.637 E16.05274
G1 X89.2 Y98.637 E16.13922
G1 X89.2 Y101.363 E16.22988
G1 X91.8 Y101.363 E16.31636
G0 F6000 X91.53 Y101.093
G0 X91.04 Y100.863
G0 X91.04 Y100.603
;TYPE:SKIN
G1 F1200 X89.96 Y100.603 E16.35228
G1 X89.96 Y99.397 E16.39239
G1 X91.04 Y99.397 E16.42831
G1 X91.04 Y100.603 E16.46842
G0 F6000 X90.219 Y100.402
G1 F1200 X90.16 Y100.342 E16.47122
G0 F6000 X90.16 Y99.777
G1 F1200 X90.785 Y100.402 E16.50062
G0 F6000 X90.839 Y99.89
G1 F1200 X90.545 Y99.596 E16.51445
G1 F2700 E11.51445
G0 F6000 X90.545 Y99.137
G0 X91.228 Y99.209
G0 X91.58 Y100.863
G0 X92.665 Y100.863
G0 X127.335 Y100.863
G0 X128.6 Y100.963
;TYPE:WALL-INNER
G1 F2700 E16.51445
G1 F1200 X130.4 Y100.963 E16.57432
G1 X130.4 Y99.037 E16.63838
G1 X128.6 Y99.037 E16.69825
G1 X128.6 Y100.963 E16.76231
G0 F6000 X128.2 Y101.363
;TYPE:WALL-OUTER
G1 F1200 X130.8 Y101.363 E16.84878
G1 X130.8 Y98.637 E16.93945
G1 X128.2 Y98.637 E17.02592
G1 X128.2 Y101.363 E17.11659
G0 F6000 X128.47 Y101.094
G0 X128.96 Y100.863
G0 X128.96 Y100.603
;TYPE:SKIN
G1 F1200 X128.96 Y99.397 E17.1567
G1 X130.04 Y99.397 E17.19262
G1 X130.04 Y100.603 E17.23274
G1 X128.96 Y100.603 E17.26866
G0 F6000 X129.252 Y100.402
G1 F1200 X129.159 Y100.309 E17.27303
G0 F6000 X129.159 Y99.743
G1 F1200 X129.818 Y100.402 E17.30403
G0 F6000 X129.839 Y99.858
G1 F1200 X129.578 Y99.596 E17.31633
G1 F2700 E12.31633
;MESH:NOMESH
G0 F300 X129.578 Y99.596 Z0.4
G0 F6000 X129.578 Y99.137
G0 X128.772 Y99.209
G0 X128.414 Y101.15
G0 X127.335 Y101.15
G0 X91.401 Y102.228
G0 X91.4 Y102.071
;TIME_ELAPSED:34.483617
;LAYER:1
M106 S85
;TYPE:WALL-INNER
;MESH:??????????????????1.stl
G1 F2700 E17.31633
G1 F600 X91.4 Y97.929 E17.45409
G1 X89.6 Y97.929 E17.51396
G1 X89.6 Y102.071 E17.65172
G1 X91.4 Y102.071 E17.71159
G0 F7500 X91.8 Y102.471
;TYPE:WALL-OUTER
G1 F600 X91.8 Y97.529 E17.87596
G1 X89.2 Y97.529 E17.96244
G1 X89.2 Y102.471 E18.12681
G1 X91.8 Y102.471 E18.21329
G0 F7500 X91.53 Y102.201
G0 X91.04 Y101.971
G0 X91.04 Y101.711
;TYPE:SKIN
G1 F600 X89.96 Y101.711 E18.24921
G1 X89.96 Y98.289 E18.36303
G1 X91.04 Y98.289 E18.39895
G1 X91.04 Y101.711 E18.51276
G0 F7500 X90.257 Y101.51
G1 F600 X90.839 Y100.927 E18.54016
G0 F7500 X90.839 Y100.361
G1 F600 X90.159 Y101.042 E18.57217
G0 F7500 X90.159 Y100.476
G1 F600 X90.839 Y99.796 E18.60416
G0 F7500 X90.839 Y99.23
G1 F600 X90.159 Y99.91 E18.63614
G0 F7500 X90.159 Y99.344
G1 F600 X90.839 Y98.664 E18.66813
G0 F7500 X90.45 Y98.487
G1 F600 X90.159 Y98.779 E18.68184
G1 F2700 E13.68184
G0 F7500 X90.159 Y98.029
G0 X91.228 Y98.101
G0 X91.58 Y101.971
G0 X92.665 Y101.971
G0 X127.335 Y101.971
G0 X128.6 Y102.071
;TYPE:WALL-INNER
G1 F2700 E18.68184
G1 F600 X130.4 Y102.071 E18.74171
G1 X130.4 Y97.929 E18.87947
G1 X128.6 Y97.929 E18.93934
G1 X128.6 Y102.071 E19.0771
G0 F7500 X128.2 Y102.471
;TYPE:WALL-OUTER
G1 F600 X130.8 Y102.471 E19.16358
G1 X130.8 Y97.529 E19.32795
G1 X128.2 Y97.529 E19.41442
G1 X128.2 Y102.471 E19.5788
G0 F7500 X128.47 Y102.202
G0 X128.96 Y101.971
G0 X128.96 Y101.711
;TYPE:SKIN
G1 F600 X128.96 Y98.289 E19.69261
G1 X130.04 Y98.289 E19.72853
G1 X130.04 Y101.711 E19.84235
