;FLAVOR:Marlin
;TIME:5076
;Filament used: 2.88425m
;Layer height: 0.2
;MINX:85.836
;MINY:75.818
;MINZ:0.2
;MAXX:134.185
;MAXY:124.176
;MAXZ:36
;Generated with Cura_SteamEngine 5.3.0
M140 S60
M105
M190 S60
M104 S230
M105
M109 S230
M82 ;absolute extrusion mode
; Ender 3 Custom Start G-code
G92 E0 ; Reset Extruder
G28 ; Home all axes
G1 Z2.0 F3000 ; Move Z Axis up little to prevent scratching of Heat Bed
G1 X0.1 Y20 Z0.3 F5000.0 ; Move to start position
G1 X0.1 Y200.0 Z0.3 F1500.0 E15 ; Draw the first line
G1 X0.4 Y200.0 Z0.3 F5000.0 ; Move to side a little
G1 X0.4 Y20 Z0.3 F1500.0 E30 ; Draw the second line
G92 E0 ; Reset Extruder
G1 Z2.0 F3000 ; Move Z Axis up little to prevent scratching of Heat Bed
G1 X5 Y20 Z0.3 F5000.0 ; Move over to prevent blob squish
G92 E0
G92 E0
G1 F2700 E-5
;LAYER_COUNT:180
;LAYER:0
M107
G0 F3600 X92.966 Y84 Z0.2
;TYPE:SKIRT
G1 F2700 E0
G1 F1200 X93.681 Y83.279 E0.03377
G1 X94.374 Y82.619 E0.0656
G1 X95.058 Y82.03 E0.09563
G1 X95.877 Y81.386 E0.13028
G1 X96.628 Y80.829 E0.16138
G1 X97.383 Y80.327 E0.19153
G1 X98.273 Y79.79 E0.2261
G1 X99.082 Y79.331 E0.25704
G1 X99.899 Y78.921 E0.28744
G1 X100.828 Y78.506 E0.32129
G1 X101.692 Y78.148 E0.35239
G1 X102.561 Y77.84 E0.38306
G1 X103.572 Y77.532 E0.41821
G1 X104.449 Y77.29 E0.44847
G1 X105.352 Y77.09 E0.47923
G1 X106.332 Y76.919 E0.51232
G1 X107.288 Y76.779 E0.54445
G1 X108.185 Y76.693 E0.57442
G1 X109.242 Y76.639 E0.60963
G1 X110.159 Y76.618 E0.64013
G1 X111.07 Y76.644 E0.67045
G1 X112.091 Y76.719 E0.7045
G1 X113.03 Y76.814 E0.73589
G1 X113.93 Y76.952 E0.76617
G1 X114.96 Y77.157 E0.8011
G1 X115.847 Y77.359 E0.83136
G1 X116.73 Y77.608 E0.86187
G1 X118.037 Y78.045 E0.90771
G1 X118.572 Y78.241 E0.92666
G1 X119.434 Y78.603 E0.95775
G1 X120.387 Y79.055 E0.99284
G1 X121.174 Y79.454 E1.02218
G1 X121.984 Y79.918 E1.05323
G1 X122.877 Y80.486 E1.08843
G1 X123.647 Y81.007 E1.11935
G1 X124.369 Y81.549 E1.14938
G1 X125.168 Y82.207 E1.18381
G1 X125.878 Y82.826 E1.21514
G1 X126.527 Y83.454 E1.24517
G1 X127.466 Y84.453 E1.29077
G1 X127.872 Y84.912 E1.31116
G1 X128.437 Y85.611 E1.34105
G1 X129.245 Y86.714 E1.38653
G1 X129.577 Y87.197 E1.40602
G1 X130.064 Y87.979 E1.43666
G1 X130.573 Y88.885 E1.47122
G1 X131.009 Y89.713 E1.50235
G1 X131.389 Y90.534 E1.53244
G1 X131.906 Y91.807 E1.57814
G1 X132.117 Y92.378 E1.59838
G1 X132.393 Y93.241 E1.62852
G1 X132.667 Y94.25 E1.66329
G1 X132.878 Y95.116 E1.69294
G1 X133.053 Y96.036 E1.72409
G1 X133.245 Y97.415 E1.7704
G1 X133.308 Y97.996 E1.78983
G1 X133.365 Y98.897 E1.81986
G1 X133.385 Y99.923 E1.85399
G1 X133.377 Y100.876 E1.88569
G1 X133.324 Y101.774 E1.91561
G1 X133.22 Y102.778 E1.94918
G1 X133.094 Y103.727 E1.98102
G1 X132.929 Y104.62 E2.01123
G1 X132.69 Y105.655 E2.04656
G1 X132.461 Y106.537 E2.07686
G1 X132.187 Y107.407 E2.1072
G1 X131.837 Y108.365 E2.14113
G1 X131.478 Y109.266 E2.17338
G1 X131.107 Y110.077 E2.20305
G1 X130.639 Y110.992 E2.23723
G1 X130.185 Y111.82 E2.26864
G1 X129.712 Y112.589 E2.29866
G1 X129.129 Y113.448 E2.33319
G1 X128.589 Y114.198 E2.36393
G1 X128.012 Y114.918 E2.39462
G1 X127.318 Y115.708 E2.42959
G1 X126.702 Y116.373 E2.45974
G1 X126.037 Y117.023 E2.49067
G1 X125.285 Y117.693 E2.52417
G1 X124.547 Y118.314 E2.55625
G1 X123.819 Y118.867 E2.58666
G1 X123.002 Y119.431 E2.61968
G1 X122.206 Y119.95 E2.65128
G1 X121.405 Y120.415 E2.68209
G1 X120.472 Y120.902 E2.71709
G1 X119.658 Y121.299 E2.74722
G1 X118.826 Y121.653 E2.77729
G1 X117.848 Y122.019 E2.81202
G1 X116.956 Y122.325 E2.84339
G1 X116.075 Y122.579 E2.87388
G1 X115.081 Y122.817 E2.90788
G1 X114.163 Y123.01 E2.93908
G1 X113.259 Y123.153 E2.96952
G1 X112.233 Y123.268 E3.00386
G1 X111.3 Y123.346 E3.035
G1 X110.39 Y123.376 E3.06528
G1 X109.003 Y123.355 E3.11142
G1 X108.449 Y123.33 E3.12986
G1 X107.532 Y123.247 E3.16049
G1 X106.453 Y123.1 E3.1967
G1 X105.564 Y122.954 E3.22667
G1 X104.66 Y122.759 E3.25743
G1 X103.67 Y122.497 E3.29149
G1 X102.8 Y122.241 E3.32165
G1 X101.947 Y121.943 E3.3517
G1 X100.959 Y121.548 E3.38709
G1 X100.08 Y121.166 E3.41897
G1 X99.276 Y120.768 E3.44881
G1 X98.084 Y120.104 E3.49419
G1 X97.576 Y119.8 E3.51388
G1 X96.831 Y119.308 E3.54358
G1 X95.975 Y118.688 E3.57873
G1 X95.233 Y118.118 E3.60985
G1 X94.543 Y117.529 E3.64002
G1 X93.798 Y116.834 E3.67391
G1 X93.126 Y116.172 E3.70529
G1 X92.504 Y115.493 E3.73591
G1 X91.852 Y114.713 E3.76973
G1 X91.272 Y113.98 E3.80081
G1 X90.737 Y113.23 E3.83146
G1 X90.172 Y112.356 E3.86607
G1 X89.695 Y111.572 E3.89659
G1 X89.26 Y110.765 E3.92709
G1 X88.792 Y109.796 E3.96288
G1 X88.428 Y108.989 E3.99232
G1 X88.084 Y108.108 E4.02378
G1 X87.658 Y106.832 E4.06852
G1 X87.483 Y106.251 E4.0887
G1 X87.264 Y105.389 E4.11828
G1 X87.053 Y104.376 E4.1527
G1 X86.884 Y103.423 E4.18489
G1 X86.771 Y102.524 E4.21503
G1 X86.689 Y101.506 E4.249
G1 X86.639 Y100.587 E4.27961
G1 X86.636 Y99.651 E4.31074
G1 X86.68 Y98.632 E4.34466
G1 X86.744 Y97.71 E4.3754
G1 X86.856 Y96.783 E4.40646
G1 X87.024 Y95.78 E4.44028
G1 X87.196 Y94.894 E4.4703
G1 X87.423 Y93.976 E4.50175
G1 X87.731 Y92.942 E4.53764
G1 X88.008 Y92.094 E4.56731
G1 X88.34 Y91.232 E4.59803
G1 X88.749 Y90.297 E4.63198
G1 X89.14 Y89.464 E4.66258
G1 X89.579 Y88.64 E4.69363
G1 X90.121 Y87.727 E4.72895
G1 X90.593 Y86.978 E4.75839
G1 X91.132 Y86.213 E4.78952
G1 X91.971 Y85.138 E4.83488
G1 X92.349 Y84.681 E4.8546
G1 X92.966 Y84 E4.88517
G0 F3600 X92.682 Y83.718
G1 F1200 X93.405 Y82.989 E4.91931
G1 X94.113 Y82.316 E4.9518
G1 X94.811 Y81.716 E4.98242
G1 X95.639 Y81.065 E5.01745
G1 X96.407 Y80.496 E5.04924
G1 X97.176 Y79.985 E5.07995
G1 X98.076 Y79.442 E5.11491
G1 X98.903 Y78.973 E5.14653
G1 X99.736 Y78.556 E5.17751
G1 X100.675 Y78.136 E5.21173
G1 X101.558 Y77.771 E5.24351
G1 X102.444 Y77.457 E5.27477
G1 X103.466 Y77.146 E5.3103
G1 X104.363 Y76.899 E5.34125
G1 X105.283 Y76.696 E5.37258
G1 X106.274 Y76.523 E5.40604
G1 X107.25 Y76.381 E5.43884
G1 X108.165 Y76.294 E5.46941
G1 X109.233 Y76.239 E5.50498
G1 X110.17 Y76.218 E5.53616
G1 X111.099 Y76.245 E5.56707
G1 X112.131 Y76.321 E5.60149
G1 X113.091 Y76.419 E5.63358
G1 X114.008 Y76.56 E5.66444
G1 X115.049 Y76.767 E5.69974
G1 X115.956 Y76.974 E5.73068
G1 X116.857 Y77.229 E5.76183
G1 X118.175 Y77.669 E5.80804
G1 X118.727 Y77.872 E5.8276
G1 X119.589 Y78.234 E5.8587
G1 X120.568 Y78.698 E5.89473
G1 X121.373 Y79.107 E5.92477
G1 X122.199 Y79.58 E5.95642
G1 X123.092 Y80.148 E5.99162
G1 X123.887 Y80.687 E6.02357
G1 X124.623 Y81.24 E6.05419
G1 X125.431 Y81.905 E6.089
G1 X126.141 Y82.524 E6.12033
G1 X126.818 Y83.18 E6.15168
G1 X127.766 Y84.188 E6.1977
G1 X128.172 Y84.647 E6.21808
G1 X128.76 Y85.375 E6.24921
G1 X129.575 Y86.487 E6.29506
G1 X129.917 Y86.986 E6.31519
G1 X130.413 Y87.783 E6.34641
G1 X130.927 Y88.699 E6.38134
G1 X131.372 Y89.545 E6.41314
G1 X131.76 Y90.383 E6.44385
G1 X132.281 Y91.668 E6.48997
G1 X132.498 Y92.256 E6.51082
G1 X132.779 Y93.136 E6.54154
G1 X133.056 Y94.155 E6.57666
G1 X133.271 Y95.041 E6.60699
G1 X133.449 Y95.981 E6.63881
G1 X133.643 Y97.372 E6.68552
G1 X133.707 Y97.971 E6.70556
G1 X133.765 Y98.889 E6.73615
G1 X133.785 Y99.926 E6.77065
G1 X133.776 Y100.9 E6.80304
G1 X133.722 Y101.815 E6.83353
G1 X133.617 Y102.831 E6.8675
G1 X133.491 Y103.78 E6.89934
G1 X133.319 Y104.71 E6.9308
G1 X133.077 Y105.756 E6.96651
G1 X132.843 Y106.657 E6.99747
G1 X132.563 Y107.544 E7.02841
G1 X132.209 Y108.513 E7.06272
G1 X131.842 Y109.432 E7.09563
G1 X131.463 Y110.259 E7.12589
G1 X130.99 Y111.184 E7.16044
G1 X130.526 Y112.03 E7.19254
G1 X130.043 Y112.814 E7.22316
G1 X129.454 Y113.682 E7.25805
G1 X128.914 Y114.432 E7.28879
G1 X128.313 Y115.182 E7.32076
G1 X127.611 Y115.98 E7.35611
G1 X126.982 Y116.659 E7.38689
G1 X126.303 Y117.322 E7.41845
G1 X125.543 Y117.999 E7.45231
G1 X124.789 Y118.633 E7.48507
G1 X124.061 Y119.186 E7.51548
G1 X123.22 Y119.766 E7.54946
G1 X122.407 Y120.296 E7.58174
G1 X121.59 Y120.77 E7.61315
G1 X120.647 Y121.262 E7.64853
G1 X119.815 Y121.667 E7.67931
G1 X118.966 Y122.028 E7.70999
G1 X117.978 Y122.397 E7.74507
G1 X117.067 Y122.709 E7.7771
G1 X116.168 Y122.968 E7.80821
G1 X115.163 Y123.208 E7.84258
G1 X114.225 Y123.405 E7.87446
G1 X113.304 Y123.551 E7.90547
G1 X112.266 Y123.667 E7.94021
G1 X111.313 Y123.746 E7.97202
G1 X110.403 Y123.776 E8.0023
G1 X108.985 Y123.755 E8.04947
G1 X108.431 Y123.73 E8.06791
G1 X107.478 Y123.643 E8.09974
G1 X106.388 Y123.495 E8.13633
G1 X105.48 Y123.345 E8.16694
G1 X104.558 Y123.146 E8.19831
G1 X103.557 Y122.881 E8.23275
G1 X102.668 Y122.619 E8.26358
G1 X101.815 Y122.321 E8.29363
G1 X100.8 Y121.915 E8.32999
G1 X99.921 Y121.533 E8.36187
G1 X99.081 Y121.117 E8.39304
G1 X97.879 Y120.447 E8.43881
G1 X97.356 Y120.134 E8.45908
G1 X96.596 Y119.632 E8.48938
G1 X95.731 Y119.005 E8.52491
G1 X94.973 Y118.422 E8.55672
G1 X94.27 Y117.821 E8.58748
G1 X93.517 Y117.119 E8.62172
G1 X92.831 Y116.442 E8.65378
G1 X92.197 Y115.75 E8.68499
G1 X91.538 Y114.961 E8.71918
G1 X90.946 Y114.212 E8.75094
G1 X90.401 Y113.447 E8.78218
G1 X89.83 Y112.564 E8.81715
G1 X89.343 Y111.762 E8.84836
G1 X88.9 Y110.939 E8.87945
G1 X88.427 Y109.96 E8.91561
G1 X88.055 Y109.134 E8.94574
G1 X87.705 Y108.235 E8.97783
G1 X87.275 Y106.947 E9.02299
G1 X87.095 Y106.349 E9.04376
G1 X86.872 Y105.471 E9.07389
G1 X86.659 Y104.446 E9.10871
G1 X86.487 Y103.473 E9.14157
G1 X86.372 Y102.556 E9.17231
G1 X86.29 Y101.528 E9.20661
G1 X86.239 Y100.588 E9.23792
G1 X86.236 Y99.634 E9.26965
G1 X86.281 Y98.604 E9.30394
G1 X86.347 Y97.662 E9.33535
G1 X86.461 Y96.717 E9.36701
G1 X86.631 Y95.704 E9.40117
G1 X86.803 Y94.818 E9.43119
G1 X87.04 Y93.862 E9.46395
G1 X87.351 Y92.818 E9.50018
G1 X87.635 Y91.95 E9.53056
G1 X87.974 Y91.072 E9.56186
G1 X88.387 Y90.127 E9.59616
G1 X88.787 Y89.276 E9.62744
G1 X89.235 Y88.436 E9.6591
G1 X89.783 Y87.514 E9.69478
G1 X90.266 Y86.748 E9.7249
G1 X90.817 Y85.967 E9.75669
G1 X91.663 Y84.883 E9.80242
G1 X92.053 Y84.412 E9.82276
G1 X92.682 Y83.718 E9.85391
G0 F3600 X92.398 Y83.436
G1 F1200 X93.129 Y82.699 E9.88844
G1 X93.852 Y82.013 E9.92159
G1 X94.564 Y81.402 E9.95279
G1 X95.401 Y80.744 E9.9882
G1 X96.186 Y80.163 E10.02069
G1 X96.969 Y79.643 E10.05195
G1 X97.879 Y79.094 E10.0873
G1 X98.724 Y78.615 E10.1196
G1 X99.573 Y78.191 E10.15117
G1 X100.522 Y77.766 E10.18575
G1 X101.424 Y77.394 E10.2182
G1 X102.328 Y77.074 E10.2501
G1 X103.36 Y76.76 E10.28598
G1 X104.277 Y76.508 E10.31761
G1 X105.214 Y76.302 E10.34952
G1 X106.216 Y76.127 E10.38335
G1 X107.212 Y75.983 E10.41682
G1 X108.144 Y75.895 E10.44795
G1 X109.224 Y75.839 E10.48392
G1 X110.182 Y75.818 E10.51579
G1 X111.128 Y75.846 E10.54727
G1 X112.172 Y75.923 E10.58209
G1 X113.152 Y76.024 E10.61486
G1 X114.086 Y76.168 E10.64629
G1 X115.138 Y76.377 E10.68196
G1 X116.065 Y76.589 E10.71359
G1 X116.984 Y76.85 E10.74537
G1 X118.313 Y77.294 E10.79197
G1 X118.882 Y77.503 E10.81213
G1 X119.744 Y77.865 E10.84323
G1 X120.749 Y78.341 E10.88021
G1 X121.572 Y78.76 E10.91093
G1 X122.414 Y79.242 E10.9432
G1 X123.307 Y79.81 E10.9784
G1 X124.127 Y80.367 E11.01137
G1 X124.877 Y80.931 E11.04258
G1 X125.694 Y81.603 E11.07777
G1 X126.404 Y82.222 E11.10909
G1 X127.109 Y82.906 E11.14177
G1 X128.066 Y83.923 E11.18821
G1 X128.472 Y84.382 E11.20859
G1 X129.083 Y85.139 E11.24095
G1 X129.905 Y86.261 E11.28721
G1 X130.257 Y86.775 E11.30793
G1 X130.762 Y87.587 E11.33974
G1 X131.281 Y88.513 E11.37504
G1 X131.735 Y89.377 E11.4075
G1 X132.131 Y90.233 E11.43887
G1 X132.656 Y91.53 E11.48541
G1 X132.879 Y92.134 E11.50683
G1 X133.165 Y93.031 E11.53814
G1 X133.445 Y94.061 E11.57364
G1 X133.664 Y94.967 E11.60464
G1 X133.845 Y95.926 E11.6371
G1 X134.041 Y97.33 E11.68425
G1 X134.106 Y97.946 E11.70486
G1 X134.165 Y98.881 E11.73602
G1 X134.185 Y99.93 E11.77091
G1 X134.175 Y100.924 E11.80397
G1 X134.12 Y101.856 E11.83503
G1 X134.014 Y102.884 E11.8694
G1 X133.888 Y103.833 E11.90124
G1 X133.709 Y104.8 E11.93395
G1 X133.464 Y105.857 E11.97004
G1 X133.23 Y106.758 E12.001
G1 X132.939 Y107.681 E12.03319
G1 X132.58 Y108.661 E12.0679
G1 X132.206 Y109.599 E12.10149
G1 X131.827 Y110.426 E12.13174
G1 X131.341 Y111.376 E12.16724
G1 X130.867 Y112.24 E12.20001
G1 X130.374 Y113.039 E12.23124
G1 X129.779 Y113.916 E12.26649
G1 X129.239 Y114.666 E12.29723
G1 X128.613 Y115.446 E12.33049
G1 X127.904 Y116.252 E12.36619
G1 X127.261 Y116.945 E12.39764
G1 X126.569 Y117.621 E12.42981
G1 X125.8 Y118.305 E12.46404
G1 X125.031 Y118.952 E12.49747
G1 X124.303 Y119.505 E12.52788
G1 X123.438 Y120.101 E12.56281
G1 X122.608 Y120.642 E12.59577
G1 X121.775 Y121.125 E12.62779
G1 X120.822 Y121.622 E12.66354
G1 X119.972 Y122.035 E12.69497
G1 X119.106 Y122.403 E12.72627
G1 X118.108 Y122.775 E12.76169
G1 X117.178 Y123.093 E12.79438
G1 X116.261 Y123.357 E12.82612
G1 X115.245 Y123.599 E12.86086
G1 X114.288 Y123.8 E12.89338
G1 X113.348 Y123.949 E12.92504
G1 X112.299 Y124.066 E12.96015
G1 X111.346 Y124.145 E12.99195
G1 X110.397 Y124.176 E13.02353
G1 X108.967 Y124.155 E13.0711
G1 X108.413 Y124.13 E13.08954
G1 X107.424 Y124.039 E13.12258
G1 X106.323 Y123.89 E13.15953
G1 X105.396 Y123.736 E13.19078
G1 X104.456 Y123.533 E13.22277
G1 X103.444 Y123.265 E13.25759
G1 X102.536 Y122.997 E13.28908
G1 X101.666 Y122.692 E13.31974
G1 X100.641 Y122.282 E13.35646
G1 X99.743 Y121.891 E13.38903
G1 X98.886 Y121.466 E13.42085
G1 X97.674 Y120.79 E13.46701
G1 X97.136 Y120.468 E13.48786
G1 X96.361 Y119.956 E13.51876
G1 X95.487 Y119.322 E13.55467
G1 X94.713 Y118.726 E13.58716
G1 X93.997 Y118.114 E13.61849
G1 X93.236 Y117.404 E13.6531
G1 X92.536 Y116.712 E13.68584
G1 X91.89 Y116.006 E13.71767
G1 X91.224 Y115.209 E13.75222
G1 X90.62 Y114.444 E13.78463
G1 X90.065 Y113.664 E13.81647
G1 X89.488 Y112.772 E13.85181
G1 X88.991 Y111.952 E13.8837
G1 X88.54 Y111.113 E13.91538
G1 X88.062 Y110.124 E13.95192
G1 X87.682 Y109.279 E13.98273
G1 X87.326 Y108.362 E14.01545
G1 X86.892 Y107.062 E14.06103
G1 X86.707 Y106.447 E14.08239
G1 X86.48 Y105.552 E14.1131
G1 X86.265 Y104.516 E14.1483
G1 X86.09 Y103.523 E14.18183
G1 X85.973 Y102.588 E14.21317
G1 X85.891 Y101.55 E14.2478
G1 X85.839 Y100.589 E14.27981
G1 X85.836 Y99.617 E14.31214
G1 X85.882 Y98.576 E14.3468
G1 X85.95 Y97.614 E14.37888
G1 X86.067 Y96.651 E14.41114
G1 X86.238 Y95.628 E14.44564
G1 X86.41 Y94.742 E14.47566
G1 X86.657 Y93.748 E14.50972
G1 X86.971 Y92.694 E14.5463
G1 X87.262 Y91.806 E14.57738
G1 X87.607 Y90.912 E14.60926
G1 X88.025 Y89.957 E14.64393
G1 X88.434 Y89.088 E14.67587
G1 X88.891 Y88.232 E14.70815
G1 X89.445 Y87.301 E14.74418
G1 X89.939 Y86.517 E14.775
G1 X90.49 Y85.736 E14.80679
G1 X91.355 Y84.628 E14.85354
G1 X91.757 Y84.143 E14.87449
G1 X92.398 Y83.436 E14.90624
G1 F2700 E9.90624
;MESH:??????????????????(6mm?????????).stl
G0 F3600 X104.158 Y96.987
G0 X103.798 Y99.409
G0 X103.798 Y100.593
G0 X104.022 Y101.759
G0 X104.464 Y102.862
G0 X105.106 Y103.86
G0 X105.925 Y104.72
G0 X106.894 Y105.407
G0 X107.971 Y105.899
G0 X110.315 Y106.398
;TYPE:WALL-INNER
G1 F2700 E14.90624
G1 F1200 X109.09 Y106.333 E14.94704
G1 X107.918 Y106.054 E14.98711
G1 X106.814 Y105.545 E15.02754
G1 X105.822 Y104.844 E15.06794
G1 X104.988 Y103.964 E15.10827
G1 X104.321 Y102.935 E15.14905
G1 X103.863 Y101.791 E15.19004
G1 X103.638 Y100.616 E15.22983
G1 X103.638 Y99.38 E15.27094
G1 X103.864 Y98.209 E15.3106
G1 X104.319 Y97.07 E15.3514
G1 X104.965 Y96.061 E15.39125
G1 X105.82 Y95.158 E15.43261
G1 X106.815 Y94.454 E15.47315
G1 X107.933 Y93.942 E15.51405
G1 X109.088 Y93.667 E15.55354
G1 X110.319 Y93.603 E15.59453
G1 X111.534 Y93.78 E15.63537
G1 X112.662 Y94.169 E15.67506
G1 X113.735 Y94.787 E15.71624
G1 X114.64 Y95.572 E15.75609
G1 X115.401 Y96.539 E15.79702
G1 X115.95 Y97.597 E15.83666
G1 X116.304 Y98.791 E15.87808
G1 X116.415 Y99.999 E15.91843
G1 X116.304 Y101.203 E15.95864
G1 X115.96 Y102.369 E15.99908
G1 X115.405 Y103.454 E16.03961
G1 X114.639 Y104.429 E16.08085
G1 X113.737 Y105.211 E16.12056
G1 X112.667 Y105.829 E16.16166
G1 X111.539 Y106.219 E16.20135
G1 X110.315 Y106.398 E16.2425
G0 F3600 X110.294 Y105.997
G1 F1200 X109.157 Y105.941 E16.28036
G1 X108.04 Y105.668 E16.3186
G1 X107.014 Y105.198 E16.35614
G1 X106.089 Y104.541 E16.39387
G1 X105.3 Y103.713 E16.43191
G1 X104.679 Y102.755 E16.46989
G1 X104.259 Y101.706 E16.50747
G1 X104.038 Y100.553 E16.54652
G1 X104.038 Y99.419 E16.58423
G1 X104.259 Y98.296 E16.6223
G1 X104.691 Y97.23 E16.66056
