;FLAVOR:Marlin
;TIME:1011
;Filament used: 0.336801m
;Layer height: 0.2
;MINX:87.688
;MINY:85
;MINZ:0.2
;MAXX:132.312
;MAXY:115
;MAXZ:16
;Generated with Cura_SteamEngine 5.3.0
M140 S60
M105
M190 S60
M104 S220
M105
M109 S220
M82 ;absolute extrusion mode
; Ender 3 Custom Start G-code
G92 E0 ; Reset Extruder
G28 ; Home all axes
G1 Z2.0 F3000 ; Move Z Axis up little to prevent scratching of Heat Bed
G1 X0.1 Y20 Z0.3 F5000.0 ; Move to start position
G1 X0.1 Y200.0 Z0.3 F1500.0 E15 ; Draw the first line
G1 X0.4 Y200.0 Z0.3 F5000.0 ; Move to side a little
G1 X0.4 Y20 Z0.3 F1500.0 E30 ; Draw the second line
G92 E0 ; Reset Extruder
G1 Z2.0 F3000 ; Move Z Axis up little to prevent scratching of Heat Bed
G1 X5 Y20 Z0.3 F5000.0 ; Move over to prevent blob squish
G92 E0
G92 E0
G1 F2700 E-5
;LAYER_COUNT:80
;LAYER:0
M107
G0 F6000 X91.681 Y88.606 Z0.2
;TYPE:SKIRT
G1 F2700 E0
G1 F1200 X92.363 Y88.014 E0.03004
G1 X93.095 Y87.485 E0.06008
G1 X93.871 Y87.023 E0.09011
G1 X94.685 Y86.632 E0.12015
G1 X95.53 Y86.313 E0.15019
G1 X96.4 Y86.071 E0.18022
G1 X97.288 Y85.907 E0.21026
G1 X98.411 Y85.813 E0.24774
G1 X99.018 Y85.8 E0.26793
G1 X103.424 Y85.8 E0.41448
G1 X104.561 Y85.819 E0.4523
G1 X106.322 Y85.9 E0.51093
G1 X108.846 Y85.97 E0.59491
G1 X111.365 Y85.968 E0.6787
G1 X115.846 Y85.807 E0.82783
G1 X116.213 Y85.8 E0.84004
G1 X120.752 Y85.801 E0.99101
G1 X121.449 Y85.811 E1.01419
G1 X122.351 Y85.864 E1.04425
G1 X123.244 Y85.996 E1.07427
G1 X124.122 Y86.207 E1.1043
G1 X124.978 Y86.495 E1.13434
G1 X125.806 Y86.858 E1.16441
G1 X126.597 Y87.292 E1.19442
G1 X127.348 Y87.794 E1.22446
G1 X128.051 Y88.361 E1.2545
G1 X128.701 Y88.988 E1.28454
G1 X129.293 Y89.67 E1.31458
G1 X129.823 Y90.401 E1.34461
G1 X130.285 Y91.177 E1.37465
G1 X130.678 Y91.99 E1.40468
G1 X130.996 Y92.835 E1.43471
G1 X131.239 Y93.705 E1.46476
G1 X131.404 Y94.593 E1.4948
G1 X131.499 Y95.722 E1.53248
G1 X131.512 Y96.33 E1.55271
G1 X131.51 Y103.402 E1.78792
G1 X131.501 Y104.118 E1.81174
G1 X131.45 Y105.02 E1.84179
G1 X131.319 Y105.913 E1.87181
G1 X131.11 Y106.792 E1.90186
G1 X130.823 Y107.648 E1.93188
G1 X130.462 Y108.476 E1.96193
G1 X130.03 Y109.269 E1.99196
G1 X129.529 Y110.02 E2.02199
G1 X128.963 Y110.724 E2.05203
G1 X128.337 Y111.376 E2.0821
G1 X127.656 Y111.969 E2.11213
G1 X126.926 Y112.5 E2.14215
G1 X126.151 Y112.964 E2.1722
G1 X125.338 Y113.357 E2.20223
G1 X124.494 Y113.678 E2.23226
G1 X123.624 Y113.922 E2.26232
G1 X122.737 Y114.089 E2.29234
G1 X121.607 Y114.185 E2.33006
G1 X120.968 Y114.2 E2.35132
G1 X116.43 Y114.199 E2.50225
G1 X115.44 Y114.181 E2.53518
G1 X113.679 Y114.1 E2.59382
G1 X111.155 Y114.03 E2.6778
G1 X108.634 Y114.032 E2.76165
G1 X104.154 Y114.193 E2.91075
G1 X103.787 Y114.2 E2.92296
G1 X99.248 Y114.199 E3.07392
G1 X98.551 Y114.189 E3.09711
G1 X97.649 Y114.136 E3.12716
G1 X96.756 Y114.004 E3.15719
G1 X95.878 Y113.793 E3.18722
G1 X95.022 Y113.505 E3.21726
G1 X94.194 Y113.142 E3.24733
G1 X93.403 Y112.708 E3.27734
G1 X92.652 Y112.206 E3.30738
G1 X91.949 Y111.639 E3.33742
G1 X91.299 Y111.012 E3.36746
G1 X90.707 Y110.33 E3.3975
G1 X90.177 Y109.599 E3.42753
G1 X89.715 Y108.823 E3.45756
G1 X89.322 Y108.01 E3.4876
G1 X89.004 Y107.165 E3.51763
G1 X88.761 Y106.295 E3.54767
G1 X88.596 Y105.407 E3.57771
G1 X88.501 Y104.266 E3.61579
G1 X88.488 Y103.658 E3.63602
G1 X88.489 Y96.521 E3.8734
G1 X88.499 Y95.856 E3.89552
G1 X88.553 Y94.954 E3.92557
G1 X88.686 Y94.061 E3.9556
G1 X88.897 Y93.183 E3.98564
G1 X89.186 Y92.327 E4.01568
G1 X89.549 Y91.5 E4.04572
G1 X89.983 Y90.709 E4.07573
G1 X90.486 Y89.958 E4.1058
G1 X91.054 Y89.256 E4.13583
G1 X91.681 Y88.606 E4.16587
G0 F6000 X91.393 Y88.328
G1 F1200 X92.101 Y87.712 E4.19708
G1 X92.89 Y87.141 E4.22948
G1 X93.666 Y86.679 E4.25951
G1 X94.512 Y86.271 E4.29075
G1 X95.423 Y85.928 E4.32313
G1 X96.327 Y85.678 E4.35432
G1 X97.255 Y85.508 E4.3857
G1 X98.402 Y85.413 E4.42398
G1 X99.009 Y85.4 E4.44418
G1 X103.431 Y85.4 E4.59125
G1 X104.579 Y85.419 E4.62944
G1 X106.34 Y85.5 E4.68807
G1 X108.857 Y85.57 E4.77182
G1 X111.351 Y85.568 E4.85477
G1 X115.838 Y85.407 E5.00411
G1 X116.213 Y85.4 E5.01658
G1 X120.758 Y85.401 E5.16775
G1 X121.472 Y85.412 E5.1915
G1 X122.409 Y85.468 E5.22272
G1 X123.302 Y85.6 E5.25274
G1 X124.25 Y85.828 E5.28517
G1 X125.106 Y86.116 E5.31521
G1 X125.998 Y86.507 E5.34761
G1 X126.819 Y86.959 E5.37878
G1 X127.57 Y87.461 E5.40882
G1 X128.329 Y88.073 E5.44125
G1 X128.979 Y88.7 E5.47129
G1 X129.617 Y89.435 E5.50366
G1 X130.167 Y90.196 E5.53489
G1 X130.629 Y90.972 E5.56493
G1 X131.052 Y91.849 E5.59731
G1 X131.381 Y92.727 E5.6285
G1 X131.632 Y93.632 E5.65973
G1 X131.803 Y94.559 E5.69109
G1 X131.898 Y95.688 E5.72877
G1 X131.912 Y96.33 E5.75013
G1 X131.91 Y103.407 E5.98551
G1 X131.9 Y104.141 E6.00993
G1 X131.846 Y105.078 E6.04114
G1 X131.715 Y105.971 E6.07116
G1 X131.499 Y106.885 E6.1024
G1 X131.19 Y107.808 E6.13477
G1 X130.829 Y108.636 E6.16481
G1 X130.363 Y109.491 E6.1972
G1 X129.841 Y110.271 E6.22842
G1 X129.275 Y110.975 E6.25846
G1 X128.6 Y111.678 E6.29088
G1 X127.919 Y112.271 E6.32091
G1 X127.131 Y112.843 E6.3533
G1 X126.325 Y113.324 E6.38452
G1 X125.48 Y113.731 E6.41571
G1 X124.636 Y114.052 E6.44574
G1 X123.698 Y114.315 E6.47815
G1 X122.771 Y114.488 E6.50951
G1 X121.641 Y114.584 E6.54723
G1 X120.968 Y114.6 E6.56962
G1 X116.423 Y114.599 E6.72079
G1 X115.422 Y114.581 E6.75409
G1 X113.661 Y114.5 E6.81272
G1 X111.144 Y114.43 E6.89647
G1 X108.648 Y114.432 E6.97948
G1 X104.162 Y114.593 E7.12879
G1 X103.795 Y114.6 E7.14099
G1 X99.242 Y114.599 E7.29243
G1 X98.528 Y114.588 E7.31618
G1 X97.591 Y114.532 E7.3474
G1 X96.698 Y114.4 E7.37742
G1 X95.75 Y114.172 E7.40985
G1 X94.894 Y113.884 E7.43989
G1 X94.002 Y113.493 E7.47228
G1 X93.181 Y113.041 E7.50346
G1 X92.43 Y112.539 E7.5335
G1 X91.671 Y111.927 E7.56593
G1 X91.021 Y111.3 E7.59597
G1 X90.383 Y110.565 E7.62834
G1 X89.833 Y109.804 E7.65957
G1 X89.371 Y109.028 E7.68961
G1 X88.948 Y108.151 E7.72199
G1 X88.619 Y107.273 E7.75318
G1 X88.368 Y106.368 E7.78441
G1 X88.197 Y105.44 E7.8158
G1 X88.101 Y104.275 E7.85468
G1 X88.088 Y103.658 E7.8752
G1 X88.089 Y96.515 E8.11278
G1 X88.1 Y95.832 E8.1355
G1 X88.157 Y94.895 E8.16672
G1 X88.29 Y94.002 E8.19675
G1 X88.518 Y93.055 E8.22915
G1 X88.807 Y92.199 E8.2592
G1 X89.198 Y91.308 E8.29156
G1 X89.632 Y90.517 E8.32157
G1 X90.175 Y89.706 E8.35403
G1 X90.766 Y88.978 E8.38522
G1 X91.393 Y88.328 E8.41526
G0 F6000 X91.13 Y88.026
G1 F1200 X91.838 Y87.41 E8.44647
G1 X92.685 Y86.797 E8.48125
G1 X93.461 Y86.335 E8.51128
G1 X94.371 Y85.897 E8.54487
G1 X95.316 Y85.542 E8.57845
G1 X96.22 Y85.292 E8.60964
G1 X97.222 Y85.109 E8.64352
G1 X98.393 Y85.013 E8.6826
G1 X99 Y85 E8.70279
G1 X103.438 Y85 E8.8504
G1 X104.597 Y85.019 E8.88896
G1 X106.358 Y85.1 E8.94759
G1 X108.868 Y85.17 E9.0311
G1 X111.337 Y85.168 E9.11322
G1 X115.831 Y85.007 E9.26279
G1 X116.213 Y85 E9.2755
G1 X120.764 Y85.001 E9.42687
G1 X121.496 Y85.013 E9.45121
G1 X122.467 Y85.072 E9.48357
G1 X123.396 Y85.211 E9.51481
G1 X124.344 Y85.439 E9.54724
G1 X125.234 Y85.737 E9.57846
G1 X126.159 Y86.141 E9.61203
G1 X127.041 Y86.626 E9.64551
G1 X127.792 Y87.128 E9.67555
G1 X128.607 Y87.785 E9.71037
G1 X129.257 Y88.412 E9.74041
G1 X129.919 Y89.173 E9.77396
G1 X130.511 Y89.991 E9.80754
G1 X130.973 Y90.767 E9.83758
G1 X131.427 Y91.709 E9.87236
G1 X131.756 Y92.587 E9.90355
G1 X132.025 Y93.559 E9.93709
G1 X132.202 Y94.525 E9.96975
G1 X132.297 Y95.654 E10.00744
G1 X132.312 Y96.33 E10.02993
G1 X132.31 Y103.412 E10.26547
G1 X132.299 Y104.164 E10.29049
G1 X132.242 Y105.136 E10.32287
G1 X132.111 Y106.029 E10.35289
G1 X131.878 Y107.012 E10.38649
G1 X131.557 Y107.968 E10.42003
G1 X131.196 Y108.796 E10.45008
G1 X130.714 Y109.682 E10.48362
G1 X130.153 Y110.522 E10.51722
G1 X129.587 Y111.226 E10.54726
G1 X128.863 Y111.98 E10.58203
G1 X128.182 Y112.573 E10.61207
G1 X127.366 Y113.167 E10.64564
G1 X126.499 Y113.684 E10.67921
G1 X125.622 Y114.105 E10.71157
G1 X124.778 Y114.426 E10.7416
G1 X123.806 Y114.7 E10.77519
G1 X122.805 Y114.887 E10.80906
G1 X121.675 Y114.983 E10.84678
G1 X120.978 Y115 E10.86997
G1 X116.416 Y114.999 E11.0217
G1 X115.404 Y114.981 E11.05536
G1 X113.643 Y114.9 E11.114
G1 X111.133 Y114.83 E11.19751
G1 X108.662 Y114.832 E11.2797
G1 X104.17 Y114.993 E11.4292
G1 X103.795 Y115 E11.44167
G1 X99.236 Y114.999 E11.59331
G1 X98.504 Y114.987 E11.61766
G1 X97.533 Y114.928 E11.65001
G1 X96.604 Y114.789 E11.68125
G1 X95.656 Y114.561 E11.71368
G1 X94.766 Y114.263 E11.7449
G1 X93.841 Y113.859 E11.77847
G1 X92.959 Y113.374 E11.81195
G1 X92.208 Y112.872 E11.84199
G1 X91.393 Y112.215 E11.87681
G1 X90.743 Y111.588 E11.90685
G1 X90.081 Y110.827 E11.9404
G1 X89.489 Y110.009 E11.97398
G1 X89.027 Y109.233 E12.00402
G1 X88.573 Y108.291 E12.0388
G1 X88.244 Y107.413 E12.06999
G1 X87.975 Y106.44 E12.10356
G1 X87.798 Y105.473 E12.13626
G1 X87.702 Y104.308 E12.17514
G1 X87.688 Y103.658 E12.19676
G1 X87.689 Y96.509 E12.43454
G1 X87.701 Y95.808 E12.45786
G1 X87.761 Y94.836 E12.49025
G1 X87.894 Y93.943 E12.52028
G1 X88.129 Y92.961 E12.55386
G1 X88.428 Y92.071 E12.58509
G1 X88.847 Y91.116 E12.61977
G1 X89.281 Y90.325 E12.64978
G1 X89.864 Y89.454 E12.68464
G1 X90.478 Y88.7 E12.71698
G1 X91.13 Y88.026 E12.74817
G1 F2700 E7.74817
;MESH:ir????????????2.stl
G0 F6000 X99.102 Y95.335
G0 X103.53 Y103.4
;TYPE:WALL-INNER
G1 F2700 E12.74817
G1 F1200 X103.53 Y96.6 E12.97434
G1 X99.288 Y96.6 E13.11543
G1 X99.288 Y103.4 E13.3416
G1 X103.53 Y103.4 E13.48269
G0 F6000 X103.93 Y103.8
;TYPE:WALL-OUTER
G1 F1200 X103.93 Y96.2 E13.73547
G1 X98.888 Y96.2 E13.90317
G1 X98.888 Y103.8 E14.15594
G1 X103.93 Y103.8 E14.32364
G0 F6000 X103.66 Y103.53
G0 X103.43 Y103.039
G0 X103.17 Y103.04
;TYPE:SKIN
G1 F1200 X99.648 Y103.04 E14.44078
G1 X99.648 Y96.96 E14.643
G1 X103.17 Y96.96 E14.76015
G1 X103.17 Y103.04 E14.96237
G0 F6000 X103.43 Y103.039
G0 X99.46 Y103.228
G0 X99.388 Y102.676
G0 X99.847 Y102.676
G1 F1200 X100.011 Y102.839 E14.97006
G0 F6000 X100.576 Y102.839
G1 F1200 X99.847 Y102.11 E15.00435
G0 F6000 X99.847 Y101.544
G1 F1200 X101.142 Y102.839 E15.06526
G0 F6000 X101.708 Y102.839
G1 F1200 X99.847 Y100.979 E15.15277
G0 F6000 X99.847 Y100.413
G1 F1200 X102.273 Y102.839 E15.26688
G0 F6000 X102.839 Y102.839
G1 F1200 X99.847 Y99.847 E15.40762
G0 F6000 X99.847 Y99.281
G1 F1200 X102.969 Y102.403 E15.55447
G0 F6000 X102.969 Y101.838
G1 F1200 X99.847 Y98.715 E15.70134
G0 F6000 X99.847 Y98.149
G1 F1200 X102.969 Y101.272 E15.84821
G0 F6000 X102.969 Y100.706
G1 F1200 X99.847 Y97.584 E15.99506
G0 F6000 X99.988 Y97.16
G1 F1200 X102.969 Y100.141 E16.13528
G0 F6000 X102.969 Y99.575
G1 F1200 X100.554 Y97.16 E16.24887
G0 F6000 X101.119 Y97.16
G1 F1200 X102.969 Y99.009 E16.33587
G0 F6000 X102.969 Y98.444
G1 F1200 X101.685 Y97.16 E16.39627
G0 F6000 X102.251 Y97.16
G1 F1200 X102.969 Y97.878 E16.43004
G0 F6000 X102.969 Y97.312
G1 F1200 X102.816 Y97.16 E16.43721
G1 F2700 E11.43721
G0 F6000 X103.43 Y97.159
G0 X103.711 Y103.097
G0 X104.796 Y103.097
G0 X115.204 Y103.1
G0 X116.469 Y103.4
;TYPE:WALL-INNER
G1 F2700 E16.43721
G1 F1200 X120.711 Y103.4 E16.5783
G1 X120.711 Y96.601 E16.80444
G1 X116.471 Y96.601 E16.94546
G1 X116.469 Y103.4 E17.17159
G0 F6000 X116.069 Y103.8
;TYPE:WALL-OUTER
G1 F1200 X121.111 Y103.8 E17.33929
G1 X121.111 Y96.201 E17.59204
G1 X116.071 Y96.201 E17.75967
G1 X116.069 Y103.8 E18.01241
G0 F6000 X116.339 Y103.53
G0 X116.57 Y103.039
G0 X116.829 Y103.04
;TYPE:SKIN
G1 F1200 X116.831 Y96.961 E18.2146
G1 X120.351 Y96.961 E18.33167
G1 X120.351 Y103.04 E18.53386
G1 X116.829 Y103.04 E18.65101
G0 F6000 X117.547 Y102.839
G1 F1200 X117.028 Y102.32 E18.67542
G0 F6000 X117.028 Y101.754
G1 F1200 X118.112 Y102.839 E18.72643
G0 F6000 X118.678 Y102.839
G1 F1200 X117.028 Y101.189 E18.80404
G0 F6000 X117.029 Y100.624
G1 F1200 X119.244 Y102.839 E18.90823
G0 F6000 X119.81 Y102.839
G1 F1200 X117.029 Y100.058 E19.03904
G0 F6000 X117.029 Y99.492
G1 F1200 X120.15 Y102.613 E19.18584
G0 F6000 X120.15 Y102.048
G1 F1200 X117.029 Y98.927 E19.33264
G0 F6000 X117.029 Y98.362
G1 F1200 X120.15 Y101.482 E19.47942
G0 F6000 X120.15 Y100.916
G1 F1200 X117.029 Y97.796 E19.6262
G0 F6000 X117.029 Y97.23
G1 F1200 X120.15 Y100.351 E19.773
G0 F6000 X120.15 Y99.785
G1 F1200 X117.525 Y97.16 E19.89647
G0 F6000 X118.091 Y97.16
G1 F1200 X120.15 Y99.219 E19.99332
G0 F6000 X120.15 Y98.654
G1 F1200 X118.656 Y97.16 E20.0636
G0 F6000 X119.222 Y97.16
G1 F1200 X120.15 Y98.088 E20.10725
G0 F6000 X120.15 Y97.522
G1 F1200 X119.788 Y97.16 E20.12427
G1 F2700 E15.12427
;MESH:NOMESH
G0 F300 X119.788 Y97.16 Z0.4
G0 F6000 X119.788 Y96.701
G0 X116.643 Y96.773
G0 X116.289 Y103.103
G0 X115.204 Y103.103
G0 X104.796 Y103.1
G0 X103.818 Y103.399
;TIME_ELAPSED:40.516103
;LAYER:1
M106 S85
;TYPE:WALL-INNER
;MESH:ir????????????2.stl
G1 F2700 E20.12427
G1 F1350 X103.818 Y96.601 E20.35038
G1 X99.228 Y96.601 E20.50304
G1 X99.228 Y103.399 E20.72914
G1 X103.818 Y103.399 E20.88181
G0 F7500 X104.218 Y103.799
;TYPE:WALL-OUTER
G1 F1350 X104.218 Y96.201 E21.13452
G1 X98.828 Y96.201 E21.31379
G1 X98.828 Y103.799 E21.5665
G1 X104.218 Y103.799 E21.74577
G0 F7500 X103.948 Y103.53
G0 X103.718 Y103.039
G0 X103.458 Y103.039
;TYPE:SKIN
G1 F1350 X99.588 Y103.039 E21.87449
G1 X99.588 Y96.961 E22.07664
G1 X103.458 Y96.961 E22.20536
G1 X103.458 Y103.039 E22.40751
G0 F7500 X103.257 Y102.652
G1 F1350 X103.07 Y102.838 E22.41629
G0 F7500 X102.505 Y102.838
G1 F1350 X103.257 Y102.086 E22.45166
G0 F7500 X103.257 Y101.52
G1 F1350 X101.939 Y102.838 E22.51365
G0 F7500 X101.373 Y102.838
G1 F1350 X103.257 Y100.955 E22.60225
G0 F7500 X103.257 Y100.389
G1 F1350 X100.807 Y102.838 E22.71746
G0 F7500 X100.242 Y102.838
G1 F1350 X103.257 Y99.823 E22.85928
G0 F7500 X103.257 Y99.257
G1 F1350 X99.787 Y102.727 E23.0225
G0 F7500 X99.787 Y102.162
G1 F1350 X103.257 Y98.692 E23.18572
G0 F7500 X103.257 Y98.126
G1 F1350 X99.787 Y101.596 E23.34894
G0 F7500 X99.787 Y101.03
G1 F1350 X103.257 Y97.56 E23.51215
G0 F7500 X103.091 Y97.16
G1 F1350 X99.787 Y100.465 E23.66759
G0 F7500 X99.787 Y99.899
G1 F1350 X102.526 Y97.16 E23.79642
G0 F7500 X101.96 Y97.16
G1 F1350 X99.787 Y99.333 E23.89863
G0 F7500 X99.787 Y98.767
G1 F1350 X101.394 Y97.16 E23.97422
G0 F7500 X100.829 Y97.16
G1 F1350 X99.787 Y98.202 E24.02323
G0 F7500 X99.787 Y97.636
G1 F1350 X100.263 Y97.16 E24.04562
G1 F2700 E19.04562
G0 F7500 X100.263 Y96.701
G0 X101.726 Y96.793
G0 X103.591 Y96.828
G0 X103.627 Y101.427
G0 X103.999 Y103.127
G0 X105.084 Y103.127
G0 X114.916 Y103.13
G0 X116.182 Y103.4
;TYPE:WALL-INNER
G1 F2700 E24.04562
G1 F1350 X120.772 Y103.4 E24.19829
G1 X120.772 Y96.6 E24.42446
G1 X116.182 Y96.6 E24.57712
G1 X116.182 Y103.4 E24.80329
G0 F7500 X115.782 Y103.8
;TYPE:WALL-OUTER
G1 F1350 X121.172 Y103.8 E24.98256
G1 X121.172 Y96.2 E25.23534
G1 X115.782 Y96.2 E25.41461
G1 X115.782 Y103.8 E25.66739
G0 F7500 X116.051 Y103.53
G0 X116.282 Y103.041
G0 X116.542 Y103.04
;TYPE:SKIN
G1 F1350 X116.542 Y96.96 E25.86961
G1 X120.412 Y96.96 E25.99833
G1 X120.412 Y103.04 E26.20055
G1 X116.542 Y103.04 E26.32926
G0 F7500 X116.282 Y103.041
G0 X120.6 Y103.228
G0 X120.672 Y102.668
G0 X120.21 Y102.669
G1 F1350 X120.039 Y102.84 E26.33731
G0 F7500 X119.474 Y102.84
G1 F1350 X120.21 Y102.103 E26.37195
G0 F7500 X120.21 Y101.537
G1 F1350 X118.908 Y102.84 E26.43322
G0 F7500 X118.342 Y102.84
G1 F1350 X120.21 Y100.972 E26.52108
G0 F7500 X120.21 Y100.406
G1 F1350 X117.777 Y102.84 E26.63554
G0 F7500 X117.211 Y102.84
G1 F1350 X120.21 Y99.84 E26.77663
G0 F7500 X120.21 Y99.274
G1 F1350 X116.741 Y102.744 E26.93983
G0 F7500 X116.741 Y102.179
G1 F1350 X120.21 Y98.709 E27.10302
G0 F7500 X120.21 Y98.143
G1 F1350 X116.741 Y101.613 E27.26622
G0 F7500 X116.741 Y101.047
G1 F1350 X120.21 Y97.577 E27.42941
G0 F7500 X120.063 Y97.16
G1 F1350 X116.741 Y100.481 E27.58564
G0 F7500 X116.741 Y99.916
G1 F1350 X119.497 Y97.16 E27.71528
G0 F7500 X118.931 Y97.16
G1 F1350 X116.741 Y99.35 E27.81829
G0 F7500 X116.741 Y98.784
G1 F1350 X118.366 Y97.16 E27.8947
G0 F7500 X117.8 Y97.16
G1 F1350 X116.741 Y98.219 E27.94451
G0 F7500 X116.741 Y97.653
G1 F1350 X117.234 Y97.16 E27.9677
G1 F2700 E22.9677
;MESH:NOMESH
G0 F300 X117.234 Y97.16 Z0.6
G0 F7500 X117.234 Y96.7
G0 X116.354 Y96.772
G0 X116.001 Y103.302
G0 X114.916 Y103.302
G0 X105.084 Y103.299
G0 X103.999 Y103.299
G0 X103.548 Y103.299
