;FLAVOR:Marlin
;TIME:3304
;Filament used: 2.13996m
;Layer height: 0.2
;MINX:79
;MINY:85.2
;MINZ:0.2
;MAXX:140.999
;MAXY:126
;MAXZ:18
;Generated with Cura_SteamEngine 5.3.0
M140 S60
M105
M190 S60
M104 S230
M105
M109 S230
M82 ;absolute extrusion mode
; Ender 3 Custom Start G-code
G92 E0 ; Reset Extruder
G28 ; Home all axes
G1 Z2.0 F3000 ; Move Z Axis up little to prevent scratching of Heat Bed
G1 X0.1 Y20 Z0.3 F5000.0 ; Move to start position
G1 X0.1 Y200.0 Z0.3 F1500.0 E15 ; Draw the first line
G1 X0.4 Y200.0 Z0.3 F5000.0 ; Move to side a little
G1 X0.4 Y20 Z0.3 F1500.0 E30 ; Draw the second line
G92 E0 ; Reset Extruder
G1 Z2.0 F3000 ; Move Z Axis up little to prevent scratching of Heat Bed
G1 X5 Y20 Z0.3 F5000.0 ; Move over to prevent blob squish
G92 E0
G92 E0
G1 F2700 E-5
;LAYER_COUNT:90
;LAYER:0
M107
G0 F6000 X83.525 Y96.594 Z0.2
;TYPE:SKIRT
G1 F2700 E0
G1 F1200 X84.243 Y96.046 E0.03004
G1 X85.006 Y95.563 E0.06008
G1 X85.809 Y95.151 E0.09009
G1 X86.646 Y94.81 E0.12015
G1 X87.509 Y94.546 E0.15017
G1 X88.393 Y94.358 E0.18023
G1 X89.289 Y94.25 E0.21025
G1 X89.896 Y94.221 E0.23046
G1 X90.735 Y94.207 E0.25837
G1 X129.191 Y94.205 E1.53742
G1 X130.037 Y94.216 E1.56556
G1 X130.939 Y94.269 E1.59561
G1 X131.832 Y94.401 E1.62564
G1 X132.711 Y94.612 E1.6557
G1 X133.567 Y94.9 E1.68574
G1 X134.394 Y95.262 E1.71577
G1 X135.186 Y95.696 E1.74581
G1 X135.936 Y96.199 E1.77584
G1 X136.639 Y96.766 E1.80588
G1 X137.289 Y97.392 E1.8359
G1 X137.882 Y98.074 E1.86596
G1 X138.411 Y98.806 E1.89599
G1 X138.874 Y99.581 E1.92602
G1 X139.266 Y100.395 E1.95607
G1 X139.686 Y101.548 E1.99688
G1 X139.937 Y102.533 E2.03069
G1 X140.102 Y103.56 E2.06529
G1 X140.174 Y104.62 E2.10062
G1 X140.198 Y105.765 E2.13872
G1 X140.199 Y114.404 E2.42605
G1 X140.189 Y115.131 E2.45023
G1 X140.137 Y116.033 E2.48028
G1 X140.005 Y116.926 E2.51031
G1 X139.794 Y117.805 E2.54037
G1 X139.507 Y118.661 E2.5704
G1 X139.145 Y119.488 E2.60043
G1 X138.711 Y120.28 E2.63047
G1 X138.209 Y121.031 E2.66051
G1 X137.643 Y121.734 E2.69053
G1 X137.016 Y122.385 E2.72059
G1 X136.335 Y122.977 E2.7506
G1 X135.604 Y123.507 E2.78063
G1 X134.828 Y123.97 E2.81069
G1 X134.015 Y124.363 E2.84072
G1 X133.17 Y124.683 E2.87078
G1 X132.301 Y124.926 E2.90079
G1 X131.413 Y125.091 E2.93083
G1 X130.277 Y125.187 E2.96875
G1 X129.67 Y125.2 E2.98894
G1 X120.551 Y125.199 E3.29224
G1 X119.831 Y125.188 E3.31619
G1 X119.117 Y125.152 E3.33997
G1 X116.379 Y124.917 E3.43137
G1 X113.847 Y124.775 E3.51571
G1 X111.304 Y124.703 E3.60033
G1 X108.772 Y124.703 E3.68454
G1 X106.238 Y124.775 E3.76886
G1 X103.699 Y124.919 E3.85344
G1 X102.256 Y125.041 E3.90161
G1 X102.086 Y125.048 E3.90727
G1 X100.865 Y125.153 E3.94803
G1 X100.277 Y125.187 E3.96762
G1 X99.67 Y125.2 E3.98781
G1 X90.575 Y125.199 E4.29031
G1 X89.877 Y125.19 E4.31353
G1 X88.976 Y125.139 E4.34354
G1 X88.082 Y125.007 E4.3736
G1 X87.204 Y124.798 E4.40362
G1 X86.347 Y124.511 E4.43368
G1 X85.52 Y124.15 E4.46369
G1 X84.727 Y123.717 E4.49374
G1 X83.976 Y123.216 E4.52377
G1 X83.272 Y122.65 E4.55381
G1 X82.621 Y122.024 E4.58385
G1 X82.028 Y121.343 E4.61389
G1 X81.498 Y120.612 E4.64392
G1 X81.034 Y119.837 E4.67396
G1 X80.64 Y119.024 E4.70401
G1 X80.32 Y118.18 E4.73403
G1 X80.076 Y117.31 E4.76408
G1 X79.91 Y116.422 E4.79413
G1 X79.813 Y115.267 E4.83268
G1 X79.8 Y114.658 E4.85294
G1 X79.801 Y105.512 E5.15714
G1 X79.809 Y105.006 E5.17397
G1 X79.839 Y104.377 E5.19491
G1 X79.897 Y103.63 E5.21983
G1 X80.006 Y102.734 E5.24986
G1 X80.195 Y101.851 E5.27989
G1 X80.461 Y100.988 E5.30993
G1 X80.802 Y100.152 E5.33995
G1 X81.216 Y99.349 E5.37
G1 X81.699 Y98.586 E5.40004
G1 X82.248 Y97.869 E5.43007
G1 X82.858 Y97.203 E5.46011
G1 X83.525 Y96.594 E5.49015
G0 F6000 X83.282 Y96.276
G1 F1200 X84 Y95.728 E5.52019
G1 X84.823 Y95.207 E5.55259
G1 X85.626 Y94.795 E5.58261
G1 X86.529 Y94.427 E5.61504
G1 X87.392 Y94.163 E5.64506
G1 X88.345 Y93.961 E5.67746
G1 X89.27 Y93.85 E5.70845
G1 X89.889 Y93.821 E5.72906
G1 X90.735 Y93.807 E5.7572
G1 X129.196 Y93.805 E7.03642
G1 X130.06 Y93.817 E7.06516
G1 X130.997 Y93.873 E7.09638
G1 X131.89 Y94.005 E7.1264
G1 X132.839 Y94.233 E7.15886
G1 X133.695 Y94.521 E7.1889
G1 X134.586 Y94.911 E7.22125
G1 X135.409 Y95.364 E7.2525
G1 X136.159 Y95.867 E7.28253
G1 X136.916 Y96.478 E7.31489
G1 X137.591 Y97.13 E7.3461
G1 X138.184 Y97.812 E7.37616
G1 X138.735 Y98.572 E7.40738
G1 X139.234 Y99.407 E7.43974
G1 X139.642 Y100.258 E7.47113
G1 X140.074 Y101.449 E7.51326
G1 X140.325 Y102.434 E7.54707
G1 X140.497 Y103.497 E7.58289
G1 X140.574 Y104.612 E7.62006
G1 X140.598 Y105.765 E7.65842
G1 X140.599 Y114.41 E7.94595
G1 X140.588 Y115.154 E7.9707
G1 X140.533 Y116.091 E8.00192
G1 X140.401 Y116.984 E8.03194
G1 X140.183 Y117.898 E8.06319
G1 X139.886 Y118.788 E8.0944
G1 X139.496 Y119.68 E8.12678
G1 X139.044 Y120.502 E8.15798
G1 X138.521 Y121.282 E8.18922
G1 X137.955 Y121.985 E8.21923
G1 X137.278 Y122.687 E8.25167
G1 X136.57 Y123.301 E8.28284
G1 X135.809 Y123.851 E8.31407
G1 X135.033 Y124.314 E8.34413
G1 X134.157 Y124.737 E8.37648
G1 X133.312 Y125.057 E8.40653
G1 X132.374 Y125.319 E8.43893
G1 X131.447 Y125.49 E8.47028
G1 X130.311 Y125.586 E8.5082
G1 X129.67 Y125.6 E8.52952
G1 X120.545 Y125.599 E8.83302
G1 X119.811 Y125.587 E8.85744
G1 X119.083 Y125.551 E8.88168
G1 X116.345 Y125.315 E8.97308
G1 X113.836 Y125.175 E9.05666
G1 X111.293 Y125.103 E9.14128
G1 X108.783 Y125.103 E9.22476
G1 X106.249 Y125.175 E9.30907
G1 X103.733 Y125.318 E9.39289
G1 X102.272 Y125.441 E9.44166
G1 X102.114 Y125.447 E9.44692
G1 X100.888 Y125.552 E9.48784
G1 X100.286 Y125.587 E9.5079
G1 X99.679 Y125.6 E9.52809
G1 X90.57 Y125.599 E9.83106
G1 X89.854 Y125.589 E9.85488
G1 X88.918 Y125.535 E9.88606
G1 X88.024 Y125.403 E9.91612
G1 X87.111 Y125.187 E9.94732
G1 X86.187 Y124.878 E9.97973
G1 X85.36 Y124.517 E10.00974
G1 X84.505 Y124.05 E10.04214
G1 X83.725 Y123.528 E10.07336
G1 X83.021 Y122.962 E10.1034
G1 X82.319 Y122.287 E10.13579
G1 X81.726 Y121.606 E10.16583
G1 X81.174 Y120.847 E10.19704
G1 X80.674 Y120.011 E10.22944
G1 X80.266 Y119.166 E10.26065
G1 X79.946 Y118.322 E10.29067
G1 X79.683 Y117.384 E10.32307
G1 X79.511 Y116.455 E10.3545
G1 X79.413 Y115.276 E10.39385
G1 X79.4 Y114.658 E10.4144
G1 X79.401 Y105.506 E10.7188
G1 X79.409 Y104.987 E10.73607
G1 X79.44 Y104.346 E10.75741
G1 X79.5 Y103.582 E10.7829
G1 X79.615 Y102.65 E10.81413
G1 X79.804 Y101.767 E10.84417
G1 X80.079 Y100.87 E10.87537
G1 X80.446 Y99.969 E10.90773
G1 X80.86 Y99.166 E10.93778
G1 X81.381 Y98.343 E10.97018
G1 X81.93 Y97.626 E11.00021
G1 X82.588 Y96.908 E11.0326
G1 X83.282 Y96.276 E11.06382
G0 F6000 X83.039 Y95.958
G1 F1200 X83.757 Y95.41 E11.09386
G1 X84.64 Y94.851 E11.12862
G1 X85.443 Y94.439 E11.15864
G1 X86.412 Y94.044 E11.19345
G1 X87.275 Y93.78 E11.22346
G1 X88.297 Y93.564 E11.2582
G1 X89.251 Y93.45 E11.29016
G1 X89.882 Y93.421 E11.31117
G1 X90.735 Y93.407 E11.33954
G1 X129.202 Y93.405 E12.61896
G1 X130.084 Y93.418 E12.6483
G1 X131.055 Y93.477 E12.68066
G1 X131.948 Y93.609 E12.71068
G1 X132.967 Y93.854 E12.74554
G1 X133.823 Y94.142 E12.77558
G1 X134.779 Y94.561 E12.81029
G1 X135.632 Y95.032 E12.8427
G1 X136.382 Y95.535 E12.87274
G1 X137.194 Y96.19 E12.90744
G1 X137.869 Y96.842 E12.93865
G1 X138.508 Y97.577 E12.97104
G1 X139.059 Y98.337 E13.00226
G1 X139.595 Y99.234 E13.03702
G1 X140.003 Y100.085 E13.06841
G1 X140.462 Y101.35 E13.11317
G1 X140.713 Y102.335 E13.14698
G1 X140.892 Y103.433 E13.18398
G1 X140.974 Y104.604 E13.22302
G1 X140.998 Y105.765 E13.26164
G1 X140.999 Y114.416 E13.54938
G1 X140.987 Y115.177 E13.57469
G1 X140.929 Y116.149 E13.60708
G1 X140.797 Y117.042 E13.6371
G1 X140.572 Y117.991 E13.66954
G1 X140.253 Y118.948 E13.70309
G1 X139.847 Y119.873 E13.73669
G1 X139.395 Y120.695 E13.76789
G1 X138.833 Y121.533 E13.80145
G1 X138.243 Y122.263 E13.83267
G1 X137.566 Y122.965 E13.86511
G1 X136.832 Y123.603 E13.89745
G1 X136.014 Y124.195 E13.93104
G1 X135.238 Y124.658 E13.96109
G1 X134.299 Y125.111 E13.99577
G1 X133.454 Y125.431 E14.02582
G1 X132.447 Y125.712 E14.06059
G1 X131.481 Y125.889 E14.09326
G1 X130.345 Y125.985 E14.13118
G1 X129.67 Y126 E14.15363
G1 X120.538 Y125.999 E14.45736
G1 X119.791 Y125.987 E14.48221
G1 X119.049 Y125.95 E14.50692
G1 X116.311 Y125.713 E14.59833
G1 X113.825 Y125.575 E14.68114
G1 X111.282 Y125.503 E14.76575
G1 X108.794 Y125.503 E14.84851
G1 X106.26 Y125.575 E14.93282
G1 X103.767 Y125.717 E15.01587
G1 X102.287 Y125.841 E15.06527
G1 X102.142 Y125.847 E15.0701
G1 X100.911 Y125.951 E15.11119
G1 X100.295 Y125.987 E15.13171
G1 X99.679 Y126 E15.1522
G1 X90.564 Y125.999 E15.45537
G1 X89.831 Y125.988 E15.47975
G1 X88.86 Y125.931 E15.5121
G1 X87.966 Y125.799 E15.54216
G1 X86.984 Y125.566 E15.57573
G1 X86.027 Y125.245 E15.6093
G1 X85.2 Y124.884 E15.63931
G1 X84.313 Y124.401 E15.6729
G1 X83.474 Y123.84 E15.70647
G1 X82.77 Y123.274 E15.73652
G1 X82.017 Y122.55 E15.77126
G1 X81.424 Y121.869 E15.80129
G1 X80.831 Y121.052 E15.83487
G1 X80.314 Y120.185 E15.86845
G1 X79.892 Y119.308 E15.90082
G1 X79.572 Y118.464 E15.93084
G1 X79.298 Y117.492 E15.96443
G1 X79.112 Y116.488 E15.99839
G1 X79.014 Y115.309 E16.03774
G1 X79 Y114.658 E16.05939
G1 X79.001 Y105.5 E16.36399
G1 X79.009 Y104.968 E16.38169
G1 X79.041 Y104.315 E16.40343
G1 X79.103 Y103.533 E16.42952
G1 X79.218 Y102.601 E16.46076
G1 X79.413 Y101.683 E16.49197
G1 X79.709 Y100.719 E16.52551
G1 X80.09 Y99.786 E16.55903
G1 X80.504 Y98.983 E16.58908
G1 X81.063 Y98.1 E16.62384
G1 X81.612 Y97.383 E16.65387
G1 X82.319 Y96.612 E16.68867
G1 X83.039 Y95.958 E16.72102
G1 F2700 E11.72102
;MESH:????????????2.stl
G0 F6000 X89.383 Y104.48
G0 X90.434 Y104.82
G0 X91.972 Y113.028
G0 X98.093 Y113.027
G0 X99 Y114
;TYPE:WALL-INNER
G1 F2700 E16.72102
G1 F1200 X99 Y113.6 E16.73432
G1 X92.4 Y113.6 E16.95384
G1 X91.692 Y113.308 E16.97931
G1 F1194 X91.4 Y112.754 E17.00024
G1 X91.4 Y105.406 E17.24586
G1 F1200 X91 Y105.406 E17.25917
G1 X91.001 Y113.999 E17.54497
G1 X99 Y114 E17.81102
G0 F6000 X99.4 Y114.4
G1 F1200 X99.4 Y113.2 E17.85093
G1 X92.4 Y113.2 E18.08375
G1 X91.975 Y113.025 E18.09904
G1 X91.8 Y112.689 E18.11164
G1 X91.8 Y105.4 E18.35407
G1 X92.131 Y105.006 E18.37119
G1 X90.601 Y105.005 E18.42207
G1 X90.601 Y114.399 E18.73452
G1 X99.4 Y114.4 E19.02718
G1 F2700 E14.02718
G0 F6000 X99.13 Y114.13
G0 X99.572 Y113.028
G0 X91.972 Y113.028
G0 X91.972 Y104.972
G0 X128.028 Y104.972
G0 X128.028 Y113.028
G0 X121 Y114
G1 F2700 E19.02718
G1 F1200 X129 Y114 E19.29326
G1 X129 Y105.405 E19.57913
G1 X128.6 Y105.405 E19.59243
G1 F1194 X128.6 Y112.754 E19.83808
G1 X128.307 Y113.307 E19.859
G1 X127.754 Y113.6 E19.87992
G1 X121 Y113.6 E20.10568
G1 F1200 X121 Y114 E20.11899
G0 F6000 X120.6 Y114.4
G1 F1200 X129.4 Y114.4 E20.41168
G1 X129.398 Y105.005 E20.72416
G1 X127.806 Y105.006 E20.77711
G1 X128.2 Y105.4 E20.79564
G1 X128.2 Y112.689 E21.03807
G1 X128.025 Y113.025 E21.05067
G1 X127.689 Y113.2 E21.06327
G1 X120.6 Y113.2 E21.29905
G1 X120.6 Y114.4 E21.33897
G1 F2700 E16.33897
G0 F6000 X120.87 Y114.13
G0 X128.028 Y113.028
G0 X128.028 Y104.972
G0 X91.972 Y104.972
G0 X91.972 Y113.028
G0 X98.128 Y113.028
G0 X99.53 Y114.53
G0 X99.8 Y114.8
;TYPE:WALL-OUTER
G1 F2700 E21.33897
G1 F1200 X99.8 Y112.8 E21.40549
G1 X92.4 Y112.8 E21.65161
G1 X92.258 Y112.742 E21.65671
G1 X92.202 Y112.635 E21.66073
G1 X92.2 Y105.4 E21.90137
G1 F1066.7 X92.357 Y105.153 E21.91232
G1 F961.9 X127.6 Y105.152 E23.37462
G1 F1071.4 X127.8 Y105.4 E23.38649
G1 F1200 X127.798 Y112.635 E23.62713
G1 X127.742 Y112.742 E23.63114
G1 X127.635 Y112.798 E23.63516
G1 X120.2 Y112.8 E23.88245
G1 X120.2 Y114.8 E23.94897
G1 X129.8 Y114.8 E24.26827
G1 X129.8 Y105.006 E24.59402
G1 X129.761 Y104.605 E24.60742
G1 X128.595 Y104.605 E24.6462
G1 F1071.4 X127.6 Y104.654 E24.68331
G1 F961.9 X92.314 Y104.655 E26.14739
G1 F1066.7 X91.406 Y104.606 E26.18142
G1 F1200 X90.238 Y104.606 E26.22027
G1 X90.2 Y105 E26.23343
G1 X90.201 Y114.799 E26.55935
G1 X99.8 Y114.8 E26.87861
G0 F6000 X99.53 Y114.53
G0 X98.84 Y113.8
G0 X91.624 Y113.373
G0 X91.437 Y113.542
;TYPE:SKIN
G1 F979.6 X91.377 Y113.542 E26.88106
G1 X91.346 Y113.594 E26.88352
G1 X91.377 Y113.646 E26.88599
G1 X91.437 Y113.646 E26.88843
G1 X91.468 Y113.594 E26.8909
G1 F2700 E21.8909
G0 F6000 X91.624 Y113.373
G0 X91.972 Y104.972
G0 X128.028 Y104.972
G0 X128.149 Y113.586
G0 X127.2 Y113.8
G0 X129.082 Y114.082
G0 X128.899 Y113.592
G0 X128.654 Y113.593
G1 F2700 E26.8909
G1 F975.6 X128.623 Y113.645 E26.89338
G1 X128.563 Y113.645 E26.89583
G1 X128.532 Y113.593 E26.89831
G1 X128.563 Y113.541 E26.90079
G1 X128.623 Y113.541 E26.90324
G0 F6000 X128.8 Y113.537
G1 F2700 E21.90324
;MESH:NOMESH
G0 F300 X128.8 Y113.537 Z0.4
G0 F6000 X128.898 Y113.538
G0 X128.028 Y104.972
G0 X92.275 Y104.906
G0 X92.275 Y104.684
;TIME_ELAPSED:53.521895
;LAYER:1
M106 S85
;TYPE:WALL-INNER
;MESH:????????????2.stl
G1 F2700 E26.90324
G1 F832 X109.938 Y104.682 E27.85642
G1 F838.5 X127.601 Y104.679 E28.80225
G0 F7500 X128.028 Y104.972
G0 X128.028 Y113.028
G0 X121 Y114
G1 F1350 X129 Y114 E29.06833
G1 X129 Y105.4 E29.35437
G1 F1343.3 X128.993 Y104.964 E29.36894
G1 F1323.5 X128.29 Y104.963 E29.39279
G1 F1320.3 X128.6 Y105.219 E29.40647
G1 F1333.3 X128.6 Y112.754 E29.66021
G1 F1343.3 X128.307 Y113.307 E29.68113
G1 X127.754 Y113.6 E29.70205
G1 X121 Y113.6 E29.92781
G1 F1350 X121 Y114 E29.94112
G0 F7500 X120.6 Y114.4
G1 F1350 X129.4 Y114.4 E30.23381
G1 X129.4 Y105.026 E30.54559
G1 X129.371 Y104.731 E30.55545
G1 X129.318 Y104.559 E30.56143
G1 X128.789 Y104.558 E30.57903
G1 F1173.9 X128.195 Y104.618 E30.60186
G1 F929.4 X127.6 Y104.679 E30.63076
G1 X127.9 Y104.987 E30.65153
G1 F1173.9 X128.2 Y105.295 E30.66798
G1 F1350 X128.2 Y112.689 E30.9139
G1 X128.025 Y113.025 E30.9265
G1 X127.689 Y113.2 E30.9391
G1 X120.6 Y113.2 E31.17488
G1 X120.6 Y114.4 E31.2148
G1 F2700 E26.2148
G0 F7500 X120.87 Y114.13
G0 X128.028 Y113.028
G0 X128.028 Y104.972
G0 X91.972 Y104.972
G0 X91.972 Y113.028
G0 X98.128 Y113.028
G0 X99 Y114
G1 F2700 E31.2148
G1 F1350 X99 Y113.6 E31.2281
G1 X92.4 Y113.6 E31.44762
G1 X91.692 Y113.308 E31.47309
G1 F1343.3 X91.4 Y112.754 E31.49402
G1 F1333.3 X91.4 Y105.221 E31.7477
G1 F1320.3 X91.662 Y104.963 E31.76021
G1 F1323.5 X91.005 Y104.963 E31.7825
G1 F1343.3 X91.001 Y113.999 E32.08454
G1 F1350 X99 Y114 E32.35059
G0 F7500 X99.4 Y114.4
G1 F1350 X99.4 Y113.2 E32.3905
G1 X92.4 Y113.2 E32.62332
G1 X91.975 Y113.025 E32.63861
G1 X91.8 Y112.689 E32.65121
G1 X91.8 Y105.298 E32.89703
G1 F1026.6 X92.275 Y104.684 E32.93098
G1 F916.8 X91.743 Y104.621 E32.95722
G1 F1166.3 X91.211 Y104.558 E32.97785
G1 F1350 X90.682 Y104.558 E32.99544
G1 X90.629 Y104.732 E33.00149
G1 X90.6 Y105.02 E33.01112
G1 X90.601 Y114.399 E33.32306
G1 X99.4 Y114.4 E33.61572
G0 F7500 X99.8 Y114.8
;TYPE:WALL-OUTER
G1 F1350 X99.8 Y112.8 E33.68224
G1 X92.4 Y112.8 E33.92836
G1 X92.258 Y112.742 E33.93347
G1 X92.202 Y112.635 E33.93748
G1 X92.203 Y105.361 E34.17942
G1 X92.365 Y105.202 E34.18697
G1 X127.6 Y105.2 E35.35889
G1 X127.797 Y105.361 E35.36735
G1 X127.798 Y112.635 E35.60928
G1 X127.742 Y112.742 E35.6133
G1 X127.635 Y112.798 E35.61732
G1 X120.2 Y112.8 E35.86461
G1 X120.2 Y114.8 E35.93113
G1 X129.8 Y114.8 E36.25042
G1 X129.8 Y105.006 E36.57617
G1 X129.765 Y104.653 E36.58797
G1 X129.661 Y104.312 E36.59983
G1 X129.579 Y104.159 E36.6056
G1 X90.421 Y104.158 E37.908
G1 X90.34 Y104.31 E37.91373
G1 X90.235 Y104.653 E37.92566
G1 X90.2 Y105 E37.93726
G1 X90.201 Y114.799 E38.26318
G1 X99.8 Y114.8 E38.58244
G0 F7500 X99.53 Y114.53
G0 X98.84 Y113.8
G0 X91.624 Y113.373
G0 X91.437 Y113.542
;TYPE:SKIN
G1 F1102 X91.377 Y113.542 E38.58489
G1 X91.346 Y113.594 E38.58735
G1 X91.377 Y113.646 E38.58982
G1 X91.437 Y113.646 E38.59227
G1 X91.468 Y113.594 E38.59473
G1 F2700 E33.59473
G0 F7500 X91.624 Y113.373
G0 X91.972 Y104.972
G0 X128.028 Y104.972
G0 X128.149 Y113.586
G0 X127.2 Y113.8
G0 X129.082 Y114.082
G0 X128.899 Y113.592
G0 X128.654 Y113.593
G1 F2700 E38.59473
G1 F1097.6 X128.623 Y113.645 E38.59721
G1 X128.563 Y113.645 E38.59966
G1 X128.532 Y113.593 E38.60214
G1 X128.563 Y113.541 E38.60462
G1 X128.623 Y113.541 E38.60707
G0 F7500 X128.8 Y113.537
G1 F2700 E33.60707
;MESH:NOMESH
G0 F300 X128.8 Y113.537 Z0.6
G0 F7500 X128.898 Y113.538
G0 X128.028 Y104.972
G0 X91.972 Y104.972
G0 X91.972 Y113.028
G0 X98.128 Y113.028
G0 X99 Y114
