;FLAVOR:Marlin
;TIME:12092
;Filament used: 6.86953m
;Layer height: 0.2
;MINX:93.001
;MINY:66.734
;MINZ:0.2
;MAXX:127
;MAXY:134.766
;MAXZ:87
;Generated with Cura_SteamEngine 5.3.0
M140 S60
M105
M190 S60
M104 S230
M105
M109 S230
M82 ;absolute extrusion mode
; Ender 3 Custom Start G-code
G92 E0 ; Reset Extruder
G28 ; Home all axes
G1 Z2.0 F3000 ; Move Z Axis up little to prevent scratching of Heat Bed
G1 X0.1 Y20 Z0.3 F5000.0 ; Move to start position
G1 X0.1 Y200.0 Z0.3 F1500.0 E15 ; Draw the first line
G1 X0.4 Y200.0 Z0.3 F5000.0 ; Move to side a little
G1 X0.4 Y20 Z0.3 F1500.0 E30 ; Draw the second line
G92 E0 ; Reset Extruder
G1 Z2.0 F3000 ; Move Z Axis up little to prevent scratching of Heat Bed
G1 X5 Y20 Z0.3 F5000.0 ; Move over to prevent blob squish
G92 E0
G92 E0
G1 F2700 E-5
;LAYER_COUNT:435
;LAYER:0
M107
G0 F6000 X95.798 Y71.692 Z0.2
;TYPE:SKIRT
G1 F2700 E0
G1 F1200 X96.366 Y70.99 E0.03003
G1 X96.993 Y70.34 E0.06007
G1 X97.675 Y69.748 E0.09011
G1 X98.407 Y69.219 E0.12015
G1 X99.183 Y68.757 E0.15019
G1 X99.997 Y68.366 E0.18022
G1 X100.842 Y68.047 E0.21026
G1 X101.712 Y67.805 E0.2403
G1 X102.6 Y67.641 E0.27033
G1 X103.723 Y67.547 E0.30781
G1 X104.33 Y67.534 E0.32801
G1 X115.293 Y67.534 E0.69264
G1 X116.137 Y67.545 E0.72071
G1 X117.039 Y67.598 E0.75076
G1 X117.932 Y67.73 E0.78079
G1 X118.81 Y67.941 E0.81082
G1 X119.666 Y68.229 E0.84086
G1 X120.493 Y68.591 E0.87089
G1 X121.285 Y69.026 E0.90094
G1 X122.036 Y69.528 E0.93098
G1 X122.739 Y70.095 E0.96102
G1 X123.389 Y70.722 E0.99106
G1 X123.981 Y71.404 E1.0211
G1 X124.511 Y72.135 E1.05113
G1 X124.973 Y72.911 E1.08117
G1 X125.366 Y73.724 E1.1112
G1 X125.684 Y74.569 E1.14123
G1 X125.927 Y75.439 E1.17128
G1 X126.092 Y76.327 E1.20132
G1 X126.187 Y77.457 E1.23903
G1 X126.2 Y78.064 E1.25923
G1 X126.199 Y91.061 E1.69151
G1 X126.189 Y91.767 E1.71499
G1 X126.165 Y92.341 E1.7341
G1 X126.076 Y93.6 E1.77608
G1 X125.928 Y96.22 E1.86336
G1 X125.856 Y98.754 E1.94767
G1 X125.856 Y101.288 E2.03196
G1 X125.928 Y103.826 E2.1164
G1 X126.091 Y106.653 E2.21059
G1 X126.161 Y107.608 E2.24244
G1 X126.187 Y108.191 E2.26185
G1 X126.199 Y108.958 E2.28736
G1 X126.199 Y121.67 E2.71016
G1 X126.189 Y122.399 E2.73441
G1 X126.137 Y123.3 E2.76443
G1 X126.005 Y124.194 E2.79448
G1 X125.794 Y125.072 E2.82452
G1 X125.507 Y125.928 E2.85455
G1 X125.145 Y126.756 E2.8846
G1 X124.712 Y127.548 E2.91462
G1 X124.21 Y128.299 E2.94467
G1 X123.643 Y129.002 E2.97471
G1 X123.017 Y129.653 E3.00475
G1 X122.335 Y130.245 E3.03479
G1 X121.604 Y130.775 E3.06482
G1 X120.829 Y131.238 E3.09484
G1 X120.015 Y131.631 E3.12491
G1 X119.095 Y131.975 E3.15757
G1 X117.651 Y132.437 E3.208
G1 X114.786 Y133.412 E3.30866
G1 X113.919 Y133.665 E3.3387
G1 X113.033 Y133.84 E3.36874
G1 X111.809 Y133.951 E3.40961
G1 X111.17 Y133.966 E3.43087
G1 X109.054 Y133.965 E3.50125
G1 X108.356 Y133.955 E3.52447
G1 X107.454 Y133.902 E3.55452
G1 X106.561 Y133.77 E3.58454
G1 X105.265 Y133.429 E3.62912
G1 X104.524 Y133.181 E3.65511
G1 X103.37 Y132.774 E3.69581
G1 X102.265 Y132.424 E3.73436
G1 X102.092 Y132.361 E3.74048
G1 X100.837 Y131.95 E3.7844
G1 X99.992 Y131.631 E3.81444
G1 X99.178 Y131.239 E3.84449
G1 X98.403 Y130.776 E3.87452
G1 X97.671 Y130.247 E3.90456
G1 X96.989 Y129.655 E3.9346
G1 X96.362 Y129.005 E3.96463
G1 X95.795 Y128.302 E3.99467
G1 X95.292 Y127.552 E4.02471
G1 X94.858 Y126.76 E4.05475
G1 X94.496 Y125.933 E4.08477
G1 X94.208 Y125.077 E4.11481
G1 X93.997 Y124.199 E4.14485
G1 X93.864 Y123.305 E4.17491
G1 X93.811 Y122.411 E4.20469
G1 X93.801 Y121.755 E4.22652
G1 X93.801 Y108.941 E4.65271
G1 X93.811 Y108.224 E4.67656
G1 X93.836 Y107.642 E4.69594
G1 X93.922 Y106.436 E4.73615
G1 X94.072 Y103.78 E4.82463
G1 X94.144 Y101.246 E4.90894
G1 X94.144 Y98.712 E4.99323
G1 X94.072 Y96.174 E5.07767
G1 X93.909 Y93.347 E5.17186
G1 X93.839 Y92.392 E5.20371
G1 X93.813 Y91.809 E5.22311
G1 X93.801 Y91.042 E5.24863
G1 X93.801 Y78.255 E5.67393
G1 X93.811 Y77.59 E5.69605
G1 X93.865 Y76.688 E5.7261
G1 X93.998 Y75.795 E5.75613
G1 X94.209 Y74.917 E5.78616
G1 X94.498 Y74.061 E5.81621
G1 X94.861 Y73.234 E5.84625
G1 X95.295 Y72.443 E5.87626
G1 X95.798 Y71.692 E5.90632
G0 F6000 X95.487 Y71.44
G1 F1200 X96.078 Y70.712 E5.93751
G1 X96.705 Y70.062 E5.96755
G1 X97.413 Y69.446 E5.99876
G1 X98.202 Y68.875 E6.03116
G1 X98.978 Y68.413 E6.06119
G1 X99.824 Y68.005 E6.09243
G1 X100.735 Y67.662 E6.12481
G1 X101.639 Y67.412 E6.15601
G1 X102.567 Y67.242 E6.18739
G1 X103.714 Y67.147 E6.22567
G1 X104.321 Y67.134 E6.24586
G1 X115.298 Y67.134 E6.61096
G1 X116.16 Y67.146 E6.63963
G1 X117.097 Y67.202 E6.67085
G1 X117.99 Y67.334 E6.70087
G1 X118.938 Y67.562 E6.7333
G1 X119.794 Y67.85 E6.76334
G1 X120.686 Y68.24 E6.79572
G1 X121.478 Y68.675 E6.82577
G1 X122.258 Y69.195 E6.85695
G1 X123.017 Y69.807 E6.88938
G1 X123.667 Y70.434 E6.91942
G1 X124.305 Y71.169 E6.95179
G1 X124.855 Y71.93 E6.98302
G1 X125.317 Y72.706 E7.01306
G1 X125.74 Y73.583 E7.04544
G1 X126.069 Y74.461 E7.07663
G1 X126.32 Y75.366 E7.10787
G1 X126.491 Y76.293 E7.13922
G1 X126.586 Y77.423 E7.17694
G1 X126.6 Y78.064 E7.19826
G1 X126.599 Y91.067 E7.63074
G1 X126.589 Y91.784 E7.65459
G1 X126.564 Y92.369 E7.67407
G1 X126.475 Y93.628 E7.71605
G1 X126.328 Y96.231 E7.80276
G1 X126.256 Y98.765 E7.88707
G1 X126.256 Y101.288 E7.97099
G1 X126.328 Y103.815 E8.05507
G1 X126.49 Y106.624 E8.14866
G1 X126.561 Y107.59 E8.18087
G1 X126.587 Y108.185 E8.20068
G1 X126.599 Y108.952 E8.22619
G1 X126.599 Y121.675 E8.64936
G1 X126.588 Y122.422 E8.67421
G1 X126.533 Y123.358 E8.7054
G1 X126.401 Y124.252 E8.73545
G1 X126.183 Y125.165 E8.76667
G1 X125.874 Y126.088 E8.79905
G1 X125.512 Y126.916 E8.8291
G1 X125.045 Y127.77 E8.86148
G1 X124.543 Y128.521 E8.89152
G1 X123.954 Y129.253 E8.92277
G1 X123.279 Y129.955 E8.95516
G1 X122.57 Y130.569 E8.98636
G1 X121.839 Y131.099 E9.01639
G1 X121.003 Y131.598 E9.04877
G1 X120.155 Y132.006 E9.08007
G1 X119.217 Y132.356 E9.11337
G1 X117.78 Y132.816 E9.16355
G1 X114.898 Y133.796 E9.2648
G1 X114.031 Y134.049 E9.29484
G1 X113.069 Y134.238 E9.32745
G1 X111.818 Y134.351 E9.36922
G1 X111.179 Y134.366 E9.39048
G1 X109.048 Y134.365 E9.46136
G1 X108.333 Y134.354 E9.48514
G1 X107.396 Y134.298 E9.51636
G1 X106.459 Y134.157 E9.54788
G1 X105.163 Y133.816 E9.59245
G1 X104.391 Y133.558 E9.61952
G1 X103.243 Y133.153 E9.66001
G1 X102.128 Y132.8 E9.69891
G1 X101.955 Y132.737 E9.70504
G1 X100.696 Y132.324 E9.74911
G1 X99.818 Y131.991 E9.78034
G1 X99.004 Y131.599 E9.81039
G1 X98.169 Y131.1 E9.84274
G1 X97.409 Y130.549 E9.87396
G1 X96.701 Y129.933 E9.90518
G1 X96.074 Y129.283 E9.93522
G1 X95.463 Y128.525 E9.9676
G1 X94.941 Y127.744 E9.99884
G1 X94.507 Y126.952 E10.02888
G1 X94.117 Y126.061 E10.06123
G1 X93.819 Y125.17 E10.09248
G1 X93.601 Y124.258 E10.12366
G1 X93.468 Y123.364 E10.15373
G1 X93.411 Y122.417 E10.18528
G1 X93.401 Y121.761 E10.2071
G1 X93.401 Y108.935 E10.6337
G1 X93.411 Y108.207 E10.65791
G1 X93.437 Y107.614 E10.67765
G1 X93.523 Y106.408 E10.71787
G1 X93.672 Y103.769 E10.80578
G1 X93.744 Y101.235 E10.8901
G1 X93.744 Y98.712 E10.97401
G1 X93.672 Y96.185 E11.05809
G1 X93.51 Y93.37 E11.15188
G1 X93.439 Y92.41 E11.18389
G1 X93.413 Y91.815 E11.2037
G1 X93.401 Y91.048 E11.22922
G1 X93.401 Y78.249 E11.65491
G1 X93.412 Y77.566 E11.67763
G1 X93.469 Y76.629 E11.70885
G1 X93.602 Y75.736 E11.73888
G1 X93.83 Y74.789 E11.77128
G1 X94.119 Y73.933 E11.80133
G1 X94.51 Y73.042 E11.83369
G1 X94.944 Y72.251 E11.8637
G1 X95.487 Y71.44 E11.89616
G0 F6000 X95.176 Y71.188
G1 F1200 X95.79 Y70.434 E11.9285
G1 X96.442 Y69.76 E11.95969
G1 X97.15 Y69.144 E11.99091
G1 X97.997 Y68.531 E12.02568
G1 X98.773 Y68.069 E12.05572
G1 X99.683 Y67.631 E12.08931
G1 X100.628 Y67.276 E12.12289
G1 X101.532 Y67.026 E12.15408
G1 X102.534 Y66.843 E12.18796
G1 X103.705 Y66.747 E12.22704
G1 X104.312 Y66.734 E12.24723
G1 X115.304 Y66.734 E12.61283
G1 X116.184 Y66.747 E12.6421
G1 X117.155 Y66.806 E12.67445
G1 X118.084 Y66.945 E12.7057
G1 X119.032 Y67.173 E12.73813
G1 X119.954 Y67.483 E12.77048
G1 X120.879 Y67.889 E12.80408
G1 X121.671 Y68.324 E12.83413
G1 X122.48 Y68.862 E12.86645
G1 X123.295 Y69.519 E12.90126
G1 X123.945 Y70.146 E12.9313
G1 X124.607 Y70.907 E12.96485
G1 X125.199 Y71.725 E12.99843
G1 X125.661 Y72.501 E13.02847
G1 X126.115 Y73.443 E13.06325
G1 X126.444 Y74.321 E13.09444
G1 X126.713 Y75.293 E13.12798
G1 X126.89 Y76.259 E13.16065
G1 X126.985 Y77.389 E13.19836
G1 X127 Y78.064 E13.22082
G1 X126.999 Y91.073 E13.6535
G1 X126.989 Y91.801 E13.67771
G1 X126.963 Y92.397 E13.69756
G1 X126.874 Y93.656 E13.73954
G1 X126.728 Y96.242 E13.82568
G1 X126.656 Y98.776 E13.91
G1 X126.656 Y101.288 E13.99355
G1 X126.728 Y103.804 E14.07726
G1 X126.889 Y106.595 E14.17025
G1 X126.961 Y107.573 E14.20286
G1 X126.987 Y108.179 E14.22304
G1 X126.999 Y108.946 E14.24855
G1 X126.999 Y121.681 E14.67212
G1 X126.987 Y122.445 E14.69753
G1 X126.929 Y123.416 E14.72989
G1 X126.797 Y124.31 E14.75994
G1 X126.572 Y125.258 E14.79235
G1 X126.241 Y126.248 E14.82707
G1 X125.879 Y127.076 E14.85713
G1 X125.378 Y127.992 E14.89185
G1 X124.855 Y128.772 E14.92309
G1 X124.266 Y129.504 E14.95434
G1 X123.541 Y130.257 E14.9891
G1 X122.805 Y130.893 E15.02146
G1 X122.074 Y131.423 E15.05149
G1 X121.208 Y131.941 E15.08505
G1 X120.295 Y132.381 E15.11876
G1 X119.339 Y132.737 E15.15269
G1 X117.909 Y133.195 E15.20263
G1 X115.01 Y134.18 E15.30446
G1 X114.143 Y134.433 E15.3345
G1 X113.105 Y134.636 E15.36968
G1 X111.827 Y134.751 E15.41236
G1 X111.179 Y134.766 E15.43392
G1 X109.042 Y134.765 E15.505
G1 X108.309 Y134.753 E15.52938
G1 X107.336 Y134.694 E15.5618
G1 X106.399 Y134.553 E15.59332
G1 X105.061 Y134.203 E15.63932
G1 X104.258 Y133.935 E15.66747
G1 X103.116 Y133.532 E15.70775
G1 X101.991 Y133.176 E15.747
G1 X101.818 Y133.113 E15.75312
G1 X100.554 Y132.698 E15.79737
G1 X99.676 Y132.365 E15.8286
G1 X98.83 Y131.959 E15.85981
G1 X97.934 Y131.424 E15.89452
G1 X97.146 Y130.851 E15.92693
G1 X96.438 Y130.235 E15.95814
G1 X95.786 Y129.561 E15.98933
G1 X95.13 Y128.747 E16.0241
G1 X94.608 Y127.966 E16.05535
G1 X94.156 Y127.144 E16.08655
G1 X93.738 Y126.188 E16.12125
G1 X93.43 Y125.263 E16.15368
G1 X93.205 Y124.317 E16.18602
G1 X93.072 Y123.423 E16.21608
G1 X93.011 Y122.423 E16.2494
G1 X93.001 Y121.767 E16.27122
G1 X93.001 Y108.93 E16.69818
G1 X93.011 Y108.189 E16.72283
G1 X93.038 Y107.586 E16.74291
G1 X93.124 Y106.38 E16.78312
G1 X93.272 Y103.758 E16.87047
G1 X93.344 Y101.224 E16.95478
G1 X93.344 Y98.712 E17.03833
G1 X93.272 Y96.196 E17.12205
G1 X93.111 Y93.4 E17.2152
G1 X93.039 Y92.427 E17.24765
G1 X93.013 Y91.821 E17.26782
G1 X93.001 Y91.054 E17.29334
G1 X93.001 Y78.243 E17.71943
G1 X93.013 Y77.542 E17.74275
G1 X93.073 Y76.57 E17.77514
G1 X93.206 Y75.677 E17.80517
G1 X93.441 Y74.695 E17.83875
G1 X93.74 Y73.805 E17.86998
G1 X94.159 Y72.85 E17.90467
G1 X94.593 Y72.059 E17.93468
G1 X95.176 Y71.188 E17.96954
G1 F2700 E12.96954
G0 F6000 X104.2 Y77.934
G1 F2700 E17.96954
G1 F1200 X115.8 Y77.934 E18.35535
G1 X115.8 Y91.476 E18.80576
G1 X115.587 Y91.541 E18.81317
G1 X115.156 Y90.898 E18.83892
G1 X115.101 Y90.843 E18.8415
G1 X114.187 Y90.231 E18.87809
G1 X114.115 Y90.201 E18.88068
G1 X113.119 Y90.004 E18.91445
G1 X113.08 Y90 E18.91575
G1 X106.92 Y90 E19.12064
G1 X106.881 Y90.004 E19.12194
G1 X105.886 Y90.201 E19.15568
G1 X105.814 Y90.231 E19.15827
G1 X104.9 Y90.843 E19.19486
G1 X104.845 Y90.897 E19.19742
G1 X104.412 Y91.541 E19.22323
G1 X104.2 Y91.476 E19.23061
G1 X104.2 Y77.934 E19.68101
G0 F6000 X104.6 Y78.334
G1 F1200 X115.4 Y78.334 E20.04022
G1 X115.4 Y90.586 E20.44773
G1 X115.324 Y90.51 E20.4513
G1 X114.41 Y89.898 E20.48789
G1 X114.192 Y89.808 E20.49573
G1 X113.196 Y89.611 E20.5295
G1 X113.08 Y89.6 E20.53338
G1 X106.92 Y89.6 E20.73826
G1 X106.803 Y89.611 E20.74217
G1 X105.808 Y89.808 E20.7759
G1 X105.591 Y89.898 E20.78372
G1 X104.677 Y90.51 E20.8203
G1 X104.6 Y90.587 E20.82392
G1 X104.6 Y78.334 E21.23146
G0 F6000 X105 Y78.734
G1 F1200 X115 Y78.734 E21.56406
G1 X115 Y89.812 E21.93252
G1 X114.632 Y89.566 E21.94724
G1 X114.27 Y89.416 E21.96027
G1 X113.274 Y89.219 E21.99404
G1 X113.08 Y89.2 E22.00053
G1 X106.92 Y89.2 E22.20541
G1 X106.726 Y89.219 E22.21189
G1 X105.731 Y89.416 E22.24563
G1 X105.369 Y89.566 E22.25866
G1 X105 Y89.813 E22.27343
G1 X105 Y78.734 E22.64192
G0 F6000 X105.4 Y79.134
G1 F1200 X114.6 Y79.134 E22.94791
G1 X114.6 Y89.104 E23.27952
G1 X114.557 Y89.082 E23.28112
G1 X114.348 Y89.024 E23.28834
G1 X113.352 Y88.827 E23.3221
G1 X113.08 Y88.8 E23.3312
G1 X106.92 Y88.8 E23.53608
G1 X106.648 Y88.827 E23.54517
G1 X105.653 Y89.024 E23.57891
G1 X105.4 Y89.106 E23.58775
G1 X105.4 Y79.134 E23.91942
G0 F6000 X105.8 Y79.534
G1 F1200 X114.2 Y79.534 E24.19881
G1 X114.2 Y88.586 E24.49988
G1 X113.429 Y88.434 E24.52601
G1 X113.08 Y88.4 E24.53768
G1 X106.92 Y88.4 E24.74256
G1 X106.57 Y88.434 E24.75426
G1 X105.8 Y88.586 E24.78036
G1 X105.8 Y79.534 E25.08143
G0 F6000 X106.2 Y79.934
G1 F1200 X113.8 Y79.934 E25.33421
G1 X113.8 Y88.1 E25.60581
G1 X113.507 Y88.042 E25.61574
G1 X113.08 Y88 E25.63001
G1 X106.92 Y88 E25.8349
G1 X106.493 Y88.042 E25.84917
G1 X106.2 Y88.1 E25.8591
G1 X106.2 Y79.934 E26.1307
G0 F6000 X106.6 Y80.334
G1 F1200 X113.4 Y80.334 E26.35687
G1 X113.4 Y87.631 E26.59957
G1 X113.08 Y87.6 E26.61027
G1 X106.92 Y87.6 E26.81515
G1 X106.6 Y87.632 E26.82584
G1 X106.6 Y80.334 E27.06858
G0 F6000 X107 Y80.734
G1 F1200 X113 Y80.734 E27.26814
G1 X113 Y87.2 E27.4832
G1 X107 Y87.2 E27.68276
G1 X107 Y80.734 E27.89782
G0 F6000 X107.4 Y81.134
G1 F1200 X112.6 Y81.134 E28.07077
G1 X112.6 Y86.8 E28.25922
G1 X107.4 Y86.8 E28.43218
G1 X107.4 Y81.134 E28.62063
G0 F6000 X107.8 Y81.534
G1 F1200 X112.2 Y81.534 E28.76697
G1 X112.2 Y86.4 E28.92882
G1 X107.8 Y86.4 E29.07516
G1 X107.8 Y81.534 E29.237
G1 F2700 E24.237
G0 F6000 X107.335 Y81.534
G0 X104.526 Y91.977
G0 X104.336 Y92.935
G0 X104.336 Y105.651
G0 X104.413 Y108.459
G1 F2700 E29.237
G1 F1200 X104.844 Y109.102 E29.26275
G1 X104.899 Y109.157 E29.26534
G1 X105.813 Y109.769 E29.30192
G1 X105.885 Y109.799 E29.30452
G1 X106.881 Y109.996 E29.33829
G1 X106.92 Y110 E29.33959
G1 X113.08 Y110 E29.54447
G1 X113.119 Y109.996 E29.54578
G1 X114.114 Y109.799 E29.57951
G1 X114.186 Y109.769 E29.58211
G1 X115.1 Y109.157 E29.61869
G1 X115.155 Y109.103 E29.62126
G1 X115.588 Y108.459 E29.64707
G1 X115.8 Y108.524 E29.65444
G1 X115.8 Y122.093 E30.10575
G1 X114.837 Y122.234 E30.13812
G1 X114.829 Y122.235 E30.13839
G1 X114.358 Y122.323 E30.15432
G1 X114.349 Y122.325 E30.15463
G1 X113.788 Y122.458 E30.17381
G1 X113.779 Y122.461 E30.17412
G1 X113.114 Y122.652 E30.19714
G1 X113.094 Y122.659 E30.19784
G1 X112.537 Y122.885 E30.21783
G1 X112.528 Y122.889 E30.21816
G1 X112.034 Y123.118 E30.23627
G1 X112.026 Y123.121 E30.23655
G1 X111.408 Y123.44 E30.25969
G1 X111.321 Y123.529 E30.26383
G1 X111.312 Y123.566 E30.26509
G1 X108.677 Y123.566 E30.35273
G1 X108.654 Y123.495 E30.35521
G1 X108.586 Y123.437 E30.35819
G1 X107.858 Y123.057 E30.3855
G1 X107.852 Y123.054 E30.38572
G1 X107.442 Y122.856 E30.40087
G1 X107.432 Y122.852 E30.40123
G1 X107.175 Y122.744 E30.4105
G1 X107.162 Y122.739 E30.41096
G1 X106.651 Y122.566 E30.4289
G1 X106.641 Y122.562 E30.42926
G1 X106.228 Y122.446 E30.44353
G1 X106.219 Y122.444 E30.44384
G1 X105.507 Y122.278 E30.46815
G1 X105.501 Y122.277 E30.46836
G1 X105.109 Y122.199 E30.48165
G1 X105.102 Y122.198 E30.48188
G1 X104.388 Y122.084 E30.50593
G1 X104.366 Y122.081 E30.50667
G1 X104.2 Y122.073 E30.5122
G1 X104.2 Y108.524 E30.96284
G1 X104.413 Y108.459 E30.97025
G0 F6000 X104.6 Y109.414
G1 F1200 X104.676 Y109.49 E30.97382
G1 X105.59 Y110.102 E31.01041
G1 X105.808 Y110.192 E31.01825
G1 X106.804 Y110.389 E31.05202
G1 X106.92 Y110.4 E31.0559
G1 X113.08 Y110.4 E31.26078
G1 X113.197 Y110.389 E31.26469
G1 X114.192 Y110.192 E31.29842
G1 X114.409 Y110.102 E31.30624
G1 X115.323 Y109.49 E31.34282
G1 X115.4 Y109.413 E31.34644
G1 X115.4 Y121.747 E31.75668
G1 X114.779 Y121.838 E31.77755
G1 X114.756 Y121.842 E31.77833
G1 X114.285 Y121.93 E31.79426
G1 X114.257 Y121.936 E31.79522
G1 X113.696 Y122.069 E31.81439
G1 X113.668 Y122.076 E31.81535
G1 X113.003 Y122.267 E31.83836
G1 X112.943 Y122.288 E31.84048
G1 X112.386 Y122.514 E31.86047
G1 X112.36 Y122.526 E31.86142
G1 X111.866 Y122.755 E31.87953
G1 X111.843 Y122.766 E31.88038
