;FLAVOR:Marlin
;TIME:1563
;Filament used: 0.940623m
;Layer height: 0.2
;MINX:87.918
;MINY:77.916
;MINZ:0.2
;MAXX:132.082
;MAXY:122.084
;MAXZ:18
;Generated with Cura_SteamEngine 5.3.0
M140 S60
M105
M190 S60
M104 S220
M105
M109 S220
M82 ;absolute extrusion mode
; Ender 3 Custom Start G-code
G92 E0 ; Reset Extruder
G28 ; Home all axes
G1 Z2.0 F3000 ; Move Z Axis up little to prevent scratching of Heat Bed
G1 X0.1 Y20 Z0.3 F5000.0 ; Move to start position
G1 X0.1 Y200.0 Z0.3 F1500.0 E15 ; Draw the first line
G1 X0.4 Y200.0 Z0.3 F5000.0 ; Move to side a little
G1 X0.4 Y20 Z0.3 F1500.0 E30 ; Draw the second line
G92 E0 ; Reset Extruder
G1 Z2.0 F3000 ; Move Z Axis up little to prevent scratching of Heat Bed
G1 X5 Y20 Z0.3 F5000.0 ; Move over to prevent blob squish
G92 E0
G92 E0
G1 F2700 E-5
;LAYER_COUNT:90
;LAYER:0
M107
G0 F6000 X94.035 Y85.92 Z0.2
;TYPE:SKIRT
G1 F2700 E0
G1 F1200 X94.597 Y85.314 E0.02749
G1 X95.098 Y84.801 E0.05134
G1 X95.668 Y84.26 E0.07748
G1 X96.051 Y83.924 E0.09442
G1 X96.83 Y83.278 E0.12808
G1 X97.429 Y82.822 E0.15312
G1 X98.128 Y82.336 E0.18144
G1 X98.675 Y81.977 E0.2032
G1 X99.34 Y81.576 E0.22903
G1 X100.118 Y81.151 E0.25851
G1 X100.694 Y80.856 E0.28004
G1 X101.417 Y80.521 E0.30654
G1 X101.93 Y80.307 E0.32503
G1 X102.806 Y79.967 E0.35628
G1 X103.571 Y79.708 E0.38314
G1 X104.076 Y79.559 E0.40066
G1 X105.036 Y79.303 E0.4337
G1 X105.778 Y79.137 E0.45899
G1 X106.323 Y79.037 E0.47742
G1 X107.271 Y78.89 E0.50933
G1 X108.044 Y78.804 E0.5352
G1 X108.942 Y78.744 E0.56513
G1 X109.594 Y78.718 E0.58683
G1 X110.352 Y78.716 E0.61204
G1 X111.222 Y78.752 E0.641
G1 X111.905 Y78.799 E0.66377
G1 X112.709 Y78.886 E0.69067
G1 X113.239 Y78.965 E0.70849
G1 X114.165 Y79.126 E0.73976
G1 X114.947 Y79.297 E0.76638
G1 X115.766 Y79.514 E0.79456
G1 X116.407 Y79.702 E0.81678
G1 X117.122 Y79.941 E0.84185
G1 X117.981 Y80.271 E0.87246
G1 X118.606 Y80.532 E0.89499
G1 X119.299 Y80.852 E0.92037
G1 X119.767 Y81.09 E0.93784
G1 X120.617 Y81.551 E0.97
G1 X121.274 Y81.943 E0.99544
G1 X121.737 Y82.244 E1.01381
G1 X122.551 Y82.808 E1.04675
G1 X123.139 Y83.253 E1.07128
G1 X123.84 Y83.832 E1.10152
G1 X124.378 Y84.303 E1.1253
G1 X124.989 Y84.885 E1.15336
G1 X125.484 Y85.4 E1.17712
G1 X125.961 Y85.917 E1.20052
G1 X126.494 Y86.545 E1.22791
G1 X126.978 Y87.17 E1.25421
G1 X127.389 Y87.727 E1.27723
G1 X127.802 Y88.33 E1.30154
G1 X128.258 Y89.064 E1.33028
G1 X128.613 Y89.674 E1.35375
G1 X128.96 Y90.323 E1.37823
G1 X129.348 Y91.134 E1.40813
G1 X129.653 Y91.824 E1.43322
G1 X129.954 Y92.587 E1.46051
G1 X130.203 Y93.309 E1.48591
G1 X130.406 Y93.944 E1.50808
G1 X130.611 Y94.682 E1.53356
G1 X130.794 Y95.469 E1.56043
G1 X130.932 Y96.136 E1.58308
G1 X131.066 Y96.945 E1.61036
G1 X131.165 Y97.773 E1.63809
G1 X131.228 Y98.433 E1.66015
G1 X131.273 Y99.233 E1.6868
G1 X131.282 Y99.775 E1.70482
G1 X131.273 Y100.731 E1.73662
G1 X131.233 Y101.504 E1.76237
G1 X131.182 Y102.07 E1.78127
G1 X131.067 Y103.044 E1.81389
G1 X130.937 Y103.839 E1.84068
G1 X130.761 Y104.68 E1.86926
G1 X130.612 Y105.312 E1.89086
G1 X130.409 Y106.046 E1.91619
G1 X130.143 Y106.871 E1.94502
G1 X129.92 Y107.503 E1.96731
G1 X129.628 Y108.237 E1.99358
G1 X129.284 Y109.003 E2.02151
G1 X129 Y109.596 E2.04338
G1 X128.632 Y110.294 E2.06962
G1 X128.203 Y111.026 E2.09784
G1 X127.841 Y111.609 E2.12067
G1 X127.404 Y112.256 E2.14663
G1 X126.93 Y112.895 E2.1731
G1 X126.481 Y113.47 E2.19736
G1 X125.965 Y114.08 E2.22394
G1 X125.404 Y114.685 E2.25138
G1 X124.908 Y115.193 E2.27499
G1 X124.344 Y115.729 E2.30087
G1 X123.956 Y116.07 E2.31805
G1 X123.183 Y116.712 E2.35147
G1 X122.575 Y117.175 E2.37689
G1 X121.854 Y117.675 E2.40607
G1 X121.251 Y118.069 E2.43003
G1 X120.572 Y118.476 E2.45636
G1 X119.869 Y118.856 E2.48294
G1 X119.295 Y119.149 E2.50437
G1 X118.588 Y119.477 E2.5303
G1 X118.073 Y119.692 E2.54886
G1 X117.199 Y120.031 E2.58004
G1 X116.435 Y120.29 E2.60687
G1 X115.621 Y120.525 E2.63505
G1 X114.964 Y120.697 E2.65764
G1 X114.22 Y120.863 E2.68299
G1 X113.358 Y121.016 E2.71211
G1 X112.733 Y121.11 E2.73313
G1 X111.956 Y121.196 E2.75913
G1 X111.058 Y121.256 E2.78907
G1 X110.406 Y121.282 E2.81077
G1 X109.648 Y121.284 E2.83598
G1 X108.778 Y121.248 E2.86494
G1 X108.095 Y121.201 E2.88771
G1 X107.291 Y121.114 E2.91461
G1 X106.761 Y121.035 E2.93243
G1 X105.835 Y120.874 E2.96369
G1 X105.053 Y120.703 E2.99032
G1 X104.234 Y120.486 E3.0185
G1 X103.593 Y120.298 E3.04071
G1 X102.878 Y120.059 E3.06579
G1 X102.019 Y119.729 E3.09639
G1 X101.394 Y119.468 E3.11892
G1 X100.701 Y119.148 E3.14431
G1 X99.955 Y118.763 E3.17223
G1 X99.382 Y118.449 E3.19396
G1 X98.721 Y118.053 E3.21959
G1 X97.964 Y117.553 E3.24977
G1 X97.441 Y117.186 E3.27102
G1 X96.844 Y116.734 E3.29592
G1 X96.156 Y116.164 E3.32564
G1 X95.615 Y115.69 E3.34956
G1 X95.005 Y115.109 E3.37758
G1 X94.681 Y114.774 E3.39308
G1 X94.039 Y114.082 E3.42448
G1 X93.505 Y113.454 E3.45189
G1 X93.019 Y112.827 E3.47828
G1 X92.606 Y112.267 E3.50142
G1 X92.175 Y111.635 E3.52687
G1 X91.902 Y111.2 E3.54395
G1 X91.385 Y110.322 E3.57784
G1 X91.034 Y109.664 E3.60264
G1 X90.662 Y108.888 E3.63126
G1 X90.371 Y108.234 E3.65507
G1 X90.07 Y107.479 E3.6821
G1 X89.893 Y106.977 E3.69981
G1 X89.591 Y106.043 E3.73246
G1 X89.383 Y105.296 E3.75825
G1 X89.203 Y104.518 E3.78481
G1 X89.064 Y103.842 E3.80776
G1 X88.933 Y103.051 E3.83443
G1 X88.867 Y102.522 E3.85216
G1 X88.772 Y101.563 E3.88421
G1 X88.727 Y100.767 E3.91073
G1 X88.718 Y100.226 E3.92873
G1 X88.727 Y99.267 E3.96062
G1 X88.767 Y98.49 E3.9865
G1 X88.818 Y97.926 E4.00534
G1 X88.935 Y96.944 E4.03823
G1 X89.058 Y96.186 E4.06377
G1 X89.242 Y95.303 E4.09377
G1 X89.394 Y94.663 E4.11565
G1 X89.596 Y93.935 E4.14078
G1 X89.865 Y93.107 E4.16973
G1 X90.097 Y92.454 E4.19278
G1 X90.386 Y91.728 E4.21877
G1 X90.593 Y91.262 E4.23573
G1 X91 Y90.404 E4.26732
G1 X91.368 Y89.706 E4.29356
G1 X91.796 Y88.976 E4.3217
G1 X92.161 Y88.388 E4.34472
G1 X92.606 Y87.73 E4.37114
G1 X93.07 Y87.105 E4.39703
G1 X93.519 Y86.53 E4.4213
G1 X94.035 Y85.92 E4.44787
G0 F6000 X93.742 Y85.648
G1 F1200 X94.311 Y85.035 E4.47569
G1 X94.823 Y84.511 E4.50006
G1 X95.404 Y83.959 E4.52671
G1 X95.796 Y83.616 E4.54404
G1 X96.588 Y82.96 E4.57824
G1 X97.201 Y82.494 E4.60385
G1 X97.909 Y82.002 E4.63253
G1 X98.468 Y81.634 E4.65479
G1 X99.148 Y81.225 E4.68118
G1 X99.936 Y80.795 E4.71104
G1 X100.526 Y80.493 E4.73308
G1 X101.263 Y80.152 E4.76009
G1 X101.785 Y79.934 E4.77891
G1 X102.678 Y79.588 E4.81076
G1 X103.458 Y79.324 E4.83815
G1 X103.973 Y79.173 E4.856
G1 X104.949 Y78.913 E4.88959
G1 X105.706 Y78.744 E4.91539
G1 X106.262 Y78.642 E4.93419
G1 X107.227 Y78.492 E4.96667
G1 X108.017 Y78.405 E4.99311
G1 X108.926 Y78.344 E5.02341
G1 X109.593 Y78.318 E5.04561
G1 X110.369 Y78.316 E5.07142
G1 X111.249 Y78.353 E5.10071
G1 X111.948 Y78.401 E5.12402
G1 X112.768 Y78.49 E5.15145
G1 X113.308 Y78.571 E5.16961
G1 X114.25 Y78.735 E5.20142
G1 X115.049 Y78.91 E5.22862
G1 X115.879 Y79.13 E5.25718
G1 X116.534 Y79.323 E5.27989
G1 X117.265 Y79.568 E5.30553
G1 X118.135 Y79.902 E5.33653
G1 X118.774 Y80.169 E5.35956
G1 X119.48 Y80.495 E5.38543
G1 X119.958 Y80.738 E5.40326
G1 X120.822 Y81.207 E5.43596
G1 X121.479 Y81.599 E5.4614
G1 X121.965 Y81.915 E5.48069
G1 X122.792 Y82.489 E5.51417
G1 X123.394 Y82.945 E5.53929
G1 X124.103 Y83.531 E5.56988
G1 X124.654 Y84.013 E5.59423
G1 X125.265 Y84.595 E5.62229
G1 X125.778 Y85.129 E5.64692
G1 X126.266 Y85.658 E5.67086
G1 X126.81 Y86.3 E5.69885
G1 X127.3 Y86.933 E5.72547
G1 X127.719 Y87.501 E5.74895
G1 X128.142 Y88.119 E5.77386
G1 X128.604 Y88.863 E5.80299
G1 X128.966 Y89.485 E5.82692
G1 X129.321 Y90.15 E5.85199
G1 X129.714 Y90.972 E5.8823
G1 X130.025 Y91.677 E5.90793
G1 X130.332 Y92.457 E5.93581
G1 X130.584 Y93.187 E5.96149
G1 X130.791 Y93.837 E5.98418
G1 X131.001 Y94.591 E6.01021
G1 X131.186 Y95.388 E6.03743
G1 X131.327 Y96.071 E6.06062
G1 X131.463 Y96.898 E6.0885
G1 X131.563 Y97.735 E6.11654
G1 X131.627 Y98.411 E6.13912
G1 X131.673 Y99.226 E6.16627
G1 X131.682 Y99.779 E6.18467
G1 X131.672 Y100.752 E6.21703
G1 X131.631 Y101.54 E6.24327
G1 X131.579 Y102.117 E6.26254
G1 X131.462 Y103.109 E6.29577
G1 X131.329 Y103.921 E6.32313
G1 X131.15 Y104.772 E6.35206
G1 X130.998 Y105.419 E6.37416
G1 X130.79 Y106.169 E6.40005
G1 X130.52 Y107.004 E6.42924
G1 X130.292 Y107.651 E6.45205
G1 X129.993 Y108.401 E6.47891
G1 X129.645 Y109.176 E6.50716
G1 X129.354 Y109.783 E6.52955
G1 X128.977 Y110.496 E6.55638
G1 X128.543 Y111.237 E6.58494
G1 X128.172 Y111.833 E6.60829
G1 X127.725 Y112.494 E6.63483
G1 X127.245 Y113.141 E6.66162
G1 X126.786 Y113.728 E6.68641
G1 X126.258 Y114.352 E6.71359
G1 X125.69 Y114.964 E6.74137
G1 X125.184 Y115.483 E6.76547
G1 X124.608 Y116.029 E6.79187
G1 X124.212 Y116.378 E6.80943
G1 X123.439 Y117.02 E6.84285
G1 X122.803 Y117.504 E6.86943
G1 X122.073 Y118.01 E6.89897
G1 X121.457 Y118.412 E6.92344
G1 X120.762 Y118.828 E6.95038
G1 X120.051 Y119.212 E6.97725
G1 X119.463 Y119.512 E6.99921
G1 X118.742 Y119.846 E7.02564
G1 X118.218 Y120.065 E7.04453
G1 X117.327 Y120.41 E7.07631
G1 X116.546 Y120.674 E7.10373
G1 X115.722 Y120.912 E7.13225
G1 X115.051 Y121.087 E7.15532
G1 X114.29 Y121.257 E7.18125
G1 X113.417 Y121.412 E7.21074
G1 X112.777 Y121.508 E7.23227
G1 X111.983 Y121.595 E7.25883
G1 X111.074 Y121.656 E7.28914
G1 X110.407 Y121.682 E7.31134
G1 X109.631 Y121.684 E7.33715
G1 X108.751 Y121.647 E7.36644
G1 X108.052 Y121.599 E7.38974
G1 X107.232 Y121.51 E7.41718
G1 X106.692 Y121.429 E7.43534
G1 X105.75 Y121.265 E7.46714
G1 X104.951 Y121.09 E7.49435
G1 X104.121 Y120.87 E7.52291
G1 X103.466 Y120.677 E7.54562
G1 X102.735 Y120.432 E7.57126
G1 X101.865 Y120.098 E7.60226
G1 X101.226 Y119.831 E7.62529
G1 X100.518 Y119.503 E7.65124
G1 X99.763 Y119.114 E7.67949
G1 X99.176 Y118.792 E7.70176
G1 X98.501 Y118.387 E7.72794
G1 X97.734 Y117.88 E7.75852
G1 X97.2 Y117.505 E7.78022
G1 X96.589 Y117.042 E7.80572
G1 X95.892 Y116.465 E7.83582
G1 X95.339 Y115.98 E7.86028
G1 X94.717 Y115.387 E7.88886
G1 X94.388 Y115.046 E7.90462
G1 X93.734 Y114.341 E7.93661
G1 X93.189 Y113.699 E7.96462
G1 X92.697 Y113.064 E7.99133
G1 X92.276 Y112.492 E8.01496
G1 X91.836 Y111.848 E8.0409
G1 X91.557 Y111.403 E8.05837
G1 X91.032 Y110.51 E8.09282
G1 X90.673 Y109.837 E8.11819
G1 X90.297 Y109.051 E8.14717
G1 X89.999 Y108.382 E8.17153
G1 X89.693 Y107.612 E8.19909
G1 X89.512 Y107.1 E8.21715
G1 X89.21 Y106.166 E8.2498
G1 X88.993 Y105.386 E8.27673
G1 X88.811 Y104.599 E8.30359
G1 X88.669 Y103.907 E8.32709
G1 X88.536 Y103.101 E8.35426
G1 X88.469 Y102.561 E8.37236
G1 X88.373 Y101.586 E8.40494
G1 X88.327 Y100.774 E8.43199
G1 X88.318 Y100.222 E8.45036
G1 X88.328 Y99.246 E8.48282
G1 X88.369 Y98.454 E8.5092
G1 X88.421 Y97.879 E8.5284
G1 X88.54 Y96.88 E8.56186
G1 X88.666 Y96.104 E8.58801
G1 X88.853 Y95.211 E8.61835
G1 X89.009 Y94.556 E8.64075
G1 X89.216 Y93.811 E8.66647
G1 X89.488 Y92.973 E8.69577
G1 X89.725 Y92.306 E8.71931
G1 X90.02 Y91.566 E8.74581
G1 X90.232 Y91.091 E8.76311
G1 X90.646 Y90.217 E8.79528
G1 X91.023 Y89.504 E8.8221
G1 X91.456 Y88.765 E8.85059
G1 X91.83 Y88.164 E8.87413
G1 X92.285 Y87.492 E8.90112
G1 X92.755 Y86.859 E8.92735
G1 X93.214 Y86.272 E8.95213
G1 X93.742 Y85.648 E8.97932
G0 F6000 X93.449 Y85.376
G1 F1200 X94.025 Y84.755 E9.00749
G1 X94.547 Y84.221 E9.03233
G1 X95.141 Y83.658 E9.05955
G1 X95.541 Y83.308 E9.07723
G1 X96.346 Y82.642 E9.11198
G1 X96.973 Y82.166 E9.13816
G1 X97.689 Y81.668 E9.16717
G1 X98.262 Y81.291 E9.18998
G1 X98.956 Y80.874 E9.21691
G1 X99.754 Y80.439 E9.24714
G1 X100.358 Y80.13 E9.2697
G1 X101.109 Y79.783 E9.29722
G1 X101.64 Y79.561 E9.31636
G1 X102.55 Y79.209 E9.34881
G1 X103.345 Y78.94 E9.37673
G1 X103.87 Y78.786 E9.39492
G1 X104.846 Y78.526 E9.42852
G1 X105.634 Y78.351 E9.45537
G1 X106.201 Y78.247 E9.47454
G1 X107.183 Y78.094 E9.50759
G1 X107.99 Y78.006 E9.53459
G1 X108.91 Y77.944 E9.56526
G1 X109.592 Y77.918 E9.58796
G1 X110.386 Y77.916 E9.61437
G1 X111.276 Y77.954 E9.644
G1 X111.991 Y78.003 E9.66784
G1 X112.827 Y78.094 E9.69581
G1 X113.377 Y78.177 E9.71431
G1 X114.336 Y78.344 E9.74668
G1 X115.151 Y78.523 E9.77444
G1 X115.992 Y78.746 E9.80338
G1 X116.661 Y78.944 E9.82658
G1 X117.408 Y79.195 E9.85279
G1 X118.289 Y79.533 E9.88418
G1 X118.942 Y79.806 E9.90772
G1 X119.661 Y80.138 E9.93406
G1 X120.149 Y80.386 E9.95226
G1 X121.027 Y80.863 E9.9855
G1 X121.684 Y81.255 E10.01094
G1 X122.193 Y81.586 E10.03114
G1 X123.034 Y82.17 E10.06519
G1 X123.649 Y82.637 E10.09088
G1 X124.366 Y83.23 E10.12182
G1 X124.93 Y83.723 E10.14674
G1 X125.541 Y84.305 E10.1748
G1 X126.072 Y84.858 E10.2003
G1 X126.571 Y85.399 E10.22478
G1 X127.126 Y86.055 E10.25336
G1 X127.622 Y86.696 E10.28032
G1 X128.049 Y87.275 E10.30425
G1 X128.482 Y87.908 E10.32975
G1 X128.95 Y88.662 E10.35927
G1 X129.319 Y89.297 E10.3837
G1 X129.682 Y89.977 E10.40934
G1 X130.08 Y90.811 E10.44007
G1 X130.397 Y91.531 E10.46624
G1 X130.71 Y92.326 E10.49465
G1 X130.965 Y93.066 E10.52069
G1 X131.176 Y93.73 E10.54386
G1 X131.391 Y94.501 E10.57048
G1 X131.578 Y95.307 E10.598
G1 X131.722 Y96.006 E10.62174
G1 X131.86 Y96.851 E10.65022
G1 X131.961 Y97.697 E10.67855
G1 X132.026 Y98.388 E10.70164
G1 X132.073 Y99.219 E10.72932
G1 X132.082 Y99.783 E10.74808
G1 X132.071 Y100.773 E10.78101
G1 X132.029 Y101.576 E10.80776
G1 X131.976 Y102.164 E10.82739
G1 X131.857 Y103.174 E10.86122
G1 X131.724 Y103.986 E10.88858
G1 X131.539 Y104.863 E10.9184
G1 X131.383 Y105.526 E10.94105
G1 X131.171 Y106.292 E10.96748
G1 X130.897 Y107.137 E10.99703
G1 X130.664 Y107.799 E11.02037
G1 X130.358 Y108.565 E11.04781
G1 X130.006 Y109.349 E11.07639
G1 X129.708 Y109.97 E11.0993
G1 X129.322 Y110.698 E11.12671
G1 X128.883 Y111.448 E11.15561
G1 X128.503 Y112.057 E11.17949
G1 X128.046 Y112.732 E11.2066
G1 X127.56 Y113.387 E11.23373
G1 X127.091 Y113.986 E11.25903
G1 X126.551 Y114.624 E11.28683
G1 X125.976 Y115.243 E11.31493
G1 X125.459 Y115.773 E11.33955
G1 X124.872 Y116.329 E11.36645
G1 X124.468 Y116.686 E11.38438
G1 X123.695 Y117.328 E11.4178
G1 X123.031 Y117.833 E11.44555
G1 X122.292 Y118.345 E11.47545
G1 X121.662 Y118.755 E11.50045
G1 X120.952 Y119.18 E11.52797
G1 X120.233 Y119.568 E11.55514
G1 X119.631 Y119.875 E11.57762
G1 X118.896 Y120.215 E11.60455
G1 X118.362 Y120.438 E11.6238
G1 X117.455 Y120.789 E11.65615
G1 X116.657 Y121.058 E11.68416
G1 X115.823 Y121.299 E11.71303
G1 X115.138 Y121.477 E11.73657
G1 X114.36 Y121.651 E11.76309
G1 X113.476 Y121.808 E11.79295
G1 X112.821 Y121.906 E11.81498
G1 X112.01 Y121.994 E11.84211
G1 X111.09 Y122.056 E11.87278
G1 X110.408 Y122.082 E11.89548
G1 X109.614 Y122.084 E11.92189
G1 X108.724 Y122.046 E11.95152
G1 X108.009 Y121.997 E11.97535
G1 X107.173 Y121.906 E12.00332
G1 X106.623 Y121.823 E12.02182
G1 X105.664 Y121.656 E12.0542
G1 X104.849 Y121.477 E12.08195
G1 X104.008 Y121.254 E12.11089
G1 X103.339 Y121.056 E12.1341
G1 X102.592 Y120.805 E12.16031
G1 X101.711 Y120.467 E12.19169
G1 X101.058 Y120.194 E12.21523
G1 X100.335 Y119.859 E12.24173
G1 X99.571 Y119.465 E12.27032
G1 X98.97 Y119.135 E12.29313
G1 X98.28 Y118.721 E12.31989
G1 X97.504 Y118.207 E12.35085
G1 X96.958 Y117.824 E12.37303
G1 X96.334 Y117.35 E12.3991
G1 X95.628 Y116.766 E12.42957
G1 X95.063 Y116.27 E12.45458
G1 X94.429 Y115.665 E12.48372
G1 X94.095 Y115.318 E12.49974
G1 X93.429 Y114.6 E12.53232
G1 X92.873 Y113.944 E12.56092
G1 X92.375 Y113.301 E12.58797
G1 X91.946 Y112.718 E12.61204
G1 X91.497 Y112.06 E12.63854
G1 X91.212 Y111.606 E12.65637
G1 X90.679 Y110.698 E12.69138
G1 X90.312 Y110.01 E12.71732
G1 X89.932 Y109.214 E12.74666
G1 X89.627 Y108.53 E12.77157
G1 X89.316 Y107.745 E12.79965
G1 X89.131 Y107.223 E12.81807
G1 X88.829 Y106.289 E12.85072
G1 X88.603 Y105.476 E12.87878
G1 X88.419 Y104.679 E12.90599
G1 X88.274 Y103.972 E12.92999
G1 X88.139 Y103.15 E12.9577
G1 X88.071 Y102.6 E12.97613
G1 X87.974 Y101.609 E13.00925
G1 X87.927 Y100.781 E13.03683
G1 X87.918 Y100.218 E13.05556
G1 X87.929 Y99.225 E13.08859
G1 X87.971 Y98.418 E13.11547
G1 X88.024 Y97.832 E13.13504
G1 X88.145 Y96.816 E13.16907
G1 X88.274 Y96.022 E13.19582
G1 X88.464 Y95.118 E13.22655
G1 X88.624 Y94.449 E13.24943
G1 X88.836 Y93.688 E13.2757
G1 X89.111 Y92.839 E13.30538
G1 X89.353 Y92.158 E13.32942
G1 X89.655 Y91.403 E13.35647
G1 X89.871 Y90.92 E13.37407
G1 X90.292 Y90.03 E13.40681
G1 X90.678 Y89.302 E13.43422
G1 X91.116 Y88.554 E13.46305
