;FLAVOR:Marlin
;TIME:5703
;Filament used: 4.1576m
;Layer height: 0.2
;MINX:54.492
;MINY:57.406
;MINZ:0.2
;MAXX:154.787
;MAXY:143.109
;MAXZ:8
;Generated with Cura_SteamEngine 5.3.0
M140 S60
M105
M190 S60
M104 S230
M105
M109 S230
M82 ;absolute extrusion mode
; Ender 3 Custom Start G-code
G92 E0 ; Reset Extruder
G28 ; Home all axes
G1 Z2.0 F3000 ; Move Z Axis up little to prevent scratching of Heat Bed
G1 X0.1 Y20 Z0.3 F5000.0 ; Move to start position
G1 X0.1 Y200.0 Z0.3 F1500.0 E15 ; Draw the first line
G1 X0.4 Y200.0 Z0.3 F5000.0 ; Move to side a little
G1 X0.4 Y20 Z0.3 F1500.0 E30 ; Draw the second line
G92 E0 ; Reset Extruder
G1 Z2.0 F3000 ; Move Z Axis up little to prevent scratching of Heat Bed
G1 X5 Y20 Z0.3 F5000.0 ; Move over to prevent blob squish
G92 E0
G92 E0
G1 F2700 E-5
;LAYER_COUNT:40
;LAYER:0
M107
G0 F3600 X59.163 Y77.68 Z0.2
;TYPE:SKIRT
G1 F2700 E0
G1 F1200 X59.895 Y77.151 E0.03004
G1 X60.67 Y76.688 E0.06006
G1 X61.484 Y76.296 E0.09011
G1 X62.409 Y75.951 E0.12295
G1 X63.855 Y75.491 E0.17342
G1 X66.308 Y74.663 E0.25953
G1 X68.667 Y73.791 E0.34318
G1 X71.028 Y72.842 E0.42781
G1 X73.398 Y71.81 E0.51379
G1 X75.654 Y70.752 E0.59666
G1 X77.942 Y69.598 E0.68189
G1 X80.162 Y68.399 E0.76581
G1 X82.378 Y67.12 E0.85091
G1 X84.541 Y65.789 E0.93538
G1 X86.636 Y64.415 E1.01871
G1 X88.753 Y62.941 E1.10451
G1 X90.776 Y61.445 E1.1882
G1 X91.411 Y60.947 E1.21504
G1 X92.256 Y60.303 E1.25037
G1 X92.998 Y59.788 E1.28041
G1 X93.782 Y59.341 E1.31043
G1 X94.603 Y58.965 E1.34046
G1 X95.454 Y58.662 E1.37051
G1 X96.329 Y58.437 E1.40056
G1 X97.22 Y58.289 E1.4306
G1 X98.126 Y58.221 E1.46082
G1 X98.765 Y58.206 E1.48208
G1 X127.728 Y58.206 E2.44539
G1 X128.574 Y58.217 E2.47353
G1 X129.476 Y58.27 E2.50358
G1 X130.369 Y58.402 E2.53361
G1 X131.248 Y58.613 E2.56367
G1 X132.104 Y58.901 E2.59371
G1 X132.931 Y59.263 E2.62374
G1 X133.723 Y59.697 E2.65378
G1 X134.473 Y60.2 E2.68381
G1 X135.176 Y60.767 E2.71385
G1 X135.826 Y61.393 E2.74387
G1 X136.537 Y62.227 E2.78032
G1 X137.019 Y62.859 E2.80675
G1 X138.624 Y64.902 E2.89316
G1 X140.236 Y66.838 E2.97695
G1 X141.928 Y68.757 E3.06205
G1 X143.687 Y70.645 E3.14787
G1 X145.425 Y72.404 E3.23012
G1 X147.282 Y74.183 E3.31565
G1 X149.171 Y75.89 E3.40033
G1 X149.75 Y76.387 E3.42571
G1 X150.514 Y77.059 E3.45955
G1 X151.165 Y77.685 E3.48959
G1 X151.758 Y78.366 E3.51963
G1 X152.288 Y79.097 E3.54966
G1 X152.752 Y79.872 E3.5797
G1 X153.146 Y80.685 E3.60975
G1 X153.466 Y81.529 E3.63977
G1 X153.71 Y82.399 E3.66982
G1 X153.876 Y83.286 E3.69984
G1 X153.972 Y84.404 E3.73716
G1 X153.987 Y85.043 E3.75842
G1 X153.986 Y114.15 E4.72652
G1 X153.976 Y114.853 E4.7499
G1 X153.923 Y115.755 E4.77996
G1 X153.791 Y116.648 E4.80998
G1 X153.58 Y117.526 E4.84002
G1 X153.292 Y118.382 E4.87005
G1 X152.93 Y119.209 E4.90008
G1 X152.496 Y120.001 E4.93012
G1 X151.994 Y120.752 E4.96016
G1 X151.427 Y121.455 E4.9902
G1 X150.8 Y122.105 E5.02024
G1 X150.118 Y122.697 E5.05028
G1 X149.732 Y122.989 E5.06638
G1 X149.188 Y123.379 E5.08864
G1 X147.869 Y124.298 E5.14211
G1 X145.826 Y125.809 E5.22662
G1 X143.849 Y127.359 E5.31018
G1 X141.879 Y128.996 E5.39537
G1 X139.966 Y130.681 E5.48016
G1 X138.134 Y132.386 E5.5634
G1 X136.314 Y134.182 E5.64844
G1 X134.462 Y136.115 E5.73748
G1 X133.599 Y137.044 E5.77965
G1 X132.955 Y137.677 E5.80969
G1 X132.258 Y138.252 E5.83974
G1 X131.513 Y138.762 E5.86977
G1 X130.726 Y139.205 E5.89981
G1 X129.903 Y139.576 E5.92983
G1 X129.253 Y139.81 E5.95281
G1 X128.353 Y140.099 E5.98425
G1 X127.194 Y140.456 E6.02458
G1 X124.821 Y141.259 E6.10791
G1 X123.508 Y141.721 E6.1542
G1 X122.643 Y141.983 E6.18426
G1 X121.759 Y142.167 E6.2143
G1 X120.863 Y142.273 E6.2443
G1 X120.409 Y142.296 E6.25942
G1 X119.802 Y142.309 E6.27962
G1 X96.694 Y142.308 E7.04819
G1 X95.991 Y142.298 E7.07158
G1 X95.089 Y142.245 E7.10163
G1 X94.196 Y142.113 E7.13165
G1 X93.318 Y141.902 E7.16169
G1 X92.462 Y141.614 E7.19173
G1 X91.635 Y141.252 E7.22175
G1 X90.843 Y140.818 E7.25179
G1 X89.839 Y140.123 E7.2924
G1 X89.243 Y139.654 E7.31763
G1 X88.114 Y138.743 E7.36588
G1 X86.084 Y137.197 E7.45075
G1 X84.03 Y135.723 E7.53483
G1 X81.918 Y134.296 E7.61961
G1 X79.756 Y132.922 E7.70481
G1 X77.6 Y131.637 E7.78829
G1 X75.37 Y130.392 E7.87324
G1 X73.133 Y129.224 E7.95717
G1 X70.829 Y128.102 E8.04241
G1 X68.53 Y127.063 E8.12632
G1 X66.166 Y126.076 E8.21152
G1 X63.819 Y125.168 E8.29522
G1 X62.992 Y124.805 E8.32526
G1 X62.201 Y124.37 E8.35529
G1 X61.451 Y123.868 E8.3853
G1 X60.748 Y123.3 E8.41536
G1 X60.098 Y122.673 E8.4454
G1 X59.506 Y121.991 E8.47544
G1 X58.977 Y121.259 E8.50548
G1 X58.515 Y120.483 E8.53552
G1 X58.123 Y119.669 E8.56557
G1 X57.794 Y118.79 E8.59678
G1 X57.502 Y117.884 E8.62844
G1 X57.145 Y116.725 E8.66878
G1 X56.335 Y114.331 E8.75284
G1 X55.885 Y113.058 E8.79774
G1 X55.622 Y112.194 E8.82778
G1 X55.436 Y111.31 E8.85783
G1 X55.329 Y110.414 E8.88784
G1 X55.305 Y109.94 E8.90363
G1 X55.292 Y109.333 E8.92382
G1 X55.293 Y86.213 E9.69279
G1 X55.303 Y85.523 E9.71575
G1 X55.356 Y84.622 E9.74577
G1 X55.489 Y83.728 E9.77583
G1 X55.7 Y82.85 E9.80586
G1 X55.988 Y81.994 E9.8359
G1 X56.35 Y81.167 E9.86593
G1 X56.784 Y80.375 E9.89596
G1 X57.287 Y79.625 E9.926
G1 X57.854 Y78.922 E9.95604
G1 X58.481 Y78.272 E9.98608
G1 X59.163 Y77.68 E10.01611
G0 F3600 X58.901 Y77.378
G1 F1200 X59.661 Y76.827 E10.04734
G1 X60.496 Y76.328 E10.07969
G1 X61.344 Y75.921 E10.11097
G1 X62.288 Y75.57 E10.14447
G1 X63.727 Y75.112 E10.1947
G1 X66.18 Y74.284 E10.28081
G1 X68.528 Y73.416 E10.36407
G1 X70.868 Y72.475 E10.44796
G1 X73.238 Y71.443 E10.53393
G1 X75.484 Y70.39 E10.61644
G1 X77.752 Y69.246 E10.70092
G1 X79.972 Y68.047 E10.78484
G1 X82.168 Y66.779 E10.86918
G1 X84.331 Y65.449 E10.95364
G1 X86.407 Y64.087 E11.03622
G1 X88.515 Y62.619 E11.12166
G1 X90.538 Y61.123 E11.20534
G1 X91.169 Y60.629 E11.23199
G1 X92.028 Y59.974 E11.26792
G1 X92.77 Y59.459 E11.29796
G1 X93.615 Y58.977 E11.33032
G1 X94.436 Y58.601 E11.36035
G1 X95.32 Y58.285 E11.39158
G1 X96.263 Y58.042 E11.42397
G1 X97.154 Y57.894 E11.45401
G1 X98.117 Y57.821 E11.48613
G1 X98.756 Y57.806 E11.50739
G1 X127.733 Y57.806 E12.47117
G1 X128.597 Y57.818 E12.49991
G1 X129.534 Y57.874 E12.53113
G1 X130.427 Y58.006 E12.56115
G1 X131.376 Y58.234 E12.59361
G1 X132.232 Y58.522 E12.62365
G1 X133.123 Y58.912 E12.656
G1 X133.946 Y59.365 E12.68725
G1 X134.696 Y59.868 E12.71728
G1 X135.453 Y60.479 E12.74964
G1 X136.13 Y61.133 E12.78095
G1 X136.855 Y61.984 E12.81813
G1 X137.334 Y62.612 E12.8444
G1 X138.939 Y64.655 E12.93081
G1 X140.536 Y66.573 E13.01382
G1 X142.221 Y68.484 E13.09856
G1 X143.98 Y70.372 E13.18439
G1 X145.702 Y72.115 E13.26588
G1 X147.559 Y73.894 E13.35141
G1 X149.432 Y75.586 E13.43536
G1 X150.791 Y76.771 E13.49533
G1 X151.467 Y77.422 E13.52655
G1 X152.06 Y78.103 E13.55658
G1 X152.612 Y78.862 E13.5878
G1 X153.112 Y79.698 E13.6202
G1 X153.52 Y80.543 E13.65141
G1 X153.84 Y81.387 E13.68143
G1 X154.103 Y82.325 E13.71383
G1 X154.275 Y83.252 E13.74519
G1 X154.371 Y84.37 E13.78251
G1 X154.387 Y85.043 E13.8049
G1 X154.386 Y114.156 E14.7732
G1 X154.375 Y114.876 E14.79715
G1 X154.319 Y115.813 E14.82837
G1 X154.187 Y116.706 E14.8584
G1 X153.959 Y117.654 E14.89083
G1 X153.671 Y118.51 E14.92086
G1 X153.281 Y119.401 E14.95321
G1 X152.829 Y120.223 E14.98441
G1 X152.327 Y120.974 E15.01446
G1 X151.715 Y121.733 E15.04689
G1 X151.088 Y122.383 E15.07693
G1 X150.359 Y123.016 E15.10904
G1 X149.965 Y123.314 E15.12547
G1 X149.417 Y123.707 E15.1479
G1 X148.107 Y124.62 E15.20101
G1 X146.064 Y126.131 E15.28552
G1 X144.105 Y127.667 E15.36832
G1 X142.135 Y129.303 E15.45349
G1 X140.239 Y130.974 E15.53755
G1 X138.407 Y132.679 E15.62078
G1 X136.595 Y134.467 E15.70545
G1 X134.751 Y136.392 E15.79411
G1 X133.892 Y137.316 E15.83608
G1 X133.21 Y137.986 E15.86787
G1 X132.513 Y138.561 E15.89793
G1 X131.709 Y139.111 E15.93033
G1 X130.922 Y139.554 E15.96036
G1 X130.067 Y139.941 E15.99158
G1 X129.375 Y140.191 E16.01605
G1 X128.471 Y140.481 E16.04763
G1 X127.322 Y140.835 E16.08762
G1 X124.949 Y141.638 E16.17094
G1 X123.624 Y142.104 E16.21765
G1 X122.725 Y142.375 E16.24888
G1 X121.841 Y142.559 E16.27892
G1 X120.91 Y142.67 E16.3101
G1 X120.418 Y142.696 E16.32649
G1 X119.811 Y142.709 E16.34668
G1 X96.688 Y142.708 E17.11576
G1 X95.968 Y142.697 E17.13971
G1 X95.031 Y142.641 E17.17093
G1 X94.138 Y142.509 E17.20095
G1 X93.19 Y142.281 E17.23338
G1 X92.334 Y141.993 E17.26342
G1 X91.443 Y141.603 E17.29577
G1 X90.615 Y141.147 E17.32721
G1 X89.611 Y140.452 E17.36782
G1 X88.992 Y139.965 E17.39402
G1 X87.863 Y139.054 E17.44227
G1 X85.851 Y137.522 E17.52638
G1 X83.797 Y136.048 E17.61047
G1 X81.703 Y134.634 E17.6945
G1 X79.541 Y133.26 E17.7797
G1 X77.395 Y131.981 E17.8628
G1 X75.185 Y130.747 E17.94698
G1 X72.948 Y129.579 E18.03092
G1 X70.664 Y128.467 E18.11541
G1 X68.365 Y127.428 E18.19932
G1 X66.012 Y126.445 E18.28414
G1 X63.658 Y125.534 E18.36809
G1 X62.831 Y125.171 E18.39813
G1 X62.008 Y124.72 E18.42934
G1 X61.2 Y124.179 E18.46168
G1 X60.47 Y123.588 E18.49292
G1 X59.82 Y122.961 E18.52296
G1 X59.204 Y122.253 E18.55417
G1 X58.633 Y121.464 E18.58657
G1 X58.171 Y120.688 E18.61661
G1 X57.748 Y119.809 E18.64905
G1 X57.413 Y118.913 E18.68087
G1 X57.12 Y118.002 E18.7127
G1 X56.763 Y116.843 E18.75303
G1 X55.956 Y114.459 E18.83674
G1 X55.502 Y113.174 E18.88207
G1 X55.239 Y112.31 E18.91211
G1 X55.039 Y111.357 E18.9445
G1 X54.932 Y110.461 E18.97451
G1 X54.905 Y109.949 E18.99156
G1 X54.892 Y109.333 E19.01206
G1 X54.893 Y86.207 E19.78123
G1 X54.903 Y85.517 E19.80418
G1 X54.96 Y84.563 E19.83597
G1 X55.093 Y83.669 E19.86603
G1 X55.321 Y82.722 E19.89843
G1 X55.609 Y81.866 E19.92847
G1 X55.999 Y80.975 E19.96082
G1 X56.452 Y80.152 E19.99206
G1 X56.955 Y79.402 E20.0221
G1 X57.566 Y78.644 E20.05448
G1 X58.193 Y77.994 E20.08452
G1 X58.901 Y77.378 E20.11573
G0 F3600 X58.638 Y77.076
G1 F1200 X59.426 Y76.503 E20.14814
G1 X60.323 Y75.967 E20.18289
G1 X61.171 Y75.56 E20.21418
G1 X62.167 Y75.189 E20.24953
G1 X63.599 Y74.733 E20.29951
G1 X66.052 Y73.905 E20.38562
G1 X68.389 Y73.041 E20.46849
G1 X70.708 Y72.108 E20.55163
G1 X73.078 Y71.076 E20.63761
G1 X75.314 Y70.028 E20.71974
G1 X77.562 Y68.894 E20.80348
G1 X79.782 Y67.695 E20.8874
G1 X81.958 Y66.438 E20.97098
G1 X84.121 Y65.109 E21.05542
G1 X86.178 Y63.759 E21.13725
G1 X88.277 Y62.297 E21.22233
G1 X90.3 Y60.801 E21.30602
G1 X90.926 Y60.311 E21.33246
G1 X91.8 Y59.645 E21.369
G1 X92.542 Y59.13 E21.39905
G1 X93.448 Y58.613 E21.43374
G1 X94.301 Y58.224 E21.46492
G1 X95.185 Y57.908 E21.49615
G1 X96.197 Y57.647 E21.53091
G1 X97.088 Y57.499 E21.56095
G1 X98.108 Y57.421 E21.59497
G1 X98.747 Y57.406 E21.61623
G1 X127.739 Y57.406 E22.58051
G1 X128.621 Y57.419 E22.60985
G1 X129.592 Y57.478 E22.6422
G1 X130.485 Y57.61 E22.67223
G1 X131.504 Y57.855 E22.70708
G1 X132.36 Y58.143 E22.73712
G1 X133.316 Y58.562 E22.77184
G1 X134.169 Y59.033 E22.80425
G1 X134.919 Y59.536 E22.83428
G1 X135.731 Y60.191 E22.86898
G1 X136.408 Y60.845 E22.90029
G1 X137.173 Y61.741 E22.93948
G1 X137.649 Y62.365 E22.96558
G1 X139.254 Y64.408 E23.05199
G1 X140.836 Y66.308 E23.13422
G1 X142.514 Y68.211 E23.21861
G1 X144.273 Y70.099 E23.30443
G1 X145.979 Y71.826 E23.38518
G1 X147.836 Y73.605 E23.47071
G1 X149.7 Y75.289 E23.55426
G1 X151.068 Y76.483 E23.61465
G1 X151.769 Y77.159 E23.64704
G1 X152.362 Y77.84 E23.67708
G1 X152.955 Y78.657 E23.71065
G1 X153.472 Y79.524 E23.74423
G1 X153.894 Y80.401 E23.7766
G1 X154.214 Y81.245 E23.80662
G1 X154.488 Y82.217 E23.84021
G1 X154.674 Y83.218 E23.87407
G1 X154.77 Y84.336 E23.91139
G1 X154.787 Y85.043 E23.93491
G1 X154.786 Y114.162 E24.90342
G1 X154.774 Y114.9 E24.92797
G1 X154.715 Y115.871 E24.96032
G1 X154.576 Y116.8 E24.99156
G1 X154.348 Y117.748 E25.02399
G1 X154.05 Y118.638 E25.05521
G1 X153.632 Y119.594 E25.08991
G1 X153.18 Y120.416 E25.12111
G1 X152.66 Y121.196 E25.15229
G1 X152.003 Y122.011 E25.18711
G1 X151.376 Y122.661 E25.21715
G1 X150.6 Y123.335 E25.25134
G1 X150.198 Y123.639 E25.2681
G1 X149.646 Y124.035 E25.29069
G1 X148.345 Y124.942 E25.34344
G1 X146.302 Y126.453 E25.42796
G1 X144.361 Y127.975 E25.51
G1 X142.391 Y129.61 E25.59515
G1 X140.512 Y131.267 E25.67847
G1 X138.68 Y132.972 E25.76171
G1 X136.876 Y134.752 E25.846
G1 X135.04 Y136.669 E25.93429
G1 X134.185 Y137.588 E25.97604
G1 X133.465 Y138.295 E26.0096
G1 X132.768 Y138.87 E26.03965
G1 X131.905 Y139.46 E26.07442
G1 X131.118 Y139.903 E26.10446
G1 X130.203 Y140.317 E26.13786
G1 X129.497 Y140.572 E26.16283
G1 X128.589 Y140.863 E26.19454
G1 X127.45 Y141.214 E26.23418
G1 X125.077 Y142.017 E26.31751
G1 X123.739 Y142.487 E26.36467
G1 X122.807 Y142.767 E26.39704
G1 X121.923 Y142.951 E26.42707
G1 X120.957 Y143.067 E26.45943
G1 X120.427 Y143.096 E26.47709
G1 X119.811 Y143.109 E26.49758
G1 X96.682 Y143.108 E27.26685
G1 X95.944 Y143.096 E27.2914
G1 X94.973 Y143.037 E27.32376
G1 X94.044 Y142.898 E27.355
G1 X93.096 Y142.67 E27.38743
G1 X92.206 Y142.372 E27.41865
G1 X91.25 Y141.953 E27.45336
G1 X90.387 Y141.476 E27.48616
G1 X89.383 Y140.781 E27.52677
G1 X88.741 Y140.276 E27.55394
G1 X87.612 Y139.365 E27.60219
G1 X85.618 Y137.847 E27.68554
G1 X83.564 Y136.373 E27.76963
G1 X81.488 Y134.972 E27.85293
G1 X79.326 Y133.598 E27.93813
G1 X77.19 Y132.325 E28.02084
G1 X75 Y131.102 E28.10426
G1 X72.763 Y129.934 E28.1882
G1 X70.499 Y128.832 E28.27195
G1 X68.2 Y127.792 E28.35587
G1 X65.858 Y126.814 E28.44029
G1 X63.497 Y125.9 E28.52449
G1 X62.639 Y125.522 E28.55568
G1 X61.816 Y125.071 E28.58689
G1 X60.948 Y124.49 E28.62163
G1 X60.192 Y123.876 E28.65402
G1 X59.518 Y123.224 E28.68521
G1 X58.902 Y122.516 E28.71643
G1 X58.289 Y121.669 E28.7512
G1 X57.827 Y120.893 E28.78124
G1 X57.373 Y119.949 E28.81608
G1 X57.032 Y119.035 E28.84853
G1 X56.738 Y118.12 E28.88049
G1 X56.381 Y116.961 E28.92083
G1 X55.577 Y114.587 E29.00419
G1 X55.119 Y113.29 E29.04994
G1 X54.856 Y112.426 E29.07998
G1 X54.642 Y111.404 E29.11471
G1 X54.535 Y110.508 E29.14472
G1 X54.505 Y109.957 E29.16307
G1 X54.492 Y109.333 E29.18383
G1 X54.493 Y86.201 E29.95321
G1 X54.504 Y85.493 E29.97676
G1 X54.564 Y84.504 E30.00971
G1 X54.697 Y83.61 E30.03977
G1 X54.932 Y82.628 E30.07336
G1 X55.23 Y81.738 E30.10457
G1 X55.649 Y80.782 E30.13929
G1 X56.12 Y79.929 E30.1717
G1 X56.623 Y79.179 E30.20174
G1 X57.278 Y78.366 E30.23646
G1 X57.93 Y77.692 E30.26765
G1 X58.638 Y77.076 E30.29886
G1 F2700 E25.29886
;MESH:??????4.stl(1)
G0 F3600 X65.906 Y84.998
G0 X65.906 Y86.077
G0 X66.664 Y108.491
G0 X68.653 Y109.665
G0 X68.664 Y114.491
G0 X72.492 Y114.663
;TYPE:WALL-INNER
G1 F2700 E30.29886
G1 F1200 X72.492 Y86.663 E31.23015
G1 X66.492 Y86.663 E31.42971
G1 X66.492 Y108.663 E32.16143
G1 X67.492 Y108.663 E32.19469
G1 X67.794 Y108.709 E32.20485
G1 X68.177 Y108.933 E32.21961
G1 X68.339 Y109.129 E32.22807
G1 X68.452 Y109.38 E32.23722
G1 X68.492 Y109.663 E32.24673
G1 X68.492 Y114.663 E32.41303
G1 X72.492 Y114.663 E32.54607
G0 F3600 X72.892 Y115.063
G1 F1200 X72.892 Y86.263 E33.50396
G1 X66.092 Y86.263 E33.73013
G1 X66.092 Y109.063 E34.48846
G1 X67.628 Y109.063 E34.53955
G1 X67.903 Y109.225 E34.55016
G1 X68.092 Y109.532 E34.56215
G1 X68.092 Y115.063 E34.74612
G1 X72.892 Y115.063 E34.90577
G0 F3600 X73.292 Y115.463
;TYPE:WALL-OUTER
G1 F1200 X73.292 Y85.863 E35.89027
G1 X65.692 Y85.863 E36.14304
G1 X65.692 Y109.463 E36.92798
G1 X67.538 Y109.463 E36.98938
G1 X67.629 Y109.517 E36.9929
G1 X67.692 Y109.619 E36.99689
G1 X67.692 Y115.463 E37.19126
G1 X73.292 Y115.463 E37.37752
G0 F3600 X73.022 Y115.193
G0 X72.392 Y114.303
G0 X72.132 Y114.303
;TYPE:SKIN
G1 F1200 X68.852 Y114.303 E37.48661
G1 X68.851 Y109.642 E37.64163
G1 X68.797 Y109.272 E37.65407
G1 X68.646 Y108.936 E37.66632
G1 X68.444 Y108.691 E37.67688
G1 X68.191 Y108.497 E37.68749
G1 X67.905 Y108.363 E37.69799
G1 X67.518 Y108.305 E37.71101
G1 X66.852 Y108.303 E37.73316
G1 X66.852 Y87.023 E38.44094
G1 X72.132 Y87.023 E38.61655
G1 X72.132 Y114.303 E39.52389
G0 F3600 X72.392 Y114.303
G0 X69.413 Y114.563
G0 X69.413 Y114.102
G1 F1200 X69.051 Y113.74 E39.54091
G0 F3600 X69.051 Y113.174
G1 F1200 X69.978 Y114.102 E39.58454
G0 F3600 X70.544 Y114.102
G1 F1200 X69.051 Y112.608 E39.65479
G0 F3600 X69.05 Y112.042
G1 F1200 X71.11 Y114.102 E39.75169
G0 F3600 X71.675 Y114.102
G1 F1200 X69.05 Y111.476 E39.87518
G0 F3600 X69.049 Y110.91
