;FLAVOR:Marlin
;TIME:914
;Filament used: 0.284729m
;Layer height: 0.2
;MINX:97.557
;MINY:85.4
;MINZ:0.2
;MAXX:122.443
;MAXY:114.599
;MAXZ:15.2
;Generated with Cura_SteamEngine 5.3.0
M140 S60
M105
M190 S60
M104 S230
M105
M109 S230
M82 ;absolute extrusion mode
; Ender 3 Custom Start G-code
G92 E0 ; Reset Extruder
G28 ; Home all axes
G1 Z2.0 F3000 ; Move Z Axis up little to prevent scratching of Heat Bed
G1 X0.1 Y20 Z0.3 F5000.0 ; Move to start position
G1 X0.1 Y200.0 Z0.3 F1500.0 E15 ; Draw the first line
G1 X0.4 Y200.0 Z0.3 F5000.0 ; Move to side a little
G1 X0.4 Y20 Z0.3 F1500.0 E30 ; Draw the second line
G92 E0 ; Reset Extruder
G1 Z2.0 F3000 ; Move Z Axis up little to prevent scratching of Heat Bed
G1 X5 Y20 Z0.3 F5000.0 ; Move over to prevent blob squish
G92 E0
G92 E0
G1 F2700 E-5
;LAYER_COUNT:76
;LAYER:0
M107
G0 F6000 X100.806 Y89.861 Z0.2
;TYPE:SKIRT
G1 F2700 E0
G1 F1200 X101.416 Y89.196 E0.03001
G1 X102.083 Y88.586 E0.06008
G1 X102.801 Y88.039 E0.0901
G1 X103.565 Y87.557 E0.12014
G1 X104.368 Y87.144 E0.15018
G1 X105.205 Y86.804 E0.18022
G1 X106.068 Y86.539 E0.21025
G1 X106.952 Y86.352 E0.2403
G1 X107.848 Y86.243 E0.27032
G1 X108.449 Y86.215 E0.29034
G1 X109.27 Y86.201 E0.31765
G1 X110.677 Y86.2 E0.36444
G1 X111.516 Y86.211 E0.39235
G1 X112.418 Y86.264 E0.4224
G1 X113.311 Y86.397 E0.45243
G1 X114.189 Y86.608 E0.48247
G1 X115.045 Y86.896 E0.5125
G1 X115.873 Y87.258 E0.54256
G1 X116.664 Y87.692 E0.57257
G1 X117.415 Y88.195 E0.60263
G1 X118.118 Y88.762 E0.63267
G1 X118.768 Y89.389 E0.66271
G1 X119.36 Y90.071 E0.69275
G1 X119.889 Y90.802 E0.72276
G1 X120.352 Y91.578 E0.75281
G1 X120.744 Y92.391 E0.78283
G1 X121.063 Y93.236 E0.81287
G1 X121.305 Y94.106 E0.84291
G1 X121.517 Y95.379 E0.88583
G1 X121.591 Y96.107 E0.91017
G1 X121.643 Y97.198 E0.9465
G1 X121.639 Y97.874 E0.96898
G1 X121.611 Y99.385 E1.01925
G1 X121.623 Y101.531 E1.09062
G1 X121.641 Y102.557 E1.12476
G1 X121.612 Y103.528 E1.15707
G1 X121.546 Y104.377 E1.18539
G1 X121.437 Y105.273 E1.21541
G1 X121.248 Y106.156 E1.24544
G1 X120.982 Y107.019 E1.27548
G1 X120.641 Y107.855 E1.30551
G1 X120.227 Y108.658 E1.33556
G1 X119.743 Y109.421 E1.36561
G1 X119.194 Y110.138 E1.39565
G1 X118.584 Y110.804 E1.42568
G1 X117.918 Y111.413 E1.4557
G1 X117.2 Y111.961 E1.48574
G1 X116.436 Y112.443 E1.51579
G1 X115.633 Y112.856 E1.54582
G1 X114.796 Y113.196 E1.57587
G1 X113.933 Y113.461 E1.60589
G1 X113.049 Y113.648 E1.63595
G1 X112.153 Y113.756 E1.66596
G1 X111.551 Y113.785 E1.68601
G1 X110.73 Y113.799 E1.71332
G1 X109.176 Y113.799 E1.76501
G1 X108.484 Y113.789 E1.78802
G1 X107.582 Y113.736 E1.81808
G1 X106.689 Y113.603 E1.84811
G1 X105.811 Y113.392 E1.87814
G1 X104.955 Y113.104 E1.90818
G1 X104.127 Y112.742 E1.93823
G1 X103.336 Y112.308 E1.96824
G1 X102.585 Y111.805 E1.99831
G1 X101.882 Y111.238 E2.02835
G1 X101.232 Y110.611 E2.05838
G1 X100.64 Y109.929 E2.08842
G1 X100.111 Y109.198 E2.11843
G1 X99.648 Y108.422 E2.14849
G1 X99.256 Y107.609 E2.17851
G1 X98.937 Y106.764 E2.20855
G1 X98.695 Y105.894 E2.23858
G1 X98.494 Y104.723 E2.2781
G1 X98.438 Y104.222 E2.29487
G1 X98.387 Y103.637 E2.3144
G1 X98.357 Y102.796 E2.34239
G1 X98.363 Y101.966 E2.36999
G1 X98.389 Y100.611 E2.41507
G1 X98.377 Y98.457 E2.48671
G1 X98.359 Y97.441 E2.52051
G1 X98.388 Y96.471 E2.55279
G1 X98.454 Y95.623 E2.58108
G1 X98.564 Y94.726 E2.61114
G1 X98.752 Y93.843 E2.64116
G1 X99.018 Y92.98 E2.6712
G1 X99.36 Y92.144 E2.70124
G1 X99.774 Y91.341 E2.73129
G1 X100.257 Y90.578 E2.76132
G1 X100.806 Y89.861 E2.79136
G0 F6000 X100.488 Y89.618
G1 F1200 X101.146 Y88.901 E2.82373
G1 X101.813 Y88.291 E2.85379
G1 X102.588 Y87.701 E2.88619
G1 X103.382 Y87.201 E2.91739
G1 X104.217 Y86.773 E2.9486
G1 X105.054 Y86.433 E2.97865
G1 X105.985 Y86.148 E3.01103
G1 X106.904 Y85.955 E3.04227
G1 X107.829 Y85.843 E3.07326
G1 X108.442 Y85.815 E3.09367
G1 X109.27 Y85.801 E3.12121
G1 X110.682 Y85.8 E3.16817
G1 X111.539 Y85.812 E3.19668
G1 X112.477 Y85.868 E3.22793
G1 X113.37 Y86.001 E3.25796
G1 X114.317 Y86.229 E3.29036
G1 X115.205 Y86.529 E3.32154
G1 X116.033 Y86.891 E3.35159
G1 X116.856 Y87.341 E3.38279
G1 X117.638 Y87.863 E3.41406
G1 X118.396 Y88.474 E3.44644
G1 X119.046 Y89.101 E3.47648
G1 X119.684 Y89.836 E3.50885
G1 X120.233 Y90.597 E3.54006
G1 X120.696 Y91.373 E3.57012
G1 X121.104 Y92.217 E3.6013
G1 X121.448 Y93.129 E3.63372
G1 X121.7 Y94.04 E3.66515
G1 X121.912 Y95.313 E3.70808
G1 X121.991 Y96.088 E3.73399
G1 X122.043 Y97.2 E3.77101
G1 X122.039 Y97.881 E3.79366
G1 X122.011 Y99.392 E3.84393
G1 X122.023 Y101.524 E3.91484
G1 X122.041 Y102.569 E3.9496
G1 X122.011 Y103.559 E3.98254
G1 X121.943 Y104.425 E4.01144
G1 X121.828 Y105.357 E4.04267
G1 X121.639 Y106.24 E4.0727
G1 X121.364 Y107.137 E4.10391
G1 X120.997 Y108.038 E4.13627
G1 X120.583 Y108.841 E4.16632
G1 X120.061 Y109.664 E4.19873
G1 X119.512 Y110.381 E4.22877
G1 X118.854 Y111.099 E4.26116
G1 X118.161 Y111.731 E4.29235
G1 X117.443 Y112.279 E4.32239
G1 X116.619 Y112.799 E4.3548
G1 X115.784 Y113.227 E4.38601
G1 X114.947 Y113.567 E4.41606
G1 X114.016 Y113.852 E4.44844
G1 X113.097 Y114.045 E4.47967
G1 X112.172 Y114.156 E4.51066
G1 X111.558 Y114.185 E4.53111
G1 X110.737 Y114.199 E4.55842
G1 X109.17 Y114.199 E4.61053
G1 X108.461 Y114.188 E4.63412
G1 X107.523 Y114.132 E4.66537
G1 X106.63 Y113.999 E4.6954
G1 X105.683 Y113.771 E4.7278
G1 X104.795 Y113.471 E4.75897
G1 X103.967 Y113.109 E4.78903
G1 X103.144 Y112.659 E4.82023
G1 X102.362 Y112.137 E4.8515
G1 X101.604 Y111.526 E4.88388
G1 X100.954 Y110.899 E4.91392
G1 X100.316 Y110.164 E4.94629
G1 X99.767 Y109.403 E4.9775
G1 X99.304 Y108.627 E5.00756
G1 X98.896 Y107.783 E5.03873
G1 X98.552 Y106.871 E5.07115
G1 X98.301 Y105.962 E5.10252
G1 X98.096 Y104.767 E5.14285
G1 X98.04 Y104.257 E5.15991
G1 X97.987 Y103.651 E5.18014
G1 X97.957 Y102.793 E5.2087
G1 X97.963 Y101.958 E5.23647
G1 X97.989 Y100.603 E5.28155
G1 X97.977 Y98.459 E5.35286
G1 X97.959 Y97.429 E5.38712
G1 X97.989 Y96.44 E5.42003
G1 X98.057 Y95.574 E5.44892
G1 X98.167 Y94.677 E5.47898
G1 X98.37 Y93.725 E5.51135
G1 X98.636 Y92.862 E5.54139
G1 X99.004 Y91.961 E5.57376
G1 X99.418 Y91.158 E5.60381
G1 X99.939 Y90.335 E5.63621
G1 X100.488 Y89.618 E5.66624
G0 F6000 X100.17 Y89.375
G1 F1200 X100.876 Y88.606 E5.70096
G1 X101.543 Y87.996 E5.73103
G1 X102.375 Y87.363 E5.7658
G1 X103.2 Y86.845 E5.7982
G1 X104.066 Y86.402 E5.83055
G1 X104.903 Y86.062 E5.8606
G1 X105.903 Y85.757 E5.89537
G1 X106.856 Y85.558 E5.92775
G1 X107.811 Y85.443 E5.95974
G1 X108.435 Y85.415 E5.98052
G1 X109.27 Y85.401 E6.0083
G1 X110.688 Y85.4 E6.05546
G1 X111.563 Y85.413 E6.08456
G1 X112.536 Y85.472 E6.11699
G1 X113.429 Y85.605 E6.14702
G1 X114.411 Y85.84 E6.1806
G1 X115.365 Y86.162 E6.21409
G1 X116.193 Y86.524 E6.24414
G1 X117.078 Y87.008 E6.27769
G1 X117.86 Y87.53 E6.30897
G1 X118.674 Y88.186 E6.34374
G1 X119.324 Y88.813 E6.37377
G1 X120.008 Y89.602 E6.40851
G1 X120.577 Y90.392 E6.44089
G1 X121.04 Y91.168 E6.47094
G1 X121.478 Y92.076 E6.50447
G1 X121.834 Y93.022 E6.53809
G1 X122.095 Y93.974 E6.57092
G1 X122.307 Y95.247 E6.61385
G1 X122.391 Y96.069 E6.64133
G1 X122.443 Y97.202 E6.67905
G1 X122.439 Y97.888 E6.70187
G1 X122.411 Y99.399 E6.75213
G1 X122.423 Y101.517 E6.82258
G1 X122.441 Y102.581 E6.85797
G1 X122.41 Y103.59 E6.89155
G1 X122.34 Y104.474 E6.92104
G1 X122.225 Y105.406 E6.95228
G1 X122.03 Y106.324 E6.98349
G1 X121.734 Y107.288 E7.01703
G1 X121.353 Y108.221 E7.05055
G1 X120.939 Y109.024 E7.0806
G1 X120.379 Y109.907 E7.11537
G1 X119.83 Y110.624 E7.14541
G1 X119.124 Y111.395 E7.18018
G1 X118.431 Y112.027 E7.21138
G1 X117.686 Y112.597 E7.24257
G1 X116.801 Y113.155 E7.27737
G1 X115.935 Y113.598 E7.30973
G1 X115.098 Y113.938 E7.33977
G1 X114.098 Y114.243 E7.37455
G1 X113.145 Y114.442 E7.40693
G1 X112.191 Y114.556 E7.43888
G1 X111.565 Y114.585 E7.45973
G1 X110.744 Y114.599 E7.48704
G1 X109.164 Y114.599 E7.53959
G1 X108.437 Y114.587 E7.56377
G1 X107.464 Y114.528 E7.59619
G1 X106.571 Y114.395 E7.62622
G1 X105.589 Y114.16 E7.6598
G1 X104.635 Y113.838 E7.69329
G1 X103.807 Y113.476 E7.72335
G1 X102.922 Y112.992 E7.7569
G1 X102.14 Y112.47 E7.78817
G1 X101.326 Y111.814 E7.82294
G1 X100.676 Y111.187 E7.85298
G1 X99.992 Y110.398 E7.88771
G1 X99.423 Y109.608 E7.92009
G1 X98.96 Y108.832 E7.95015
G1 X98.536 Y107.957 E7.98249
G1 X98.166 Y106.977 E8.01733
G1 X97.915 Y106.068 E8.04869
G1 X97.698 Y104.811 E8.09112
G1 X97.642 Y104.292 E8.10848
G1 X97.587 Y103.665 E8.12942
G1 X97.557 Y102.79 E8.15853
G1 X97.563 Y101.95 E8.18647
G1 X97.589 Y100.595 E8.23155
G1 X97.577 Y98.461 E8.30253
G1 X97.559 Y97.417 E8.33726
G1 X97.59 Y96.409 E8.3708
G1 X97.66 Y95.525 E8.40029
G1 X97.77 Y94.628 E8.43035
G1 X97.988 Y93.607 E8.46507
G1 X98.254 Y92.744 E8.49511
G1 X98.648 Y91.778 E8.52981
G1 X99.062 Y90.975 E8.55986
G1 X99.621 Y90.092 E8.59462
G1 X100.17 Y89.375 E8.62465
G1 F2700 E3.62465
;MESH:ir????????????????????????.stl
G0 F6000 X107.919 Y96.714
G0 X108.789 Y97.12
;TYPE:WALL-OUTER
G1 F2700 E8.62465
G1 F1000 X108.835 Y96.64 E8.6439
G1 X111.166 Y96.64 E8.73693
G1 X111.209 Y97.119 E8.75613
G1 X108.789 Y97.12 E8.85272
G1 F2700 E3.85272
G0 F6000 X109.039 Y96.893
G0 X109.047 Y98.025
G0 X109.047 Y101.975
G0 X108.834 Y103.36
G1 F2700 E8.85272
G1 F1000 X108.789 Y102.88 E8.87196
G1 X111.211 Y102.88 E8.96863
G1 X111.165 Y103.36 E8.98787
G1 X108.834 Y103.36 E9.08091
G1 F2700 E4.08091
;MESH:NOMESH
G0 F300 X108.834 Y103.36 Z0.4
G0 F6000 X109.047 Y103.127
G0 X111.021 Y103.053
G0 X111.021 Y101.975
G0 X112.274 Y97.12
;TIME_ELAPSED:20.121832
;LAYER:1
M106 S85
;TYPE:WALL-OUTER
;MESH:ir????????????????????????.stl
G1 F2700 E9.08091
G1 F500 X107.725 Y97.12 E9.26247
G1 X107.751 Y96.64 E9.28165
G1 X112.248 Y96.64 E9.46114
G1 X112.274 Y97.12 E9.48032
G1 F2700 E4.48032
G0 F7500 X112.035 Y96.892
G0 X107.97 Y96.94
G0 X107.97 Y98.025
G0 X107.97 Y101.975
G0 X107.752 Y103.36
G1 F2700 E9.48032
G1 F500 X107.726 Y102.88 E9.49951
G1 F501 X112.276 Y102.88 E9.68073
G1 X112.249 Y103.36 E9.69988
G1 X107.752 Y103.36 E9.87899
G1 F2700 E4.87899
;MESH:NOMESH
G0 F300 X107.752 Y103.36 Z0.6
G0 F7500 X107.97 Y103.128
G0 X112.093 Y103.053
G0 X112.093 Y101.975
G0 X113.218 Y98.012
G0 X113.179 Y97.108
G0 X112.977 Y97.12
;TIME_ELAPSED:24.126269
;LAYER:2
M106 S170
;TYPE:WALL-OUTER
;MESH:ir????????????????????????.stl
G1 F2700 E9.87899
G1 F501 X107.024 Y97.12 E10.11609
G1 F500 X107.001 Y96.64 E10.13527
G1 F501 X112.999 Y96.64 E10.37417
G1 X112.977 Y97.12 E10.3933
G1 F2700 E5.3933
G0 F9000 X112.755 Y96.888
G0 X112.759 Y98.025
G0 X112.759 Y101.975
G0 X112.999 Y103.36
G1 F2700 E10.3933
G1 F500 X107.002 Y103.36 E10.63266
G1 X107.023 Y102.88 E10.65183
G1 X112.976 Y102.88 E10.88943
G1 X112.999 Y103.36 E10.90861
;MESH:NOMESH
G0 F300 X112.999 Y103.36 Z0.8
G0 F9000 X113.559 Y103.36
;TIME_ELAPSED:28.168672
;LAYER:3
M106 S255
;TYPE:WALL-OUTER
;MESH:ir????????????????????????.stl
G1 F501 X106.442 Y103.36 E11.19207
G1 F500 X106.427 Y102.88 E11.21124
G1 F501 X113.574 Y102.879 E11.4959
G1 X113.559 Y103.36 E11.51507
G1 F2700 E6.51507
G0 F9000 X113.336 Y103.128
G0 X112.947 Y101.987
G0 X112.947 Y98.013
G0 X113.573 Y97.12
G1 F2700 E11.51507
G1 F500 X106.427 Y97.12 E11.80028
G1 X106.441 Y96.64 E11.81944
G1 X113.558 Y96.64 E12.1035
G1 X113.573 Y97.12 E12.12267
G1 F2700 E7.12267
;MESH:NOMESH
G0 F300 X113.573 Y97.12 Z1
G0 F9000 X113.338 Y96.891
G0 X112.947 Y98.013
G0 X112.947 Y101.987
G0 X113.698 Y102.879
;TIME_ELAPSED:32.969030
;LAYER:4
;TYPE:WALL-OUTER
;MESH:ir????????????????????????.stl
G1 F2700 E12.12267
G1 F570.1 X113.775 Y102.67 E12.13046
G1 F681.8 X113.776 Y97.36 E12.28588
G1 F566 X113.698 Y97.12 E12.29478
G1 F486.8 X106.302 Y97.121 E12.59796
G1 F571.4 X106.225 Y97.36 E12.60673
G1 F681.8 X106.225 Y102.671 E12.76218
G1 F566 X106.303 Y102.88 E12.77005
G1 F487.8 X113.698 Y102.879 E13.07257
G1 F2700 E8.07257
G0 F9000 X113.698 Y103.14
G0 X106.168 Y103.13
G0 X105.948 Y103.35
G1 F2700 E13.07257
G1 F479 X105.948 Y103.099 E13.08303
G1 F562.1 X105.874 Y102.701 E13.0974
G1 F681.8 X105.873 Y97.36 E13.25373
G1 F563.4 X105.947 Y96.901 E13.2702
G1 F479 X105.947 Y96.65 E13.28065
G1 X106.198 Y96.65 E13.29111
G1 F487.8 X106.317 Y96.642 E13.29599
G1 F497.9 X113.6 Y96.64 E13.58788
G1 F488.8 X114.051 Y96.651 E13.6063
G1 F478.1 X114.052 Y96.901 E13.61673
G1 F562.1 X114.127 Y97.36 E13.63325
G1 F681.8 X114.127 Y102.7 E13.78954
G1 F562.1 X114.053 Y103.099 E13.80395
G1 F479 X114.053 Y103.35 E13.81441
G1 X113.802 Y103.35 E13.82486
G1 F487.8 X113.683 Y103.358 E13.82974
G1 F497.9 X106.4 Y103.36 E14.12164
G1 F489.8 X106.199 Y103.35 E14.12983
G1 F479 X105.948 Y103.35 E14.14029
;MESH:NOMESH
G0 F300 X105.948 Y103.35 Z1.2
G0 F9000 X106.122 Y102.807
;TIME_ELAPSED:40.006522
;LAYER:5
;TYPE:WALL-OUTER
;MESH:ir????????????????????????.stl
G1 F450.3 X106.4 Y102.88 E14.15303
G1 F497.9 X113.642 Y102.879 E14.44328
G1 F437.2 X113.853 Y102.813 E14.45337
G1 F408.2 X113.879 Y102.688 E14.45961
G1 F427.8 X113.88 Y97.36 E14.70815
G1 F408.9 X113.853 Y97.186 E14.71674
G1 F438.8 X113.6 Y97.12 E14.72864
G1 F497.9 X106.358 Y97.121 E15.01888
G1 F438 X106.147 Y97.187 E15.02896
G1 F409.6 X106.12 Y97.36 E15.03749
G1 F418.8 X106.122 Y102.807 E15.29701
G0 F9000 X105.587 Y103.294
G1 F391.5 X105.587 Y102.987 E15.31266
G1 F408.2 X105.562 Y102.737 E15.32495
G1 F427 X105.56 Y97.36 E15.57622
G1 F409.6 X105.587 Y97.014 E15.59313
G1 F392.2 X105.587 Y96.707 E15.60875
G1 X105.894 Y96.707 E15.62437
G1 F438 X106.317 Y96.642 E15.64387
G1 F497.9 X113.6 Y96.64 E15.93576
G1 F438.8 X114.106 Y96.707 E15.95898
G1 F390.9 X114.412 Y96.707 E15.9746
G1 X114.413 Y97.013 E15.99022
G1 F408.9 X114.44 Y97.36 E16.00721
G1 F427.8 X114.439 Y102.736 E16.25799
G1 F408.2 X114.413 Y102.986 E16.27028
G1 F390.9 X114.413 Y103.293 E16.28595
G1 X114.106 Y103.293 E16.30162
G1 F437.2 X113.683 Y103.358 E16.32116
G1 F497.9 X106.4 Y103.36 E16.61305
G1 F439.6 X105.894 Y103.294 E16.63622
G1 F391.5 X105.587 Y103.294 E16.65187
;MESH:NOMESH
G0 F300 X105.587 Y103.294 Z1.4
G0 F9000 X106.123 Y103.01
;TIME_ELAPSED:47.757551
;LAYER:6
;TYPE:WALL-INNER
;MESH:ir????????????????????????.stl
G1 F640 X105.816 Y102.77 E16.66402
G1 F641.7 X105.816 Y97.232 E16.83624
G1 F636.6 X106.076 Y96.989 E16.8474
G1 F633.2 X105.452 Y96.989 E16.86706
G1 F634.9 X105.454 Y103.01 E17.05631
G1 X106.123 Y103.01 E17.07733
G0 F9000 X106.123 Y103.14
G0 X113.924 Y103.14
G0 X113.924 Y103.011
G1 F633.2 X114.548 Y103.011 E17.097
G1 F641.7 X114.553 Y97.36 E17.27273
G1 X114.546 Y96.99 E17.28424
G1 F631.6 X113.878 Y96.99 E17.30535
G1 F634.9 X114.184 Y97.232 E17.31761
G1 F640 X114.184 Y102.768 E17.49023
G1 F638.3 X113.924 Y103.011 E17.50136
G0 F9000 X113.642 Y102.879
;TYPE:WALL-OUTER
G1 F497.9 X106.4 Y102.88 E17.79161
G1 F545.5 X106.205 Y102.687 E17.80164
G1 F600 X106.205 Y97.313 E17.98038
G1 F543 X106.358 Y97.121 E17.98941
G1 F497.9 X113.6 Y97.12 E18.27965
G1 F545.5 X113.795 Y97.313 E18.28969
G1 F600 X113.795 Y102.687 E18.46843
G1 F543 X113.642 Y102.879 E18.47746
G0 F9000 X113.642 Y103.14
G0 X114.667 Y103.13
G0 X114.937 Y103.4
G1 F600 X114.936 Y96.6 E18.70362
G1 X114.357 Y96.6 E18.72288
G1 F545.5 X113.6 Y96.64 E18.75062
G1 F497.9 X106.317 Y96.642 E19.04251
G1 F543 X105.642 Y96.6 E19.06736
G1 F600 X105.063 Y96.6 E19.08662
G1 X105.065 Y103.399 E19.31276
G1 X105.643 Y103.399 E19.33198
G1 F545.5 X106.4 Y103.36 E19.35971
G1 F497.9 X113.683 Y103.358 E19.65161
G1 F543 X114.358 Y103.4 E19.67646
G1 F600 X114.937 Y103.4 E19.69572
;MESH:NOMESH
G0 F300 X114.937 Y103.4 Z1.6
G0 F9000 X114.667 Y103.13
G0 X105.972 Y103.068
G0 X106.016 Y102.933
;TIME_ELAPSED:57.736752
;LAYER:7
;TYPE:WALL-INNER
;MESH:ir????????????????????????.stl
G1 F450.3 X105.734 Y102.659 E19.71314
G1 X105.733 Y97.341 E19.94883
G1 F449.4 X105.97 Y97.067 E19.96492
G1 X105.199 Y97.067 E19.99915
G1 F450.3 X105.2 Y102.933 E20.25913
G1 X106.016 Y102.933 E20.29529
G0 F9000 X105.467 Y102.766
G0 X105.972 Y103.068
G0 X114.028 Y103.068
G0 X114.534 Y102.766
G0 X114.03 Y102.933
G1 F449.4 X114.801 Y102.933 E20.32953
G1 X114.8 Y97.067 E20.58999
G1 F448.6 X113.984 Y97.067 E20.62629
G1 X114.266 Y97.341 E20.64378
G1 F449.4 X114.267 Y102.659 E20.87991
G1 X114.03 Y102.933 E20.896
G0 F9000 X113.642 Y102.879
;TYPE:WALL-OUTER
G1 F497.9 X106.4 Y102.88 E21.18625
G1 F545.5 X106.2 Y102.646 E21.19751
