;FLAVOR:Marlin
;TIME:658
;Filament used: 0.191544m
;Layer height: 0.2
;MINX:97.638
;MINY:85.85
;MINZ:0.2
;MAXX:122.362
;MAXY:114.15
;MAXZ:13.2
;Generated with Cura_SteamEngine 5.3.0
M140 S60
M105
M190 S60
M104 S230
M105
M109 S230
M82 ;absolute extrusion mode
; Ender 3 Custom Start G-code
G92 E0 ; Reset Extruder
G28 ; Home all axes
G1 Z2.0 F3000 ; Move Z Axis up little to prevent scratching of Heat Bed
G1 X0.1 Y20 Z0.3 F5000.0 ; Move to start position
G1 X0.1 Y200.0 Z0.3 F1500.0 E15 ; Draw the first line
G1 X0.4 Y200.0 Z0.3 F5000.0 ; Move to side a little
G1 X0.4 Y20 Z0.3 F1500.0 E30 ; Draw the second line
G92 E0 ; Reset Extruder
G1 Z2.0 F3000 ; Move Z Axis up little to prevent scratching of Heat Bed
G1 X5 Y20 Z0.3 F5000.0 ; Move over to prevent blob squish
G92 E0
G92 E0
G1 F2700 E-5
;LAYER_COUNT:66
;LAYER:0
M107
G0 F6000 X101.039 Y90.149 Z0.2
;TYPE:SKIRT
G1 F2700 E0
G1 F1200 X101.663 Y89.496 E0.03004
G1 X102.343 Y88.902 E0.06007
G1 X103.072 Y88.369 E0.09011
G1 X103.846 Y87.904 E0.12014
G1 X104.658 Y87.508 E0.15019
G1 X105.502 Y87.186 E0.18023
G1 X106.37 Y86.94 E0.21024
G1 X107.258 Y86.771 E0.2403
G1 X108.525 Y86.669 E0.28258
G1 X109.629 Y86.65 E0.31931
G1 X110.585 Y86.65 E0.3511
G1 X111.425 Y86.661 E0.37904
G1 X112.327 Y86.714 E0.4091
G1 X113.22 Y86.847 E0.43912
G1 X114.098 Y87.058 E0.46916
G1 X114.954 Y87.345 E0.49919
G1 X115.781 Y87.708 E0.52923
G1 X116.573 Y88.142 E0.55926
G1 X117.324 Y88.645 E0.58933
G1 X118.027 Y89.212 E0.61937
G1 X118.677 Y89.839 E0.6494
G1 X119.269 Y90.521 E0.67944
G1 X119.798 Y91.252 E0.70945
G1 X120.261 Y92.028 E0.73951
G1 X120.653 Y92.841 E0.76953
G1 X120.972 Y93.686 E0.79957
G1 X121.214 Y94.556 E0.8296
G1 X121.413 Y95.711 E0.86859
G1 X121.5 Y96.519 E0.89561
G1 X121.528 Y96.86 E0.90699
G1 X121.562 Y97.731 E0.93599
G1 X121.559 Y98.576 E0.96409
G1 X121.539 Y99.764 E1.00361
G1 X121.559 Y101.329 E1.05567
G1 X121.56 Y102.371 E1.09032
G1 X121.51 Y103.393 E1.12436
G1 X121.435 Y104.145 E1.14949
G1 X121.305 Y105.039 E1.17954
G1 X121.097 Y105.918 E1.20958
G1 X120.813 Y106.775 E1.23961
G1 X120.453 Y107.603 E1.26964
G1 X120.022 Y108.397 E1.29969
G1 X119.522 Y109.149 E1.32972
G1 X118.958 Y109.854 E1.35975
G1 X118.333 Y110.506 E1.38979
G1 X117.653 Y111.101 E1.41984
G1 X116.923 Y111.633 E1.44989
G1 X116.149 Y112.098 E1.47992
G1 X115.337 Y112.493 E1.50995
G1 X114.494 Y112.815 E1.53997
G1 X113.625 Y113.061 E1.57001
G1 X112.737 Y113.229 E1.60007
G1 X111.475 Y113.331 E1.64218
G1 X110.371 Y113.35 E1.6789
G1 X109.268 Y113.349 E1.71559
G1 X108.575 Y113.339 E1.73864
G1 X107.673 Y113.286 E1.76869
G1 X106.78 Y113.153 E1.79872
G1 X105.902 Y112.942 E1.82875
G1 X105.046 Y112.655 E1.85878
G1 X104.219 Y112.292 E1.88882
G1 X103.427 Y111.858 E1.91886
G1 X102.676 Y111.355 E1.94892
G1 X101.973 Y110.788 E1.97896
G1 X101.323 Y110.161 E2.009
G1 X100.731 Y109.479 E2.03904
G1 X100.202 Y108.748 E2.06905
G1 X99.739 Y107.972 E2.0991
G1 X99.347 Y107.159 E2.12912
G1 X99.028 Y106.314 E2.15916
G1 X98.786 Y105.444 E2.1892
G1 X98.587 Y104.291 E2.22811
G1 X98.53 Y103.789 E2.24492
G1 X98.47 Y103.105 E2.26776
G1 X98.438 Y102.261 E2.29585
G1 X98.441 Y101.423 E2.32372
G1 X98.461 Y100.23 E2.3634
G1 X98.441 Y98.671 E2.41526
G1 X98.44 Y97.622 E2.45015
G1 X98.49 Y96.604 E2.48405
G1 X98.564 Y95.859 E2.50895
G1 X98.693 Y94.965 E2.53899
G1 X98.9 Y94.086 E2.56903
G1 X99.185 Y93.229 E2.59907
G1 X99.544 Y92.4 E2.62912
G1 X99.975 Y91.607 E2.65913
G1 X100.475 Y90.854 E2.6892
G1 X101.039 Y90.149 E2.71923
G0 F6000 X100.727 Y89.899
G1 F1200 X101.4 Y89.195 E2.75162
G1 X102.107 Y88.579 E2.78281
G1 X102.866 Y88.026 E2.81404
G1 X103.671 Y87.544 E2.84525
G1 X104.515 Y87.134 E2.87646
G1 X105.359 Y86.812 E2.9065
G1 X106.295 Y86.547 E2.93886
G1 X107.226 Y86.372 E2.97037
G1 X108.518 Y86.269 E3.01347
G1 X109.622 Y86.25 E3.0502
G1 X110.59 Y86.25 E3.08239
G1 X111.448 Y86.262 E3.11093
G1 X112.386 Y86.318 E3.14219
G1 X113.279 Y86.451 E3.17222
G1 X114.191 Y86.669 E3.2034
G1 X115.115 Y86.979 E3.23582
G1 X115.973 Y87.357 E3.267
G1 X116.765 Y87.791 E3.29704
G1 X117.547 Y88.313 E3.32831
G1 X118.305 Y88.924 E3.3607
G1 X118.955 Y89.551 E3.39073
G1 X119.593 Y90.286 E3.42311
G1 X120.142 Y91.047 E3.45432
G1 X120.605 Y91.823 E3.48437
G1 X121.013 Y92.667 E3.51555
G1 X121.357 Y93.579 E3.54797
G1 X121.608 Y94.488 E3.57933
G1 X121.811 Y95.668 E3.61916
G1 X121.899 Y96.486 E3.64652
G1 X121.928 Y96.844 E3.65847
G1 X121.962 Y97.732 E3.68802
G1 X121.959 Y98.583 E3.71633
G1 X121.939 Y99.771 E3.75585
G1 X121.959 Y101.329 E3.80767
G1 X121.96 Y102.391 E3.84299
G1 X121.91 Y103.413 E3.87703
G1 X121.831 Y104.203 E3.90343
G1 X121.701 Y105.097 E3.93348
G1 X121.477 Y106.044 E3.96585
G1 X121.193 Y106.901 E3.99587
G1 X120.805 Y107.794 E4.02826
G1 X120.374 Y108.588 E4.05831
G1 X119.834 Y109.399 E4.09071
G1 X119.247 Y110.131 E4.12192
G1 X118.622 Y110.783 E4.15196
G1 X117.889 Y111.424 E4.18435
G1 X117.129 Y111.976 E4.21559
G1 X116.324 Y112.458 E4.2468
G1 X115.48 Y112.867 E4.27799
G1 X114.637 Y113.189 E4.308
G1 X113.734 Y113.446 E4.33923
G1 X112.769 Y113.628 E4.37189
G1 X111.507 Y113.73 E4.414
G1 X110.371 Y113.75 E4.45179
G1 X109.262 Y113.749 E4.48868
G1 X108.552 Y113.738 E4.5123
G1 X107.614 Y113.682 E4.54355
G1 X106.721 Y113.549 E4.57358
G1 X105.809 Y113.331 E4.60477
G1 X104.885 Y113.021 E4.63718
G1 X104.027 Y112.643 E4.66837
G1 X103.235 Y112.209 E4.6984
G1 X102.453 Y111.687 E4.72967
G1 X101.695 Y111.076 E4.76206
G1 X101.045 Y110.449 E4.79209
G1 X100.407 Y109.714 E4.82447
G1 X99.858 Y108.953 E4.85568
G1 X99.395 Y108.177 E4.88573
G1 X98.987 Y107.333 E4.91691
G1 X98.643 Y106.421 E4.94933
G1 X98.392 Y105.512 E4.98069
G1 X98.19 Y104.336 E5.02038
G1 X98.132 Y103.824 E5.03752
G1 X98.07 Y103.12 E5.06103
G1 X98.038 Y102.26 E5.08965
G1 X98.041 Y101.416 E5.11772
G1 X98.061 Y100.223 E5.15741
G1 X98.041 Y98.671 E5.20903
G1 X98.04 Y97.602 E5.24458
G1 X98.092 Y96.564 E5.27915
G1 X98.168 Y95.802 E5.30462
G1 X98.297 Y94.908 E5.33466
G1 X98.52 Y93.96 E5.36706
G1 X98.805 Y93.103 E5.39709
G1 X99.177 Y92.241 E5.42832
G1 X99.642 Y91.386 E5.46069
G1 X100.163 Y90.604 E5.49194
G1 X100.727 Y89.899 E5.52197
G0 F6000 X100.415 Y89.649
G1 F1200 X101.137 Y88.893 E5.55674
G1 X101.844 Y88.277 E5.58793
G1 X102.63 Y87.703 E5.6203
G1 X103.496 Y87.184 E5.65388
G1 X104.372 Y86.76 E5.68625
G1 X105.216 Y86.438 E5.7163
G1 X106.186 Y86.162 E5.74984
G1 X107.194 Y85.973 E5.78395
G1 X108.511 Y85.869 E5.82789
G1 X109.615 Y85.85 E5.86461
G1 X110.596 Y85.85 E5.89724
G1 X111.472 Y85.863 E5.92638
G1 X112.445 Y85.922 E5.9588
G1 X113.338 Y86.055 E5.98883
G1 X114.284 Y86.28 E6.02117
G1 X115.276 Y86.613 E6.05598
G1 X116.165 Y87.006 E6.08831
G1 X116.987 Y87.458 E6.11951
G1 X117.769 Y87.98 E6.15078
G1 X118.583 Y88.636 E6.18555
G1 X119.233 Y89.263 E6.21559
G1 X119.917 Y90.052 E6.25032
G1 X120.486 Y90.842 E6.2827
G1 X120.949 Y91.618 E6.31275
G1 X121.373 Y92.493 E6.34509
G1 X121.743 Y93.473 E6.37993
G1 X121.994 Y94.382 E6.4113
G1 X122.209 Y95.625 E6.45326
G1 X122.298 Y96.454 E6.48099
G1 X122.328 Y96.829 E6.4935
G1 X122.362 Y97.733 E6.52359
G1 X122.359 Y98.59 E6.55209
G1 X122.339 Y99.778 E6.59161
G1 X122.359 Y101.329 E6.6432
G1 X122.36 Y102.411 E6.67919
G1 X122.31 Y103.433 E6.71322
G1 X122.227 Y104.261 E6.7409
G1 X122.097 Y105.155 E6.77095
G1 X121.857 Y106.17 E6.80564
G1 X121.573 Y107.027 E6.83566
G1 X121.157 Y107.985 E6.8704
G1 X120.726 Y108.779 E6.90045
G1 X120.167 Y109.621 E6.93407
G1 X119.536 Y110.408 E6.96762
G1 X118.911 Y111.06 E6.99766
G1 X118.124 Y111.748 E7.03242
G1 X117.364 Y112.3 E7.06366
G1 X116.498 Y112.818 E7.09723
G1 X115.623 Y113.241 E7.12955
G1 X114.78 Y113.563 E7.15957
G1 X113.843 Y113.831 E7.19198
G1 X112.801 Y114.027 E7.22725
G1 X111.539 Y114.129 E7.26936
G1 X110.371 Y114.15 E7.30821
G1 X109.256 Y114.149 E7.3453
G1 X108.528 Y114.137 E7.36951
G1 X107.555 Y114.078 E7.40193
G1 X106.662 Y113.945 E7.43196
G1 X105.716 Y113.72 E7.46431
G1 X104.724 Y113.387 E7.49911
G1 X103.835 Y112.994 E7.53144
G1 X103.013 Y112.542 E7.56264
G1 X102.231 Y112.02 E7.59391
G1 X101.417 Y111.364 E7.62868
G1 X100.767 Y110.737 E7.65872
G1 X100.083 Y109.948 E7.69345
G1 X99.514 Y109.158 E7.72583
G1 X99.051 Y108.382 E7.75589
G1 X98.627 Y107.507 E7.78822
G1 X98.257 Y106.527 E7.82307
G1 X98.006 Y105.618 E7.85443
G1 X97.793 Y104.381 E7.89618
G1 X97.734 Y103.859 E7.91365
G1 X97.67 Y103.135 E7.93783
G1 X97.638 Y102.259 E7.96698
G1 X97.641 Y101.409 E7.99525
G1 X97.661 Y100.216 E8.03494
G1 X97.641 Y98.671 E8.08633
G1 X97.641 Y97.582 E8.12255
G1 X97.694 Y96.524 E8.15778
G1 X97.772 Y95.745 E8.18382
G1 X97.901 Y94.851 E8.21386
G1 X98.14 Y93.834 E8.24861
G1 X98.425 Y92.977 E8.27865
G1 X98.826 Y92.05 E8.31224
G1 X99.309 Y91.164 E8.34581
G1 X99.83 Y90.382 E8.37706
G1 X100.415 Y89.649 E8.40825
G1 F2700 E3.40825
;MESH:ir????????????????????????.stl
G0 F6000 X110.859 Y96.185
G0 X111.142 Y97.48
;TYPE:WALL-OUTER
G1 F2700 E8.40825
G1 F1145.6 X108.86 Y97.48 E8.48776
G1 F1142.9 X108.898 Y97.06 E8.50248
G1 F1145.6 X111.101 Y97.06 E8.57924
G1 X111.142 Y97.48 E8.59394
G1 F2700 E3.59394
G0 F6000 X110.86 Y98.354
G0 X110.86 Y101.646
G0 X111.102 Y102.94
G1 F2700 E8.59394
G1 F1145.6 X108.899 Y102.94 E8.67069
G1 F1142.9 X108.858 Y102.521 E8.68539
G1 F1145.6 X111.14 Y102.52 E8.7649
G1 X111.102 Y102.94 E8.77959
G1 F2700 E3.77959
;MESH:NOMESH
G0 F300 X111.102 Y102.94 Z0.4
G0 F6000 X110.86 Y101.646
G0 X112.088 Y98.34
G0 X112.14 Y97.48
;TIME_ELAPSED:19.609071
;LAYER:1
M106 S85
;TYPE:WALL-OUTER
;MESH:ir????????????????????????.stl
G1 F2700 E8.77959
G1 F571.4 X107.861 Y97.48 E8.92903
G1 X107.883 Y97.06 E8.94371
G1 X112.117 Y97.06 E9.09158
G1 X112.14 Y97.48 E9.10627
G1 F2700 E4.10627
G0 F7500 X111.868 Y98.355
G0 X111.87 Y101.645
G0 X112.117 Y102.94
G1 F2700 E9.10627
G1 F572.8 X107.883 Y102.94 E9.25378
G1 F571.4 X107.86 Y102.52 E9.26847
G1 F572.8 X112.14 Y102.52 E9.41759
G1 X112.117 Y102.94 E9.43224
G1 F2700 E4.43224
;MESH:NOMESH
G0 F300 X112.117 Y102.94 Z0.6
G0 F7500 X111.87 Y103.815
G0 X107.066 Y103.804
G0 X107.008 Y102.951
G0 X107.198 Y102.94
;TIME_ELAPSED:22.914594
;LAYER:2
M106 S170
;TYPE:WALL-OUTER
;MESH:ir????????????????????????.stl
G1 F2700 E9.43224
G1 F571.4 X107.185 Y102.52 E9.44692
G1 F572.8 X112.823 Y102.519 E9.64334
G1 X112.803 Y102.94 E9.65803
G1 X107.198 Y102.94 E9.85331
G1 F2700 E4.85331
G0 F9000 X107.448 Y101.645
G0 X107.449 Y98.355
G0 X107.178 Y97.48
G1 F2700 E9.85331
G1 F571.4 X107.197 Y97.06 E9.86799
G1 X112.802 Y97.06 E10.06373
G1 F570.1 X112.814 Y97.479 E10.07841
G1 F571.4 X107.178 Y97.48 E10.27523
;MESH:NOMESH
G0 F300 X107.178 Y97.48 Z0.8
G0 F9000 X106.644 Y97.69
;TIME_ELAPSED:26.350523
;LAYER:3
M106 S255
;TYPE:WALL-OUTER
;MESH:ir????????????????????????.stl
G1 F576.9 X106.647 Y97.06 E10.29703
G1 F571.4 X113.353 Y97.06 E10.53122
G1 F576.9 X113.357 Y97.69 E10.55301
G1 X113.15 Y97.48 E10.56321
G1 F571.4 X106.85 Y97.48 E10.78323
G1 F576.9 X106.644 Y97.69 E10.7934
G1 F2700 E5.7934
G0 F9000 X107.503 Y98.343
G0 X112.497 Y98.343
G0 X113.357 Y97.69
G1 F2700 E10.7934
G1 F581.1 X113.356 Y102.345 E10.95326
G1 F575.5 X113.353 Y102.94 E10.97389
G1 F571.4 X106.647 Y102.94 E11.20809
G1 F574.2 X106.644 Y102.345 E11.22877
G1 X106.85 Y102.52 E11.23816
G1 F571.4 X113.15 Y102.52 E11.45818
G1 F575.5 X113.356 Y102.345 E11.46755
G1 F2700 E6.46755
G0 F9000 X112.497 Y101.657
G0 X107.503 Y101.657
G0 X106.644 Y102.345
G1 F2700 E11.46755
G1 F579.7 X106.644 Y97.69 E11.6278
G1 F2700 E6.6278
;MESH:NOMESH
G0 F300 X106.644 Y97.69 Z1
G0 F9000 X107.503 Y98.343
G0 X112.497 Y101.657
G0 X113.752 Y102.903
;TIME_ELAPSED:32.236831
;LAYER:4
;TYPE:WALL-OUTER
;MESH:ir????????????????????????.stl
G1 F2700 E11.6278
G1 F484.8 X113.504 Y102.903 E11.638
G1 F522.9 X113.223 Y102.939 E11.64882
G1 F570.1 X106.85 Y102.94 E11.87191
G1 F525.2 X106.496 Y102.903 E11.88544
G1 F484.8 X106.249 Y102.903 E11.8956
G1 X106.248 Y102.656 E11.90577
G1 F520.6 X106.215 Y102.383 E11.91631
G1 F564.7 X106.214 Y97.69 E12.08215
G1 F544.2 X106.274 Y97.098 E12.10397
G1 F504.2 X106.496 Y97.098 E12.11276
G1 F524 X106.777 Y97.061 E12.12355
G1 F570.1 X113.15 Y97.06 E12.34665
G1 F558.1 X113.729 Y97.121 E12.36747
G1 F555.6 X113.787 Y97.69 E12.38801
G1 F563.4 X113.786 Y102.382 E12.55421
G1 F520.6 X113.752 Y102.655 E12.56476
G1 F484.8 X113.752 Y102.903 E12.57496
G1 F2700 E7.57496
G0 F9000 X113.529 Y102.68
G0 X106.35 Y102.483
G0 X106.673 Y102.483
G1 F2700 E12.57496
G1 F525.2 X106.85 Y102.52 E12.58184
G1 F570.1 X113.187 Y102.519 E12.80367
G1 F522.9 X113.327 Y102.483 E12.80919
G1 F520.6 X113.361 Y102.346 E12.8146
G1 F563.4 X113.362 Y97.69 E12.97952
G1 F521.7 X113.327 Y97.517 E12.98627
G1 F525.2 X113.15 Y97.48 E12.99315
G1 F570.1 X106.813 Y97.481 E13.21498
G1 F524 X106.673 Y97.517 E13.22049
G1 F522.9 X106.638 Y97.69 E13.22722
G1 F564.7 X106.639 Y102.347 E13.3918
G1 F520.6 X106.673 Y102.483 E13.39717
;MESH:NOMESH
G0 F300 X106.673 Y102.483 Z1.2
G0 F9000 X106.35 Y102.483
G0 X106.502 Y97.498
G0 X106.232 Y97.498
;TIME_ELAPSED:38.712493
;LAYER:5
;TYPE:WALL-INNER
;MESH:ir????????????????????????.stl
G1 F500 X106.217 Y97.69 E13.40486
G1 F509.6 X106.221 Y102.42 E13.5901
G1 F494.8 X106.232 Y102.503 E13.59348
G0 F9000 X106.422 Y102.738
G0 X113.578 Y102.738
G0 X113.768 Y102.502
G1 F495.9 X113.78 Y102.419 E13.59685
G1 F511.7 X113.783 Y97.69 E13.78127
G1 F499 X113.768 Y97.497 E13.78901
G1 F2700 E8.78901
G0 F9000 X113.946 Y102.68
G0 X114.216 Y102.95
;TYPE:WALL-OUTER
G1 F2700 E13.78901
G1 F600 X114.215 Y97.05 E13.98525
G1 F585.4 X113.15 Y97.06 E14.02156
G1 F570.1 X106.777 Y97.061 E14.24465
G1 F583.9 X105.785 Y97.051 E14.27856
G1 F600 X105.785 Y102.95 E14.47476
G1 F585.4 X106.85 Y102.94 E14.51107
G1 F570.1 X113.223 Y102.939 E14.73416
G1 F583.9 X114.216 Y102.95 E14.7681
G1 F2700 E9.7681
G0 F9000 X113.946 Y102.68
G0 X113.578 Y102.738
G0 X106.422 Y102.738
G0 X106.35 Y102.365
G0 X106.652 Y102.365
G1 F2700 E14.7681
G1 F600 X106.65 Y97.638 E14.92532
G1 F583.9 X106.813 Y97.481 E14.93305
G1 F570.1 X113.15 Y97.48 E15.15489
G1 F585.4 X113.35 Y97.637 E15.16356
G1 F600 X113.349 Y102.362 E15.32071
G1 F583.9 X113.187 Y102.519 E15.32842
G1 F570.1 X106.85 Y102.52 E15.55026
G1 F585.4 X106.652 Y102.365 E15.55883
;MESH:NOMESH
G0 F300 X106.652 Y102.365 Z1.4
G0 F9000 X106.467 Y102.546
;TIME_ELAPSED:46.844979
;LAYER:6
;TYPE:WALL-INNER
;MESH:ir????????????????????????.stl
G1 F591.1 X106.247 Y102.335 E15.56912
G1 X106.247 Y97.665 E15.72677
G1 F589.7 X106.432 Y97.453 E15.7363
G1 X105.839 Y97.453 E15.75636
G1 F591.1 X105.841 Y102.546 E15.9283
G1 X106.467 Y102.546 E15.94943
G0 F9000 X106.144 Y102.281
G0 X106.422 Y102.738
G0 X113.578 Y102.738
G0 X113.856 Y102.279
G0 X113.568 Y102.547
G1 F589.7 X114.161 Y102.547 E15.9695
G1 X114.159 Y97.454 E16.14186
G1 F588.2 X113.533 Y97.454 E16.1631
G1 X113.753 Y97.665 E16.17344
G1 F589.7 X113.753 Y102.335 E16.33148
G1 X113.568 Y102.547 E16.341
G0 F9000 X113.187 Y102.519
;TYPE:WALL-OUTER
G1 F570.1 X106.85 Y102.52 E16.56284
G1 F585.4 X106.65 Y102.319 E16.5725
G1 F600 X106.65 Y97.681 E16.72677
G1 F583.9 X106.813 Y97.481 E16.73558
G1 F570.1 X113.15 Y97.48 E16.95742
G1 F585.4 X113.35 Y97.681 E16.96708
G1 F600 X113.35 Y102.319 E17.12134
G1 F583.9 X113.187 Y102.519 E17.13016
G0 F9000 X113.856 Y102.279
G0 X114.294 Y102.68
G0 X114.564 Y102.95
G1 F600 X114.563 Y97.05 E17.3264
G1 F585.4 X113.15 Y97.06 E17.37457
G1 F570.1 X106.777 Y97.061 E17.59766
G1 F583.9 X105.436 Y97.05 E17.64349
G1 F600 X105.438 Y102.949 E17.8397
G1 F585.4 X106.85 Y102.94 E17.88783
G1 F570.1 X113.223 Y102.939 E18.11093
G1 F583.9 X114.564 Y102.95 E18.15676
;MESH:NOMESH
G0 F300 X114.564 Y102.95 Z1.6
G0 F9000 X114.294 Y102.68
G0 X113.578 Y102.738
G0 X106.422 Y102.738
G0 X106.144 Y102.281
G0 X106.249 Y102.499
;TIME_ELAPSED:55.623377
;LAYER:7
;TYPE:WALL-INNER
;MESH:ir????????????????????????.stl
G1 F478.1 X106.06 Y102.31 E18.16792
G1 X106.06 Y97.69 E18.36076
G1 X106.218 Y97.501 E18.37105
G1 X105.558 Y97.501 E18.39859
G1 X105.559 Y102.499 E18.60722
G1 X106.249 Y102.499 E18.63602
G0 F9000 X105.841 Y102.28
G0 X106.283 Y102.738
G0 X113.717 Y102.738
G0 X114.159 Y102.28
G0 X113.782 Y102.499
G1 F478.1 X114.442 Y102.499 E18.66357
G1 X114.441 Y97.501 E18.87219
G1 X113.751 Y97.501 E18.90099
G1 X113.94 Y97.69 E18.91215
G1 X113.94 Y102.31 E19.105
G1 X113.782 Y102.499 E19.11528
G0 F9000 X113.326 Y102.519
