;FLAVOR:Marlin
;TIME:35451
;Filament used: 34.6778m
;Layer height: 0.2
;MINX:67
;MINY:9
;MINZ:0.2
;MAXX:153
;MAXY:192
;MAXZ:33
;Generated with Cura_SteamEngine 5.3.0
M140 S60
M105
M190 S60
M104 S230
M105
M109 S230
M82 ;absolute extrusion mode
; Ender 3 Custom Start G-code
G92 E0 ; Reset Extruder
G28 ; Home all axes
G1 Z2.0 F3000 ; Move Z Axis up little to prevent scratching of Heat Bed
G1 X0.1 Y20 Z0.3 F5000.0 ; Move to start position
G1 X0.1 Y200.0 Z0.3 F1500.0 E15 ; Draw the first line
G1 X0.4 Y200.0 Z0.3 F5000.0 ; Move to side a little
G1 X0.4 Y20 Z0.3 F1500.0 E30 ; Draw the second line
G92 E0 ; Reset Extruder
G1 Z2.0 F3000 ; Move Z Axis up little to prevent scratching of Heat Bed
G1 X5 Y20 Z0.3 F5000.0 ; Move over to prevent blob squish
G92 E0
G92 E0
G1 F2700 E-5
;LAYER_COUNT:165
;LAYER:0
M107
G0 F6000 X68.498 Y26.326 Z0.2
;TYPE:SKIRT
G1 F2700 E0
G1 F1200 X68.861 Y25.499 E0.03004
G1 X69.295 Y24.708 E0.06005
G1 X69.798 Y23.958 E0.09008
G1 X70.366 Y23.255 E0.12014
G1 X70.993 Y22.605 E0.15018
G1 X71.675 Y22.014 E0.1802
G1 X72.407 Y21.485 E0.21024
G1 X73.183 Y21.022 E0.24029
G1 X73.997 Y20.631 E0.27033
G1 X75.142 Y20.22 E0.31079
G1 X75.892 Y20 E0.33678
G1 X78.432 Y19.22 E0.42516
G1 X80.829 Y18.409 E0.50932
G1 X83.212 Y17.527 E0.59384
G1 X85.54 Y16.589 E0.67731
G1 X87.9 Y15.559 E0.76296
G1 X90.201 Y14.478 E0.84751
G1 X92.443 Y13.344 E0.93108
G1 X95.322 Y11.775 E1.04013
G1 X95.968 Y11.408 E1.06484
G1 X96.772 Y10.997 E1.09488
G1 X97.609 Y10.659 E1.1249
G1 X98.075 Y10.507 E1.1412
G1 X98.837 Y10.289 E1.16756
G1 X99.473 Y10.128 E1.18938
G1 X100.357 Y9.945 E1.21941
G1 X101.254 Y9.842 E1.24944
G1 X101.793 Y9.818 E1.26738
G1 X102.868 Y9.8 E1.30314
G1 X117.293 Y9.8 E1.78292
G1 X118.125 Y9.811 E1.8106
G1 X119.027 Y9.864 E1.84065
G1 X119.92 Y9.997 E1.87068
G1 X120.45 Y10.115 E1.88874
G1 X121.086 Y10.274 E1.91054
G1 X121.744 Y10.454 E1.93323
G1 X122.602 Y10.736 E1.96327
G1 X123.432 Y11.093 E1.99332
G1 X123.873 Y11.32 E2.00982
G1 X124.493 Y11.659 E2.03332
G1 X125.974 Y12.501 E2.08998
G1 X128.148 Y13.655 E2.17185
G1 X130.464 Y14.8 E2.25778
G1 X132.768 Y15.861 E2.34214
G1 X135.116 Y16.862 E2.42704
G1 X137.509 Y17.803 E2.51256
G1 X139.843 Y18.646 E2.5951
G1 X142.249 Y19.439 E2.67936
G1 X143.955 Y19.941 E2.73851
G1 X144.982 Y20.256 E2.77423
G1 X145.833 Y20.559 E2.80428
G1 X146.654 Y20.936 E2.83433
G1 X147.438 Y21.384 E2.86436
G1 X148.179 Y21.9 E2.89439
G1 X148.872 Y22.479 E2.92443
G1 X149.511 Y23.117 E2.95446
G1 X150.091 Y23.809 E2.98449
G1 X150.608 Y24.55 E3.01454
G1 X151.057 Y25.333 E3.04457
G1 X151.435 Y26.154 E3.07463
G1 X151.739 Y27.004 E3.10465
G1 X151.966 Y27.878 E3.13469
G1 X152.115 Y28.769 E3.16473
G1 X152.187 Y29.723 E3.19655
G1 X152.2 Y30.33 E3.21675
G1 X152.199 Y179.39 E8.1745
G1 X152.19 Y180.117 E8.19868
G1 X152.139 Y181.019 E8.22873
G1 X152.008 Y181.913 E8.25878
G1 X151.799 Y182.791 E8.2888
G1 X151.513 Y183.648 E8.31885
G1 X151.152 Y184.476 E8.34889
G1 X150.72 Y185.268 E8.3789
G1 X150.219 Y186.02 E8.40895
G1 X149.653 Y186.724 E8.439
G1 X149.028 Y187.375 E8.46901
G1 X148.347 Y187.969 E8.49907
G1 X147.616 Y188.5 E8.52912
G1 X146.842 Y188.964 E8.55914
G1 X146.029 Y189.358 E8.58918
G1 X145.185 Y189.678 E8.61921
G1 X144.315 Y189.923 E8.64927
G1 X143.428 Y190.089 E8.67928
G1 X142.277 Y190.187 E8.7177
G1 X141.67 Y190.2 E8.7379
G1 X127.309 Y190.2 E9.21555
G1 X124.703 Y190.237 E9.30223
G1 X122.138 Y190.346 E9.38762
G1 X119.631 Y190.524 E9.47121
G1 X117.11 Y190.773 E9.55547
G1 X114.481 Y191.109 E9.64362
G1 X113.477 Y191.187 E9.67711
G1 X112.87 Y191.2 E9.69731
G1 X107.351 Y191.199 E9.88087
G1 X106.633 Y191.188 E9.90475
G1 X105.492 Y191.106 E9.9428
G1 X103.886 Y190.9 E9.99666
G1 X101.316 Y190.616 E10.08265
G1 X98.763 Y190.407 E10.16785
G1 X96.273 Y190.273 E10.25079
G1 X92.592 Y190.2 E10.37324
G1 X78.561 Y190.199 E10.83992
G1 X77.863 Y190.189 E10.86313
G1 X76.961 Y190.136 E10.89319
G1 X76.068 Y190.004 E10.92321
G1 X75.19 Y189.793 E10.95325
G1 X74.334 Y189.505 E10.98328
G1 X73.507 Y189.143 E11.01331
G1 X72.715 Y188.708 E11.04336
G1 X71.964 Y188.206 E11.07341
G1 X71.261 Y187.639 E11.10345
G1 X70.611 Y187.012 E11.13349
G1 X70.019 Y186.33 E11.16352
G1 X69.489 Y185.599 E11.19355
G1 X69.027 Y184.823 E11.22359
G1 X68.634 Y184.01 E11.25363
G1 X68.316 Y183.165 E11.28366
G1 X68.073 Y182.295 E11.3137
G1 X67.908 Y181.407 E11.34374
G1 X67.813 Y180.266 E11.38182
G1 X67.8 Y179.658 E11.40205
G1 X67.801 Y30.521 E16.36236
G1 X67.811 Y29.855 E16.38452
G1 X67.865 Y28.953 E16.41457
G1 X67.998 Y28.06 E16.4446
G1 X68.209 Y27.182 E16.47463
G1 X68.498 Y26.326 E16.50468
G0 F6000 X68.119 Y26.198
G1 F1200 X68.51 Y25.307 E16.53705
G1 X68.963 Y24.485 E16.56826
G1 X69.466 Y23.735 E16.5983
G1 X70.078 Y22.977 E16.6307
G1 X70.705 Y22.327 E16.66074
G1 X71.413 Y21.712 E16.69193
G1 X72.202 Y21.141 E16.72433
G1 X72.978 Y20.678 E16.75438
G1 X73.824 Y20.27 E16.78562
G1 X75.029 Y19.836 E16.82822
G1 X75.779 Y19.617 E16.85421
G1 X78.304 Y18.841 E16.94206
G1 X80.701 Y18.03 E17.02623
G1 X83.073 Y17.152 E17.11035
G1 X85.38 Y16.222 E17.19308
G1 X87.74 Y15.192 E17.27873
G1 X90.02 Y14.121 E17.36251
G1 X92.262 Y12.987 E17.44608
G1 X95.124 Y11.427 E17.55449
G1 X95.786 Y11.052 E17.57979
G1 X96.622 Y10.626 E17.611
G1 X97.459 Y10.288 E17.64102
G1 X97.965 Y10.122 E17.65874
G1 X98.739 Y9.901 E17.68551
G1 X99.392 Y9.736 E17.70791
G1 X100.276 Y9.553 E17.73793
G1 X101.236 Y9.442 E17.77008
G1 X101.786 Y9.418 E17.78839
G1 X102.861 Y9.4 E17.82415
G1 X117.298 Y9.4 E18.30432
G1 X118.148 Y9.412 E18.3326
G1 X119.086 Y9.468 E18.36385
G1 X119.979 Y9.601 E18.39388
G1 X120.547 Y9.727 E18.41323
G1 X121.192 Y9.888 E18.43534
G1 X121.869 Y10.074 E18.45869
G1 X122.727 Y10.356 E18.48873
G1 X123.615 Y10.737 E18.52087
G1 X124.065 Y10.969 E18.53771
G1 X124.691 Y11.311 E18.56144
G1 X126.172 Y12.153 E18.6181
G1 X128.325 Y13.296 E18.69917
G1 X130.641 Y14.441 E18.7851
G1 X132.925 Y15.493 E18.86874
G1 X135.273 Y16.494 E18.95364
G1 X137.645 Y17.427 E19.03841
G1 X139.968 Y18.266 E19.12056
G1 X142.362 Y19.055 E19.2044
G1 X144.072 Y19.559 E19.26369
G1 X145.116 Y19.879 E19.30001
G1 X146 Y20.195 E19.33123
G1 X146.821 Y20.572 E19.36128
G1 X147.667 Y21.056 E19.3937
G1 X148.408 Y21.572 E19.42373
G1 X149.155 Y22.196 E19.45611
G1 X149.818 Y22.86 E19.48731
G1 X150.398 Y23.552 E19.51735
G1 X150.955 Y24.351 E19.54974
G1 X151.404 Y25.134 E19.57976
G1 X151.812 Y26.019 E19.61217
G1 X152.116 Y26.869 E19.6422
G1 X152.361 Y27.812 E19.6746
G1 X152.51 Y28.703 E19.70465
G1 X152.587 Y29.714 E19.73837
G1 X152.6 Y30.33 E19.75887
G1 X152.599 Y179.395 E24.71679
G1 X152.589 Y180.14 E24.74157
G1 X152.535 Y181.077 E24.77279
G1 X152.404 Y181.971 E24.80284
G1 X152.188 Y182.884 E24.83404
G1 X151.88 Y183.808 E24.86644
G1 X151.519 Y184.636 E24.89648
G1 X151.053 Y185.49 E24.92884
G1 X150.531 Y186.271 E24.96008
G1 X149.965 Y186.975 E24.99013
G1 X149.317 Y187.652 E25.0213
G1 X148.582 Y188.293 E25.05373
G1 X147.851 Y188.824 E25.08378
G1 X147.048 Y189.307 E25.11495
G1 X146.171 Y189.732 E25.14737
G1 X145.327 Y190.052 E25.17739
G1 X144.389 Y190.316 E25.2098
G1 X143.462 Y190.488 E25.24116
G1 X142.311 Y190.586 E25.27958
G1 X141.679 Y190.6 E25.3006
G1 X127.315 Y190.6 E25.77835
G1 X124.72 Y190.637 E25.86467
G1 X122.155 Y190.746 E25.95006
G1 X119.662 Y190.923 E26.03318
G1 X117.161 Y191.17 E26.11677
G1 X114.512 Y191.508 E26.20559
G1 X113.486 Y191.587 E26.23982
G1 X112.87 Y191.6 E26.26031
G1 X107.345 Y191.599 E26.44407
G1 X106.604 Y191.587 E26.46872
G1 X105.441 Y191.503 E26.50751
G1 X103.842 Y191.298 E26.56112
G1 X101.275 Y191.014 E26.64702
G1 X98.73 Y190.805 E26.73196
G1 X96.265 Y190.673 E26.81406
G1 X92.584 Y190.6 E26.93651
G1 X78.555 Y190.599 E27.40312
G1 X77.84 Y190.588 E27.4269
G1 X76.903 Y190.532 E27.45812
G1 X76.01 Y190.4 E27.48815
G1 X75.062 Y190.172 E27.52058
G1 X74.206 Y189.884 E27.55062
G1 X73.314 Y189.494 E27.583
G1 X72.522 Y189.059 E27.61305
G1 X71.742 Y188.539 E27.64423
G1 X70.983 Y187.927 E27.67666
G1 X70.333 Y187.3 E27.7067
G1 X69.695 Y186.565 E27.73907
G1 X69.145 Y185.804 E27.7703
G1 X68.683 Y185.028 E27.80034
G1 X68.26 Y184.151 E27.83272
G1 X67.931 Y183.273 E27.86391
G1 X67.68 Y182.368 E27.89514
G1 X67.509 Y181.44 E27.92653
G1 X67.413 Y180.275 E27.96541
G1 X67.4 Y179.658 E27.98593
G1 X67.401 Y30.515 E32.94645
G1 X67.412 Y29.831 E32.9692
G1 X67.469 Y28.894 E33.00042
G1 X67.602 Y28.001 E33.03045
G1 X67.83 Y27.054 E33.06285
G1 X68.119 Y26.198 E33.0929
G0 F6000 X67.74 Y26.07
G1 F1200 X68.144 Y25.146 E33.12644
G1 X68.631 Y24.262 E33.16001
G1 X69.134 Y23.512 E33.19005
G1 X69.79 Y22.699 E33.22479
G1 X70.417 Y22.049 E33.25483
G1 X71.178 Y21.388 E33.28835
G1 X71.997 Y20.797 E33.32195
G1 X72.773 Y20.334 E33.352
G1 X73.688 Y19.894 E33.38577
G1 X74.917 Y19.452 E33.42921
G1 X75.667 Y19.233 E33.4552
G1 X78.176 Y18.462 E33.5425
G1 X80.573 Y17.651 E33.62666
G1 X82.923 Y16.781 E33.71001
G1 X85.219 Y15.855 E33.79235
G1 X87.58 Y14.825 E33.87802
G1 X89.839 Y13.764 E33.96103
G1 X92.081 Y12.63 E34.0446
G1 X94.927 Y11.079 E34.1524
G1 X95.604 Y10.696 E34.17827
G1 X96.472 Y10.255 E34.21065
G1 X97.334 Y9.908 E34.24156
G1 X97.855 Y9.737 E34.2598
G1 X98.641 Y9.513 E34.28698
G1 X99.311 Y9.344 E34.30996
G1 X100.195 Y9.161 E34.33999
G1 X101.219 Y9.042 E34.37428
G1 X101.779 Y9.018 E34.39292
G1 X102.854 Y9 E34.42868
G1 X117.304 Y9 E34.90929
G1 X118.172 Y9.013 E34.93816
G1 X119.145 Y9.072 E34.97058
G1 X120.066 Y9.21 E35.00156
G1 X120.644 Y9.339 E35.02125
G1 X121.298 Y9.502 E35.04367
G1 X121.994 Y9.694 E35.06769
G1 X122.885 Y9.988 E35.09889
G1 X123.773 Y10.369 E35.13103
G1 X124.257 Y10.618 E35.14913
G1 X124.889 Y10.963 E35.17308
G1 X126.37 Y11.805 E35.22975
G1 X128.502 Y12.937 E35.31003
G1 X130.818 Y14.082 E35.39596
G1 X133.082 Y15.125 E35.47887
G1 X135.43 Y16.126 E35.56376
G1 X137.781 Y17.051 E35.64779
G1 X140.093 Y17.886 E35.72955
G1 X142.475 Y18.671 E35.81297
G1 X144.189 Y19.177 E35.87241
G1 X145.251 Y19.502 E35.90935
G1 X146.167 Y19.831 E35.94172
G1 X146.988 Y20.208 E35.97177
G1 X147.896 Y20.728 E36.00657
G1 X148.637 Y21.244 E36.0366
G1 X149.438 Y21.913 E36.07131
G1 X150.125 Y22.603 E36.1037
G1 X150.705 Y23.295 E36.13373
G1 X151.302 Y24.152 E36.16847
G1 X151.751 Y24.935 E36.19849
G1 X152.189 Y25.884 E36.23325
G1 X152.493 Y26.734 E36.26328
G1 X152.756 Y27.746 E36.29806
G1 X152.905 Y28.637 E36.3281
G1 X152.987 Y29.706 E36.36376
G1 X153 Y30.33 E36.38452
G1 X152.999 Y179.4 E41.34261
G1 X152.988 Y180.163 E41.36799
G1 X152.931 Y181.135 E41.40037
G1 X152.8 Y182.029 E41.43043
G1 X152.577 Y182.976 E41.46278
G1 X152.247 Y183.968 E41.49756
G1 X151.886 Y184.796 E41.5276
G1 X151.386 Y185.712 E41.56231
G1 X150.843 Y186.522 E41.59474
G1 X150.277 Y187.226 E41.62479
G1 X149.606 Y187.929 E41.65711
G1 X148.817 Y188.617 E41.69193
G1 X148.086 Y189.148 E41.72198
G1 X147.254 Y189.65 E41.7543
G1 X146.313 Y190.106 E41.78908
G1 X145.469 Y190.426 E41.8191
G1 X144.497 Y190.701 E41.8527
G1 X143.496 Y190.887 E41.88656
G1 X142.345 Y190.985 E41.92498
G1 X141.688 Y191 E41.94684
G1 X127.321 Y191 E42.42469
G1 X124.737 Y191.037 E42.51064
G1 X122.172 Y191.146 E42.59603
G1 X119.693 Y191.322 E42.67869
G1 X117.212 Y191.567 E42.76161
G1 X114.543 Y191.907 E42.8511
G1 X113.517 Y191.986 E42.88532
G1 X112.87 Y192 E42.90685
G1 X107.339 Y191.999 E43.09081
G1 X106.575 Y191.986 E43.11622
G1 X105.39 Y191.9 E43.15574
G1 X103.798 Y191.696 E43.20912
G1 X101.234 Y191.412 E43.29492
G1 X98.697 Y191.203 E43.37959
G1 X96.257 Y191.073 E43.46086
G1 X92.576 Y191 E43.58331
G1 X78.549 Y190.999 E44.04985
G1 X77.816 Y190.987 E44.07424
G1 X76.845 Y190.928 E44.10659
G1 X75.916 Y190.789 E44.13784
G1 X74.968 Y190.561 E44.17027
G1 X74.046 Y190.251 E44.20262
G1 X73.121 Y189.845 E44.23622
G1 X72.329 Y189.41 E44.26627
G1 X71.52 Y188.872 E44.29858
G1 X70.705 Y188.215 E44.3334
G1 X70.055 Y187.588 E44.36344
G1 X69.393 Y186.827 E44.39699
G1 X68.801 Y186.009 E44.43057
G1 X68.339 Y185.233 E44.46061
G1 X67.885 Y184.291 E44.49539
G1 X67.556 Y183.413 E44.52658
G1 X67.287 Y182.44 E44.56015
G1 X67.11 Y181.473 E44.59285
G1 X67.014 Y180.308 E44.63173
G1 X67 Y179.658 E44.65335
G1 X67.001 Y30.509 E49.61407
G1 X67.013 Y29.807 E49.63742
G1 X67.073 Y28.835 E49.66981
G1 X67.206 Y27.942 E49.69984
G1 X67.441 Y26.96 E49.73342
G1 X67.74 Y26.07 E49.76465
G1 F2700 E44.76465
G0 F6000 X81 Y33
G1 F2700 E49.76465
G1 F1200 X105 Y33 E50.56289
G1 X105 Y167.1 E55.02308
G1 X101.87 Y167.1 E55.12718
G1 X101.831 Y167.104 E55.12849
G1 X100.069 Y167.453 E55.18823
G1 X99.997 Y167.483 E55.19082
G1 X98.434 Y168.529 E55.25338
G1 X98.379 Y168.584 E55.25596
G1 X97.333 Y170.147 E55.31852
G1 X97.303 Y170.219 E55.32111
G1 X96.954 Y171.981 E55.38085
G1 X96.95 Y172.02 E55.38216
G1 X96.95 Y173.28 E55.42406
G1 X96.954 Y173.319 E55.42537
G1 X97.303 Y175.081 E55.48511
G1 X97.333 Y175.153 E55.48771
G1 X98.463 Y176.842 E55.5553
G1 X98.379 Y177 E55.56125
G1 X81 Y177 E56.13927
G1 X81 Y33 E60.92873
G0 F6000 X81.4 Y33.4
G1 F1200 X104.6 Y33.4 E61.70037
G1 X104.6 Y166.7 E66.13395
G1 X101.87 Y166.7 E66.22475
G1 X101.753 Y166.711 E66.22865
G1 X99.991 Y167.06 E66.2884
G1 X99.774 Y167.15 E66.29621
G1 X98.211 Y168.196 E66.35876
G1 X98.046 Y168.361 E66.36652
G1 X97 Y169.924 E66.42908
G1 X96.91 Y170.141 E66.43689
G1 X96.561 Y171.903 E66.49663
G1 X96.55 Y172.02 E66.50054
G1 X96.55 Y173.28 E66.54245
G1 X96.561 Y173.397 E66.54636
G1 X96.91 Y175.159 E66.6061
G1 X97 Y175.376 E66.61392
G1 X97.819 Y176.6 E66.6629
G1 X81.4 Y176.6 E67.209
G1 X81.4 Y33.4 E71.97185
G0 F6000 X81.8 Y33.8
G1 F1200 X104.2 Y33.8 E72.71687
G1 X104.2 Y166.3 E77.12384
G1 X101.87 Y166.3 E77.20134
G1 X101.676 Y166.319 E77.20782
G1 X99.914 Y166.668 E77.26757
G1 X99.552 Y166.818 E77.2806
G1 X97.989 Y167.864 E77.34315
G1 X97.714 Y168.139 E77.35609
G1 X96.668 Y169.702 E77.41864
G1 X96.518 Y170.064 E77.43167
G1 X96.169 Y171.826 E77.49141
G1 X96.15 Y172.02 E77.4979
G1 X96.15 Y173.28 E77.53981
G1 X96.169 Y173.474 E77.54629
G1 X96.518 Y175.236 E77.60603
G1 X96.668 Y175.598 E77.61906
G1 X97.071 Y176.2 E77.64316
G1 X81.8 Y176.2 E78.15108
G1 X81.8 Y33.8 E82.88732
G0 F6000 X82.2 Y34.2
G1 F1200 X103.8 Y34.2 E83.60574
G1 X103.8 Y165.9 E87.9861
G1 X101.87 Y165.9 E88.05029
G1 X101.598 Y165.927 E88.05938
G1 X99.836 Y166.276 E88.11912
G1 X99.518 Y166.379 E88.13024
G1 X99.329 Y166.486 E88.13746
G1 X97.766 Y167.532 E88.20002
G1 X97.513 Y167.749 E88.2111
G1 X97.382 Y167.916 E88.21816
G1 X96.336 Y169.479 E88.28072
G1 X96.184 Y169.777 E88.29184
G1 X96.126 Y169.986 E88.29906
G1 X95.777 Y171.748 E88.3588
G1 X95.75 Y172.02 E88.36789
G1 X95.75 Y173.28 E88.4098
G1 X95.777 Y173.552 E88.41889
G1 X96.126 Y175.314 E88.47863
G1 X96.229 Y175.632 E88.48975
G1 X96.324 Y175.8 E88.49617
G1 X82.2 Y175.8 E88.96594
G1 X82.2 Y34.2 E93.67557
G0 F6000 X82.6 Y34.6
G1 F1200 X103.4 Y34.6 E94.36738
G1 X103.4 Y165.5 E98.72113
G1 X101.87 Y165.5 E98.77202
G1 X101.52 Y165.534 E98.78372
G1 X99.758 Y165.883 E98.84346
G1 X99.396 Y165.996 E98.85607
G1 X99.107 Y166.153 E98.86701
G1 X97.544 Y167.199 E98.92956
G1 X97.253 Y167.442 E98.94217
G1 X97.049 Y167.694 E98.95296
G1 X96.003 Y169.257 E99.01551
G1 X95.827 Y169.592 E99.0281
G1 X95.733 Y169.908 E99.03906
G1 X95.384 Y171.67 E99.0988
G1 X95.35 Y172.02 E99.1105
G1 X95.35 Y173.28 E99.15241
G1 X95.384 Y173.63 E99.1641
G1 X95.733 Y175.392 E99.22385
G1 X95.735 Y175.4 E99.22412
G1 X82.6 Y175.4 E99.66099
G1 X82.6 Y34.6 E104.34402
G0 F6000 X83 Y35
G1 F1200 X103 Y35 E105.00922
G1 X103 Y165.1 E109.33637
G1 X101.87 Y165.1 E109.37395
G1 X101.443 Y165.142 E109.38822
G1 X99.681 Y165.491 E109.44796
G1 X99.279 Y165.611 E109.46192
G1 X98.884 Y165.821 E109.4768
G1 X97.321 Y166.867 E109.53935
G1 X96.997 Y167.132 E109.55327
G1 X96.717 Y167.471 E109.5679
G1 X95.671 Y169.034 E109.63045
G1 X95.472 Y169.403 E109.64439
G1 X95.341 Y169.831 E109.65928
G1 X94.992 Y171.593 E109.71902
G1 X94.95 Y172.02 E109.73329
G1 X94.95 Y173.28 E109.7752
G1 X94.992 Y173.707 E109.78947
G1 X95.248 Y175 E109.83331
G1 X83 Y175 E110.24068
G1 X83 Y35 E114.8971
G0 F6000 X83.4 Y35.4
G1 F1200 X102.6 Y35.4 E115.53569
G1 X102.6 Y164.7 E119.83623
G1 X101.87 Y164.7 E119.86051
G1 X101.365 Y164.75 E119.87739
G1 X99.603 Y165.099 E119.93713
G1 X99.165 Y165.226 E119.9523
G1 X98.662 Y165.488 E119.97116
G1 X97.099 Y166.534 E120.03372
G1 X96.744 Y166.82 E120.04888
G1 X96.384 Y167.249 E120.0675
