;FLAVOR:Marlin
;TIME:943
;Filament used: 0.403563m
;Layer height: 0.2
;MINX:88.503
;MINY:85
;MINZ:0.2
;MAXX:131.497
;MAXY:115
;MAXZ:14.8
;Generated with Cura_SteamEngine 5.3.0
M140 S60
M105
M190 S60
M104 S220
M105
M109 S220
M82 ;absolute extrusion mode
; Ender 3 Custom Start G-code
G92 E0 ; Reset Extruder
G28 ; Home all axes
G1 Z2.0 F3000 ; Move Z Axis up little to prevent scratching of Heat Bed
G1 X0.1 Y20 Z0.3 F5000.0 ; Move to start position
G1 X0.1 Y200.0 Z0.3 F1500.0 E15 ; Draw the first line
G1 X0.4 Y200.0 Z0.3 F5000.0 ; Move to side a little
G1 X0.4 Y20 Z0.3 F1500.0 E30 ; Draw the second line
G92 E0 ; Reset Extruder
G1 Z2.0 F3000 ; Move Z Axis up little to prevent scratching of Heat Bed
G1 X5 Y20 Z0.3 F5000.0 ; Move over to prevent blob squish
G92 E0
G92 E0
G1 F2700 E-5
;LAYER_COUNT:74
;LAYER:0
M107
G0 F6000 X92.484 Y88.617 Z0.2
;TYPE:SKIRT
G1 F2700 E0
G1 F1200 X93.165 Y88.024 E0.03003
G1 X93.897 Y87.494 E0.06009
G1 X94.672 Y87.031 E0.09012
G1 X95.485 Y86.638 E0.12015
G1 X96.33 Y86.318 E0.1502
G1 X97.199 Y86.075 E0.18022
G1 X98.087 Y85.909 E0.21026
G1 X99.226 Y85.813 E0.24828
G1 X99.833 Y85.8 E0.26847
G1 X104.233 Y85.8 E0.41482
G1 X105.088 Y85.811 E0.44326
G1 X106.136 Y85.851 E0.47814
G1 X108.743 Y85.925 E0.56489
G1 X111.275 Y85.925 E0.6491
G1 X113.855 Y85.852 E0.73495
G1 X114.509 Y85.821 E0.75672
G1 X115.39 Y85.8 E0.78603
G1 X119.936 Y85.801 E0.93723
G1 X120.634 Y85.811 E0.96045
G1 X121.536 Y85.864 E0.9905
G1 X122.429 Y85.996 E1.02053
G1 X123.307 Y86.207 E1.05056
G1 X124.163 Y86.495 E1.0806
G1 X124.99 Y86.857 E1.11063
G1 X125.782 Y87.292 E1.14068
G1 X126.533 Y87.794 E1.17072
G1 X127.236 Y88.361 E1.20076
G1 X127.886 Y88.988 E1.2308
G1 X128.478 Y89.67 E1.26084
G1 X129.008 Y90.401 E1.29087
G1 X129.47 Y91.177 E1.32091
G1 X129.863 Y91.99 E1.35094
G1 X130.181 Y92.835 E1.38097
G1 X130.424 Y93.705 E1.41101
G1 X130.589 Y94.593 E1.44106
G1 X130.684 Y95.723 E1.47877
G1 X130.697 Y96.33 E1.49897
G1 X130.696 Y103.39 E1.73378
G1 X130.687 Y104.117 E1.75796
G1 X130.636 Y105.019 E1.78801
G1 X130.505 Y105.913 E1.81806
G1 X130.296 Y106.791 E1.84808
G1 X130.01 Y107.648 E1.87813
G1 X129.649 Y108.476 E1.90818
G1 X129.217 Y109.268 E1.93818
G1 X128.716 Y110.02 E1.96824
G1 X128.15 Y110.724 E1.99828
G1 X127.525 Y111.375 E2.0283
G1 X126.844 Y111.969 E2.05835
G1 X126.113 Y112.5 E2.0884
G1 X125.339 Y112.964 E2.11842
G1 X124.526 Y113.358 E2.14847
G1 X123.682 Y113.678 E2.17849
G1 X122.812 Y113.923 E2.20855
G1 X121.925 Y114.089 E2.23856
G1 X120.774 Y114.187 E2.27698
G1 X120.167 Y114.2 E2.29718
G1 X115.624 Y114.199 E2.44828
G1 X114.623 Y114.181 E2.48158
G1 X113.864 Y114.149 E2.50684
G1 X111.257 Y114.075 E2.59359
G1 X108.725 Y114.075 E2.6778
G1 X106.148 Y114.148 E2.76355
G1 X105.491 Y114.179 E2.78542
G1 X104.61 Y114.2 E2.81473
G1 X100.078 Y114.199 E2.96547
G1 X99.38 Y114.19 E2.98869
G1 X98.479 Y114.139 E3.0187
G1 X97.585 Y114.007 E3.04876
G1 X96.707 Y113.798 E3.07878
G1 X95.85 Y113.511 E3.10884
G1 X95.023 Y113.15 E3.13885
G1 X94.23 Y112.717 E3.1689
G1 X93.479 Y112.216 E3.19893
G1 X92.775 Y111.65 E3.22897
G1 X92.124 Y111.024 E3.25901
G1 X91.531 Y110.343 E3.28904
G1 X91.001 Y109.612 E3.31908
G1 X90.537 Y108.837 E3.34912
G1 X90.143 Y108.024 E3.37917
G1 X89.823 Y107.18 E3.40919
G1 X89.579 Y106.31 E3.43924
G1 X89.413 Y105.422 E3.46929
G1 X89.316 Y104.267 E3.50784
G1 X89.303 Y103.658 E3.5281
G1 X89.304 Y96.536 E3.76498
G1 X89.313 Y95.871 E3.7871
G1 X89.365 Y94.969 E3.81715
G1 X89.497 Y94.076 E3.84717
G1 X89.707 Y93.198 E3.8772
G1 X89.994 Y92.341 E3.90726
G1 X90.356 Y91.514 E3.93728
G1 X90.789 Y90.722 E3.96731
G1 X91.291 Y89.971 E3.99735
G1 X91.858 Y89.267 E4.02742
G1 X92.484 Y88.617 E4.05743
G0 F6000 X92.221 Y88.315
G1 F1200 X92.902 Y87.722 E4.08746
G1 X93.662 Y87.17 E4.11871
G1 X94.498 Y86.671 E4.15109
G1 X95.343 Y86.264 E4.18228
G1 X96.188 Y85.944 E4.21234
G1 X97.125 Y85.682 E4.2447
G1 X98.053 Y85.51 E4.27609
G1 X99.192 Y85.414 E4.3141
G1 X99.824 Y85.4 E4.33513
G1 X104.238 Y85.4 E4.48194
G1 X105.103 Y85.411 E4.51071
G1 X106.151 Y85.451 E4.54559
G1 X108.754 Y85.525 E4.63221
G1 X111.264 Y85.525 E4.71569
G1 X113.836 Y85.452 E4.80127
G1 X114.499 Y85.421 E4.82334
G1 X115.39 Y85.4 E4.85299
G1 X119.942 Y85.401 E5.00439
G1 X120.657 Y85.412 E5.02817
G1 X121.594 Y85.468 E5.05939
G1 X122.487 Y85.6 E5.08942
G1 X123.435 Y85.828 E5.12185
G1 X124.291 Y86.116 E5.15188
G1 X125.183 Y86.506 E5.18426
G1 X125.975 Y86.941 E5.21432
G1 X126.755 Y87.461 E5.2455
G1 X127.514 Y88.073 E5.27793
G1 X128.164 Y88.7 E5.30796
G1 X128.802 Y89.435 E5.34033
G1 X129.352 Y90.196 E5.37156
G1 X129.814 Y90.972 E5.4016
G1 X130.237 Y91.849 E5.43399
G1 X130.566 Y92.727 E5.46517
G1 X130.817 Y93.632 E5.49641
G1 X130.988 Y94.559 E5.52776
G1 X131.083 Y95.689 E5.56548
G1 X131.097 Y96.33 E5.5868
G1 X131.096 Y103.395 E5.82179
G1 X131.086 Y104.14 E5.84657
G1 X131.032 Y105.077 E5.87778
G1 X130.901 Y105.971 E5.90784
G1 X130.685 Y106.884 E5.93904
G1 X130.377 Y107.808 E5.97143
G1 X130.016 Y108.636 E6.00148
G1 X129.55 Y109.49 E6.03384
G1 X129.028 Y110.271 E6.06508
G1 X128.462 Y110.975 E6.09512
G1 X127.814 Y111.652 E6.12629
G1 X127.079 Y112.293 E6.15873
G1 X126.348 Y112.824 E6.18878
G1 X125.545 Y113.307 E6.21995
G1 X124.668 Y113.732 E6.25236
G1 X123.824 Y114.052 E6.28238
G1 X122.886 Y114.316 E6.31479
G1 X121.959 Y114.488 E6.34615
G1 X120.808 Y114.586 E6.38457
G1 X120.176 Y114.6 E6.4056
G1 X115.617 Y114.599 E6.55723
G1 X114.606 Y114.581 E6.59086
G1 X113.847 Y114.549 E6.61613
G1 X111.246 Y114.475 E6.70267
G1 X108.736 Y114.475 E6.78616
G1 X106.167 Y114.548 E6.87164
G1 X105.501 Y114.579 E6.89381
G1 X104.61 Y114.6 E6.92345
G1 X100.073 Y114.599 E7.07436
G1 X99.357 Y114.589 E7.09817
G1 X98.421 Y114.535 E7.12936
G1 X97.527 Y114.403 E7.15941
G1 X96.614 Y114.187 E7.19062
G1 X95.69 Y113.878 E7.22302
G1 X94.863 Y113.517 E7.25304
G1 X94.008 Y113.05 E7.28544
G1 X93.228 Y112.528 E7.31665
G1 X92.524 Y111.962 E7.3467
G1 X91.822 Y111.287 E7.37909
G1 X91.229 Y110.606 E7.40912
G1 X90.677 Y109.847 E7.44034
G1 X90.177 Y109.011 E7.47274
G1 X89.769 Y108.166 E7.50395
G1 X89.449 Y107.322 E7.53397
G1 X89.186 Y106.384 E7.56637
G1 X89.014 Y105.455 E7.59779
G1 X88.916 Y104.276 E7.63714
G1 X88.903 Y103.658 E7.6577
G1 X88.904 Y96.531 E7.89475
G1 X88.914 Y95.848 E7.91747
G1 X88.969 Y94.911 E7.94868
G1 X89.101 Y94.018 E7.97871
G1 X89.318 Y93.105 E8.00992
G1 X89.615 Y92.214 E8.04116
G1 X90.005 Y91.322 E8.07354
G1 X90.456 Y90.5 E8.10472
G1 X90.979 Y89.72 E8.13596
G1 X91.546 Y89.016 E8.16602
G1 X92.221 Y88.315 E8.19839
G0 F6000 X91.958 Y88.013
G1 F1200 X92.639 Y87.42 E8.22842
G1 X93.427 Y86.846 E8.26085
G1 X94.324 Y86.311 E8.29559
G1 X95.201 Y85.89 E8.32794
G1 X96.046 Y85.57 E8.358
G1 X97.052 Y85.289 E8.39274
G1 X98.019 Y85.111 E8.42544
G1 X99.158 Y85.015 E8.46346
G1 X99.815 Y85 E8.48531
G1 X104.243 Y85 E8.63259
G1 X105.118 Y85.011 E8.6617
G1 X106.166 Y85.051 E8.69658
G1 X108.765 Y85.125 E8.78306
G1 X111.253 Y85.125 E8.86581
G1 X113.817 Y85.052 E8.95112
G1 X114.49 Y85.021 E8.97353
G1 X115.39 Y85 E9.00347
G1 X119.948 Y85.001 E9.15507
G1 X120.681 Y85.013 E9.17945
G1 X121.652 Y85.072 E9.21181
G1 X122.581 Y85.211 E9.24305
G1 X123.529 Y85.439 E9.27548
G1 X124.451 Y85.749 E9.30783
G1 X125.376 Y86.155 E9.34143
G1 X126.168 Y86.59 E9.37149
G1 X126.977 Y87.128 E9.4038
G1 X127.792 Y87.785 E9.43862
G1 X128.442 Y88.412 E9.46866
G1 X129.104 Y89.173 E9.5022
G1 X129.696 Y89.991 E9.53579
G1 X130.158 Y90.767 E9.56583
G1 X130.612 Y91.709 E9.60061
G1 X130.941 Y92.587 E9.63179
G1 X131.21 Y93.559 E9.66533
G1 X131.387 Y94.525 E9.698
G1 X131.482 Y95.655 E9.73572
G1 X131.497 Y96.33 E9.75817
G1 X131.496 Y103.4 E9.99332
G1 X131.485 Y104.163 E10.0187
G1 X131.428 Y105.135 E10.05109
G1 X131.297 Y106.029 E10.08114
G1 X131.074 Y106.976 E10.1135
G1 X130.744 Y107.968 E10.14827
G1 X130.383 Y108.796 E10.17831
G1 X129.883 Y109.712 E10.21302
G1 X129.34 Y110.522 E10.24545
G1 X128.774 Y111.226 E10.2755
G1 X128.103 Y111.929 E10.30782
G1 X127.314 Y112.617 E10.34264
G1 X126.583 Y113.148 E10.37269
G1 X125.751 Y113.65 E10.40501
G1 X124.81 Y114.106 E10.43979
G1 X123.966 Y114.426 E10.46981
G1 X122.994 Y114.701 E10.50341
G1 X121.993 Y114.887 E10.53727
G1 X120.842 Y114.985 E10.57569
G1 X120.185 Y115 E10.59755
G1 X115.61 Y114.999 E10.74972
G1 X114.589 Y114.981 E10.78368
G1 X113.83 Y114.949 E10.80895
G1 X111.235 Y114.875 E10.89529
G1 X108.747 Y114.875 E10.97804
G1 X106.186 Y114.948 E11.06326
G1 X105.51 Y114.979 E11.08576
G1 X104.61 Y115 E11.11571
G1 X100.067 Y114.999 E11.26681
G1 X99.334 Y114.988 E11.29119
G1 X98.363 Y114.931 E11.32354
G1 X97.469 Y114.799 E11.3536
G1 X96.487 Y114.566 E11.38717
G1 X95.53 Y114.245 E11.42074
G1 X94.703 Y113.884 E11.45075
G1 X93.816 Y113.401 E11.48434
G1 X92.977 Y112.84 E11.51791
G1 X92.273 Y112.274 E11.54796
G1 X91.52 Y111.55 E11.5827
G1 X90.927 Y110.869 E11.61273
G1 X90.334 Y110.052 E11.64631
G1 X89.817 Y109.185 E11.67988
G1 X89.395 Y108.308 E11.71225
G1 X89.075 Y107.464 E11.74228
G1 X88.801 Y106.492 E11.77587
G1 X88.615 Y105.488 E11.80983
G1 X88.517 Y104.309 E11.84918
G1 X88.503 Y103.658 E11.87083
G1 X88.504 Y96.525 E12.10808
G1 X88.515 Y95.825 E12.13136
G1 X88.573 Y94.853 E12.16375
G1 X88.705 Y93.96 E12.19377
G1 X88.929 Y93.013 E12.22614
G1 X89.248 Y92.054 E12.25975
G1 X89.638 Y91.162 E12.29213
G1 X90.105 Y90.308 E12.32451
G1 X90.667 Y89.469 E12.35809
G1 X91.234 Y88.765 E12.38816
G1 X91.958 Y88.013 E12.42288
G1 F2700 E7.42288
;MESH:ir????????????5.stl
G0 F6000 X99.917 Y95.335
G0 X104.34 Y103.4
;TYPE:WALL-INNER
G1 F2700 E12.42288
G1 F1200 X104.34 Y96.601 E12.64902
G1 X100.104 Y96.601 E12.7899
G1 X100.104 Y103.4 E13.01604
G1 X104.34 Y103.4 E13.15693
G0 F6000 X104.74 Y103.8
;TYPE:WALL-OUTER
G1 F1200 X104.74 Y96.201 E13.40967
G1 X99.704 Y96.201 E13.57717
G1 X99.704 Y103.8 E13.82992
G1 X104.74 Y103.8 E13.99741
G0 F6000 X104.47 Y103.53
G0 X104.24 Y103.04
G0 X103.98 Y103.04
;TYPE:SKIN
G1 F1200 X100.464 Y103.04 E14.11436
G1 X100.464 Y96.961 E14.31655
G1 X103.98 Y96.961 E14.43349
G1 X103.98 Y103.04 E14.63568
G0 F6000 X104.24 Y103.04
G0 X101.142 Y103.3
G0 X101.142 Y102.839
G1 F1200 X100.663 Y102.36 E14.65821
G0 F6000 X100.663 Y101.795
G1 F1200 X101.708 Y102.839 E14.70734
G0 F6000 X102.273 Y102.839
G1 F1200 X100.663 Y101.229 E14.78307
G0 F6000 X100.663 Y100.663
G1 F1200 X102.839 Y102.839 E14.88542
G0 F6000 X103.405 Y102.839
G1 F1200 X100.663 Y100.098 E15.01437
G0 F6000 X100.663 Y99.531
G1 F1200 X103.779 Y102.647 E15.16094
G0 F6000 X103.779 Y102.082
G1 F1200 X100.663 Y98.965 E15.30753
G0 F6000 X100.663 Y98.4
G1 F1200 X103.779 Y101.516 E15.4541
G0 F6000 X103.779 Y100.95
G1 F1200 X100.663 Y97.834 E15.60066
G0 F6000 X100.663 Y97.268
G1 F1200 X103.779 Y100.385 E15.74725
G0 F6000 X103.779 Y99.819
G1 F1200 X101.121 Y97.161 E15.87228
G0 F6000 X101.686 Y97.161
G1 F1200 X103.779 Y99.253 E15.9707
G0 F6000 X103.779 Y98.688
G1 F1200 X102.252 Y97.161 E16.04253
G0 F6000 X102.818 Y97.161
G1 F1200 X103.779 Y98.122 E16.08773
G0 F6000 X103.779 Y97.556
G1 F1200 X103.383 Y97.161 E16.10633
G1 F2700 E11.10633
G0 F6000 X103.383 Y96.701
G0 X104.168 Y96.773
G0 X104.52 Y103.13
G0 X105.605 Y103.13
G0 X114.395 Y103.13
G0 X115.661 Y103.4
;TYPE:WALL-INNER
G1 F2700 E16.10633
G1 F1200 X119.897 Y103.4 E16.24722
G1 X119.897 Y96.601 E16.47336
G1 X115.661 Y96.601 E16.61425
G1 X115.661 Y103.4 E16.84038
G0 F6000 X115.261 Y103.8
;TYPE:WALL-OUTER
G1 F1200 X120.297 Y103.8 E17.00788
G1 X120.297 Y96.201 E17.26063
G1 X115.261 Y96.201 E17.42812
G1 X115.261 Y103.8 E17.68087
G0 F6000 X115.53 Y103.53
G0 X115.761 Y103.04
G0 X116.021 Y103.04
;TYPE:SKIN
G1 F1200 X116.021 Y96.961 E17.88306
G1 X119.537 Y96.961 E18
G1 X119.537 Y103.04 E18.20219
G1 X116.021 Y103.04 E18.31913
G0 F6000 X116.415 Y102.839
G1 F1200 X116.22 Y102.643 E18.32833
G0 F6000 X116.22 Y102.077
G1 F1200 X116.981 Y102.839 E18.36414
G0 F6000 X117.547 Y102.839
G1 F1200 X116.22 Y101.512 E18.42656
G0 F6000 X116.22 Y100.946
G1 F1200 X118.112 Y102.839 E18.51558
G0 F6000 X118.678 Y102.839
G1 F1200 X116.22 Y100.38 E18.63122
G0 F6000 X116.22 Y99.815
G1 F1200 X119.244 Y102.839 E18.77346
G0 F6000 X119.336 Y102.365
G1 F1200 X116.22 Y99.249 E18.92003
G0 F6000 X116.22 Y98.683
G1 F1200 X119.336 Y101.8 E19.06662
G0 F6000 X119.336 Y101.234
G1 F1200 X116.22 Y98.118 E19.21318
G0 F6000 X116.22 Y97.552
G1 F1200 X119.336 Y100.668 E19.35975
G0 F6000 X119.336 Y100.102
G1 F1200 X116.394 Y97.161 E19.49811
G0 F6000 X116.96 Y97.161
G1 F1200 X119.336 Y99.537 E19.60987
G0 F6000 X119.336 Y98.971
G1 F1200 X117.526 Y97.161 E19.69501
G0 F6000 X118.091 Y97.161
G1 F1200 X119.336 Y98.405 E19.75354
G0 F6000 X119.336 Y97.84
G1 F1200 X118.657 Y97.161 E19.78548
G0 F6000 X119.223 Y97.161
G1 F1200 X119.336 Y97.274 E19.7908
G1 F2700 E14.7908
;MESH:NOMESH
G0 F300 X119.336 Y97.274 Z0.4
G0 F6000 X119.336 Y96.701
G0 X115.833 Y96.773
G0 X115.48 Y103.4
G0 X114.395 Y103.4
G0 X105.605 Y103.4
G0 X104.631 Y103.4
;TIME_ELAPSED:39.969008
;LAYER:1
M106 S85
;TYPE:WALL-INNER
;MESH:ir????????????5.stl
G1 F2700 E19.7908
G1 F1350 X104.631 Y96.6 E20.01697
G1 X100.043 Y96.6 E20.16956
G1 X100.043 Y103.4 E20.39573
G1 X104.631 Y103.4 E20.54833
G0 F7500 X105.031 Y103.8
;TYPE:WALL-OUTER
G1 F1350 X105.031 Y96.2 E20.80111
G1 X99.643 Y96.2 E20.98031
G1 X99.643 Y103.8 E21.23309
G1 X105.031 Y103.8 E21.4123
G0 F7500 X104.761 Y103.53
G0 X104.531 Y103.04
G0 X104.271 Y103.04
;TYPE:SKIN
G1 F1350 X100.403 Y103.04 E21.54095
G1 X100.403 Y96.96 E21.74317
G1 X104.271 Y96.96 E21.87182
G1 X104.271 Y103.04 E22.07404
G0 F7500 X104.069 Y102.405
G1 F1350 X103.634 Y102.84 E22.0945
G0 F7500 X103.069 Y102.84
G1 F1350 X104.069 Y101.839 E22.14156
G0 F7500 X104.069 Y101.273
G1 F1350 X102.503 Y102.84 E22.21524
G0 F7500 X101.938 Y102.839
G1 F1350 X104.069 Y100.708 E22.31548
G0 F7500 X104.069 Y100.142
G1 F1350 X101.372 Y102.839 E22.44234
G0 F7500 X100.807 Y102.839
G1 F1350 X104.069 Y99.576 E22.5958
G0 F7500 X104.069 Y99.011
G1 F1350 X100.602 Y102.478 E22.75887
G0 F7500 X100.602 Y101.912
G1 F1350 X104.069 Y98.445 E22.92195
G0 F7500 X104.069 Y97.879
G1 F1350 X100.602 Y101.346 E23.08503
G0 F7500 X100.602 Y100.781
G1 F1350 X104.069 Y97.314 E23.24811
G0 F7500 X103.658 Y97.16
G1 F1350 X100.602 Y100.215 E23.39183
G0 F7500 X100.602 Y99.649
G1 F1350 X103.092 Y97.16 E23.50892
G0 F7500 X102.526 Y97.16
G1 F1350 X100.602 Y99.084 E23.59942
G0 F7500 X100.602 Y98.518
G1 F1350 X101.961 Y97.16 E23.66332
G0 F7500 X101.395 Y97.16
G1 F1350 X100.602 Y97.952 E23.7006
G0 F7500 X100.602 Y97.386
G1 F1350 X100.829 Y97.16 E23.71125
G1 F2700 E18.71125
G0 F7500 X100.829 Y96.7
G0 X104.459 Y96.772
G0 X104.811 Y103.4
G0 X105.896 Y103.4
G0 X114.104 Y103.4
G0 X115.369 Y103.4
;TYPE:WALL-INNER
G1 F2700 E23.71125
G1 F1350 X119.957 Y103.4 E23.86385
G1 X119.957 Y96.6 E24.09002
G1 X115.369 Y96.6 E24.24262
G1 X115.369 Y103.4 E24.46879
G0 F7500 X114.969 Y103.8
;TYPE:WALL-OUTER
G1 F1350 X120.357 Y103.8 E24.64799
G1 X120.357 Y96.2 E24.90077
G1 X114.969 Y96.2 E25.07998
G1 X114.969 Y103.8 E25.33275
G0 F7500 X115.239 Y103.53
G0 X115.469 Y103.04
G0 X115.729 Y103.04
;TYPE:SKIN
G1 F1350 X115.729 Y96.96 E25.53497
G1 X119.597 Y96.96 E25.66362
G1 X119.597 Y103.04 E25.86585
G1 X115.729 Y103.04 E25.9945
G0 F7500 X115.469 Y103.04
G0 X119.785 Y103.228
G0 X119.857 Y102.352
G0 X119.395 Y102.352
G1 F1350 X118.908 Y102.84 E26.01743
G0 F7500 X118.342 Y102.84
G1 F1350 X119.395 Y101.787 E26.06696
G0 F7500 X119.395 Y101.221
G1 F1350 X117.777 Y102.84 E26.14309
G0 F7500 X117.211 Y102.84
G1 F1350 X119.395 Y100.655 E26.24584
G0 F7500 X119.395 Y100.09
G1 F1350 X116.645 Y102.84 E26.37519
G0 F7500 X116.08 Y102.84
G1 F1350 X119.395 Y99.524 E26.53114
G0 F7500 X119.395 Y98.958
G1 F1350 X115.928 Y102.425 E26.69422
G0 F7500 X115.928 Y101.86
G1 F1350 X119.395 Y98.393 E26.85729
G0 F7500 X119.395 Y97.827
G1 F1350 X115.928 Y101.294 E27.02037
G0 F7500 X115.928 Y100.728
G1 F1350 X119.395 Y97.261 E27.18345
G0 F7500 X118.931 Y97.16
G1 F1350 X115.928 Y100.163 E27.3247
G0 F7500 X115.928 Y99.597
G1 F1350 X118.366 Y97.16 E27.43935
G0 F7500 X117.8 Y97.16
G1 F1350 X115.928 Y99.031 E27.52738
G0 F7500 X115.928 Y98.466
G1 F1350 X117.234 Y97.16 E27.58881
G0 F7500 X116.669 Y97.16
G1 F1350 X115.928 Y97.9 E27.62364
G0 F7500 X115.928 Y97.334
G1 F1350 X116.103 Y97.16 E27.63185
G1 F2700 E22.63185
;MESH:NOMESH
