;FLAVOR:Marlin
;TIME:35656
;Filament used: 36.2464m
;Layer height: 0.2
;MINX:64
;MINY:9
;MINZ:0.2
;MAXX:156
;MAXY:192
;MAXZ:33
;Generated with Cura_SteamEngine 5.3.0
M140 S60
M105
M190 S60
M104 S230
M105
M109 S230
M82 ;absolute extrusion mode
; Ender 3 Custom Start G-code
G92 E0 ; Reset Extruder
G28 ; Home all axes
G1 Z2.0 F3000 ; Move Z Axis up little to prevent scratching of Heat Bed
G1 X0.1 Y20 Z0.3 F5000.0 ; Move to start position
G1 X0.1 Y200.0 Z0.3 F1500.0 E15 ; Draw the first line
G1 X0.4 Y200.0 Z0.3 F5000.0 ; Move to side a little
G1 X0.4 Y20 Z0.3 F1500.0 E30 ; Draw the second line
G92 E0 ; Reset Extruder
G1 Z2.0 F3000 ; Move Z Axis up little to prevent scratching of Heat Bed
G1 X5 Y20 Z0.3 F5000.0 ; Move over to prevent blob squish
G92 E0
G92 E0
G1 F2700 E-5
;LAYER_COUNT:165
;LAYER:0
M107
G0 F6000 X65.498 Y26.326 Z0.2
;TYPE:SKIRT
G1 F2700 E0
G1 F1200 X65.86 Y25.499 E0.03003
G1 X66.295 Y24.707 E0.06008
G1 X66.798 Y23.957 E0.09012
G1 X67.365 Y23.254 E0.12015
G1 X67.993 Y22.604 E0.15022
G1 X68.675 Y22.013 E0.18023
G1 X69.407 Y21.484 E0.21027
G1 X70.183 Y21.022 E0.24031
G1 X70.997 Y20.63 E0.27036
G1 X71.842 Y20.312 E0.30039
G1 X72.721 Y20.067 E0.33074
G1 X73.443 Y19.901 E0.35538
G1 X75.995 Y19.272 E0.4428
G1 X78.448 Y18.594 E0.52744
G1 X80.876 Y17.849 E0.61191
G1 X83.251 Y17.045 E0.69531
G1 X85.683 Y16.145 E0.78156
G1 X87.992 Y15.215 E0.86435
G1 X90.328 Y14.196 E0.94912
G1 X92.625 Y13.117 E1.03353
G1 X95.55 Y11.627 E1.14271
G1 X96.244 Y11.26 E1.16882
G1 X97.06 Y10.873 E1.19886
G1 X98.111 Y10.497 E1.23598
G1 X98.842 Y10.289 E1.26126
G1 X99.478 Y10.128 E1.28308
G1 X100.362 Y9.945 E1.31311
G1 X101.259 Y9.842 E1.34314
G1 X101.798 Y9.818 E1.36108
G1 X102.873 Y9.8 E1.39684
G1 X117.298 Y9.8 E1.87662
G1 X118.13 Y9.811 E1.9043
G1 X119.032 Y9.864 E1.93435
G1 X119.925 Y9.997 E1.96438
G1 X120.455 Y10.115 E1.98244
G1 X121.091 Y10.274 E2.00424
G1 X121.749 Y10.454 E2.02693
G1 X122.607 Y10.736 E2.05697
G1 X123.63 Y11.189 E2.09418
G1 X124.178 Y11.47 E2.11466
G1 X125.701 Y12.28 E2.17204
G1 X127.972 Y13.405 E2.25633
G1 X130.289 Y14.473 E2.34119
G1 X132.631 Y15.473 E2.42589
G1 X134.967 Y16.394 E2.5094
G1 X137.374 Y17.264 E2.59453
G1 X139.786 Y18.06 E2.67901
G1 X142.211 Y18.785 E2.76319
G1 X144.665 Y19.443 E2.84769
G1 X146.28 Y19.821 E2.90286
G1 X147.424 Y20.102 E2.94204
G1 X148.291 Y20.356 E2.97209
G1 X149.132 Y20.686 E3.00214
G1 X149.94 Y21.089 E3.03217
G1 X150.709 Y21.562 E3.0622
G1 X151.434 Y22.101 E3.09225
G1 X152.108 Y22.701 E3.12226
G1 X152.727 Y23.36 E3.15233
G1 X153.284 Y24.07 E3.18234
G1 X153.777 Y24.827 E3.21239
G1 X154.201 Y25.624 E3.24242
G1 X154.553 Y26.456 E3.27246
G1 X154.829 Y27.316 E3.30251
G1 X155.029 Y28.197 E3.33255
G1 X155.15 Y29.092 E3.36259
G1 X155.187 Y29.719 E3.38348
G1 X155.2 Y30.325 E3.40364
G1 X155.199 Y179.39 E8.36156
G1 X155.19 Y180.117 E8.38575
G1 X155.139 Y181.019 E8.41579
G1 X155.008 Y181.913 E8.44585
G1 X154.799 Y182.791 E8.47587
G1 X154.513 Y183.648 E8.50591
G1 X154.152 Y184.476 E8.53596
G1 X153.72 Y185.268 E8.56596
G1 X153.219 Y186.02 E8.59602
G1 X152.653 Y186.724 E8.62606
G1 X152.028 Y187.375 E8.65608
G1 X151.347 Y187.969 E8.68613
G1 X150.616 Y188.5 E8.71618
G1 X149.842 Y188.964 E8.7462
G1 X149.029 Y189.358 E8.77625
G1 X148.185 Y189.678 E8.80627
G1 X147.315 Y189.923 E8.83633
G1 X146.428 Y190.089 E8.86634
G1 X145.277 Y190.187 E8.90477
G1 X144.67 Y190.2 E8.92496
G1 X127.309 Y190.2 E9.50239
G1 X124.703 Y190.237 E9.58907
G1 X122.138 Y190.346 E9.67446
G1 X119.631 Y190.524 E9.75806
G1 X117.11 Y190.773 E9.84231
G1 X114.481 Y191.109 E9.93046
G1 X113.477 Y191.187 E9.96396
G1 X112.87 Y191.2 E9.98415
G1 X107.351 Y191.199 E10.16771
G1 X106.633 Y191.188 E10.1916
G1 X105.492 Y191.106 E10.22965
G1 X103.886 Y190.9 E10.2835
G1 X101.316 Y190.616 E10.3695
G1 X98.763 Y190.407 E10.45469
G1 X96.273 Y190.273 E10.53763
G1 X92.592 Y190.2 E10.66009
G1 X75.561 Y190.199 E11.22654
G1 X74.863 Y190.189 E11.24976
G1 X73.961 Y190.136 E11.27981
G1 X73.068 Y190.004 E11.30983
G1 X72.19 Y189.793 E11.33987
G1 X71.334 Y189.505 E11.36991
G1 X70.507 Y189.143 E11.39993
G1 X69.715 Y188.708 E11.42999
G1 X68.964 Y188.206 E11.46003
G1 X68.261 Y187.639 E11.49007
G1 X67.611 Y187.012 E11.52011
G1 X67.019 Y186.33 E11.55015
G1 X66.489 Y185.599 E11.58018
G1 X66.027 Y184.823 E11.61022
G1 X65.634 Y184.01 E11.64025
G1 X65.316 Y183.165 E11.67028
G1 X65.073 Y182.295 E11.70032
G1 X64.908 Y181.407 E11.73036
G1 X64.813 Y180.266 E11.76844
G1 X64.8 Y179.658 E11.78867
G1 X64.801 Y30.521 E16.74899
G1 X64.811 Y29.854 E16.77117
G1 X64.865 Y28.953 E16.8012
G1 X64.998 Y28.059 E16.83126
G1 X65.209 Y27.181 E16.86129
G1 X65.498 Y26.326 E16.89131
G0 F6000 X65.119 Y26.198
G1 F1200 X65.509 Y25.306 E16.92369
G1 X65.944 Y24.514 E16.95374
G1 X66.466 Y23.734 E16.98496
G1 X67.077 Y22.976 E17.01734
G1 X67.705 Y22.326 E17.0474
G1 X68.413 Y21.711 E17.07859
G1 X69.202 Y21.14 E17.11099
G1 X69.978 Y20.678 E17.14103
G1 X70.856 Y20.256 E17.17343
G1 X71.701 Y19.938 E17.20345
G1 X72.631 Y19.677 E17.23558
G1 X73.353 Y19.511 E17.26022
G1 X75.888 Y18.886 E17.34706
G1 X78.341 Y18.209 E17.4317
G1 X80.748 Y17.47 E17.51544
G1 X83.123 Y16.666 E17.59884
G1 X85.544 Y15.77 E17.6847
G1 X87.832 Y14.848 E17.76675
G1 X90.168 Y13.829 E17.85151
G1 X92.455 Y12.755 E17.93555
G1 X95.363 Y11.273 E18.04411
G1 X96.057 Y10.906 E18.07022
G1 X96.925 Y10.496 E18.10214
G1 X97.976 Y10.12 E18.13927
G1 X98.744 Y9.901 E18.16583
G1 X99.397 Y9.736 E18.18823
G1 X100.281 Y9.553 E18.21826
G1 X101.241 Y9.442 E18.2504
G1 X101.791 Y9.418 E18.26871
G1 X102.866 Y9.4 E18.30447
G1 X117.303 Y9.4 E18.78465
G1 X118.153 Y9.412 E18.81292
G1 X119.091 Y9.468 E18.84418
G1 X119.984 Y9.601 E18.87421
G1 X120.552 Y9.727 E18.89356
G1 X121.197 Y9.888 E18.91567
G1 X121.874 Y10.074 E18.93902
G1 X122.769 Y10.37 E18.97037
G1 X123.813 Y10.833 E19.00836
G1 X124.366 Y11.117 E19.02903
G1 X125.888 Y11.926 E19.08636
G1 X128.15 Y13.047 E19.17033
G1 X130.446 Y14.105 E19.25441
G1 X132.786 Y15.104 E19.33904
G1 X135.113 Y16.022 E19.42224
G1 X137.499 Y16.884 E19.50662
G1 X139.911 Y17.68 E19.5911
G1 X142.324 Y18.402 E19.67487
G1 X144.77 Y19.057 E19.75909
G1 X146.375 Y19.433 E19.81392
G1 X147.536 Y19.718 E19.85368
G1 X148.403 Y19.972 E19.88373
G1 X149.311 Y20.328 E19.91617
G1 X150.15 Y20.748 E19.94737
G1 X150.919 Y21.221 E19.9774
G1 X151.7 Y21.802 E20.00978
G1 X152.4 Y22.427 E20.04099
G1 X153.019 Y23.086 E20.07106
G1 X153.599 Y23.823 E20.10225
G1 X154.13 Y24.639 E20.13463
G1 X154.554 Y25.436 E20.16466
G1 X154.934 Y26.334 E20.19709
G1 X155.219 Y27.227 E20.22827
G1 X155.419 Y28.108 E20.25832
G1 X155.549 Y29.068 E20.29054
G1 X155.587 Y29.71 E20.31193
G1 X155.6 Y30.325 E20.33239
G1 X155.599 Y179.395 E25.29047
G1 X155.589 Y180.14 E25.31526
G1 X155.535 Y181.077 E25.34647
G1 X155.404 Y181.971 E25.37652
G1 X155.188 Y182.884 E25.40773
G1 X154.88 Y183.808 E25.44012
G1 X154.519 Y184.636 E25.47017
G1 X154.053 Y185.49 E25.50252
G1 X153.531 Y186.271 E25.53377
G1 X152.965 Y186.975 E25.56381
G1 X152.317 Y187.652 E25.59498
G1 X151.582 Y188.293 E25.62742
G1 X150.851 Y188.824 E25.65747
G1 X150.048 Y189.307 E25.68864
G1 X149.171 Y189.732 E25.72105
G1 X148.327 Y190.052 E25.75107
G1 X147.389 Y190.316 E25.78348
G1 X146.462 Y190.488 E25.81484
G1 X145.311 Y190.586 E25.85326
G1 X144.679 Y190.6 E25.87429
G1 X127.315 Y190.6 E26.45182
G1 X124.72 Y190.637 E26.53814
G1 X122.155 Y190.746 E26.62352
G1 X119.662 Y190.923 E26.70665
G1 X117.161 Y191.17 E26.79024
G1 X114.512 Y191.508 E26.87906
G1 X113.486 Y191.587 E26.91329
G1 X112.87 Y191.6 E26.93378
G1 X107.345 Y191.599 E27.11754
G1 X106.604 Y191.587 E27.14219
G1 X105.441 Y191.503 E27.18097
G1 X103.842 Y191.298 E27.23459
G1 X101.275 Y191.014 E27.32049
G1 X98.73 Y190.805 E27.40542
G1 X96.265 Y190.673 E27.48753
G1 X92.584 Y190.6 E27.60998
G1 X75.555 Y190.599 E28.17637
G1 X74.84 Y190.588 E28.20015
G1 X73.903 Y190.532 E28.23137
G1 X73.01 Y190.4 E28.26139
G1 X72.062 Y190.172 E28.29382
G1 X71.206 Y189.884 E28.32386
G1 X70.314 Y189.494 E28.35624
G1 X69.522 Y189.059 E28.3863
G1 X68.742 Y188.539 E28.41748
G1 X67.983 Y187.927 E28.44991
G1 X67.333 Y187.3 E28.47994
G1 X66.695 Y186.565 E28.51231
G1 X66.145 Y185.804 E28.54354
G1 X65.683 Y185.028 E28.57358
G1 X65.26 Y184.151 E28.60597
G1 X64.931 Y183.273 E28.63715
G1 X64.68 Y182.368 E28.66839
G1 X64.509 Y181.44 E28.69977
G1 X64.413 Y180.275 E28.73865
G1 X64.4 Y179.658 E28.75918
G1 X64.401 Y30.515 E33.7197
G1 X64.412 Y29.83 E33.74248
G1 X64.469 Y28.894 E33.77367
G1 X64.602 Y28 E33.80373
G1 X64.83 Y27.053 E33.83613
G1 X65.119 Y26.198 E33.86615
G0 F6000 X64.752 Y26.038
G1 F1200 X65.158 Y25.113 E33.89975
G1 X65.593 Y24.321 E33.9298
G1 X66.155 Y23.483 E33.96336
G1 X66.789 Y22.698 E33.99692
G1 X67.417 Y22.048 E34.02698
G1 X68.178 Y21.387 E34.06051
G1 X68.997 Y20.796 E34.0941
G1 X69.773 Y20.334 E34.12414
G1 X70.683 Y19.895 E34.15774
G1 X71.593 Y19.553 E34.19008
G1 X72.541 Y19.287 E34.22282
G1 X73.263 Y19.121 E34.24746
G1 X75.782 Y18.5 E34.33375
G1 X78.235 Y17.824 E34.41838
G1 X80.62 Y17.091 E34.50137
G1 X82.995 Y16.287 E34.58477
G1 X85.394 Y15.399 E34.66985
G1 X87.671 Y14.481 E34.75151
G1 X90.008 Y13.462 E34.8363
G1 X92.285 Y12.393 E34.91997
G1 X95.176 Y10.919 E35.0279
G1 X95.886 Y10.544 E35.0546
G1 X96.79 Y10.119 E35.08783
G1 X97.866 Y9.735 E35.12583
G1 X98.646 Y9.513 E35.1528
G1 X99.316 Y9.344 E35.17578
G1 X100.2 Y9.161 E35.20581
G1 X101.224 Y9.042 E35.2401
G1 X101.784 Y9.018 E35.25874
G1 X102.859 Y9 E35.2945
G1 X117.309 Y9 E35.77511
G1 X118.177 Y9.013 E35.80398
G1 X119.15 Y9.072 E35.8364
G1 X120.071 Y9.21 E35.86738
G1 X120.649 Y9.339 E35.88707
G1 X121.303 Y9.502 E35.90949
G1 X122 Y9.694 E35.93354
G1 X122.931 Y10.004 E35.96617
G1 X123.996 Y10.477 E36.00493
G1 X124.554 Y10.764 E36.0258
G1 X126.075 Y11.572 E36.08309
G1 X128.328 Y12.689 E36.16672
G1 X130.603 Y13.737 E36.25003
G1 X132.941 Y14.735 E36.33458
G1 X135.259 Y15.65 E36.41747
G1 X137.624 Y16.504 E36.5011
G1 X140.036 Y17.3 E36.58558
G1 X142.439 Y18.019 E36.66901
G1 X144.867 Y18.669 E36.75261
G1 X146.47 Y19.045 E36.80737
G1 X147.648 Y19.334 E36.84771
G1 X148.515 Y19.588 E36.87776
G1 X149.49 Y19.97 E36.91259
G1 X150.36 Y20.407 E36.94497
G1 X151.129 Y20.88 E36.975
G1 X151.939 Y21.481 E37.00854
G1 X152.692 Y22.153 E37.04211
G1 X153.311 Y22.812 E37.07218
G1 X153.934 Y23.605 E37.10573
G1 X154.483 Y24.451 E37.13927
G1 X154.907 Y25.248 E37.1693
G1 X155.315 Y26.212 E37.20411
G1 X155.609 Y27.138 E37.23643
G1 X155.809 Y28.019 E37.26647
G1 X155.948 Y29.044 E37.30088
G1 X155.987 Y29.702 E37.3228
G1 X156 Y30.325 E37.34353
G1 X155.999 Y179.4 E42.30178
G1 X155.988 Y180.163 E42.32716
G1 X155.931 Y181.135 E42.35954
G1 X155.8 Y182.029 E42.3896
G1 X155.577 Y182.976 E42.42196
G1 X155.247 Y183.968 E42.45673
G1 X154.886 Y184.796 E42.48677
G1 X154.386 Y185.712 E42.52148
G1 X153.843 Y186.522 E42.55391
G1 X153.277 Y187.226 E42.58396
G1 X152.606 Y187.929 E42.61628
G1 X151.817 Y188.617 E42.6511
G1 X151.086 Y189.148 E42.68115
G1 X150.254 Y189.65 E42.71347
G1 X149.313 Y190.106 E42.74825
G1 X148.469 Y190.426 E42.77827
G1 X147.497 Y190.701 E42.81187
G1 X146.496 Y190.887 E42.84573
G1 X145.345 Y190.985 E42.88415
G1 X144.688 Y191 E42.90601
G1 X127.321 Y191 E43.48364
G1 X124.737 Y191.037 E43.56959
G1 X122.172 Y191.146 E43.65498
G1 X119.693 Y191.322 E43.73764
G1 X117.212 Y191.567 E43.82056
G1 X114.543 Y191.907 E43.91005
G1 X113.517 Y191.986 E43.94427
G1 X112.87 Y192 E43.9658
G1 X107.339 Y191.999 E44.14976
G1 X106.575 Y191.986 E44.17518
G1 X105.39 Y191.9 E44.21469
G1 X103.798 Y191.696 E44.26808
G1 X101.234 Y191.412 E44.35388
G1 X98.697 Y191.203 E44.43854
G1 X96.257 Y191.073 E44.51981
G1 X92.576 Y191 E44.64227
G1 X75.549 Y190.999 E45.20859
G1 X74.816 Y190.987 E45.23297
G1 X73.845 Y190.928 E45.26533
G1 X72.916 Y190.789 E45.29657
G1 X71.968 Y190.561 E45.329
G1 X71.046 Y190.251 E45.36135
G1 X70.121 Y189.845 E45.39495
G1 X69.329 Y189.41 E45.425
G1 X68.52 Y188.872 E45.45732
G1 X67.705 Y188.215 E45.49214
G1 X67.055 Y187.588 E45.52217
G1 X66.393 Y186.827 E45.55572
G1 X65.801 Y186.009 E45.58931
G1 X65.339 Y185.233 E45.61934
G1 X64.885 Y184.291 E45.65412
G1 X64.556 Y183.413 E45.68531
G1 X64.287 Y182.44 E45.71888
G1 X64.11 Y181.473 E45.75158
G1 X64.014 Y180.308 E45.79046
G1 X64 Y179.658 E45.81208
G1 X64.001 Y30.509 E50.7728
G1 X64.013 Y29.806 E50.79619
G1 X64.073 Y28.835 E50.82854
G1 X64.206 Y27.941 E50.8586
G1 X64.441 Y26.959 E50.89219
G1 X64.752 Y26.038 E50.92452
G1 F2700 E45.92452
G0 F6000 X78 Y33
G1 F2700 E50.92452
G1 F1200 X105.005 Y33 E51.82271
G1 X105.005 Y167.1 E56.28289
G1 X101.87 Y167.1 E56.38717
G1 X101.831 Y167.104 E56.38847
G1 X100.069 Y167.453 E56.44821
G1 X99.997 Y167.483 E56.45081
G1 X98.434 Y168.529 E56.51336
G1 X98.379 Y168.584 E56.51595
G1 X97.333 Y170.147 E56.5785
G1 X97.303 Y170.219 E56.58109
G1 X96.954 Y171.981 E56.64084
G1 X96.95 Y172.02 E56.64214
G1 X96.95 Y173.28 E56.68405
G1 X96.954 Y173.319 E56.68535
G1 X97.303 Y175.081 E56.74509
G1 X97.333 Y175.153 E56.74769
G1 X98.463 Y176.842 E56.81528
G1 X98.379 Y177 E56.82123
G1 X78 Y177 E57.49904
G1 X78 Y33 E62.2885
G0 F6000 X78.4 Y33.4
G1 F1200 X104.605 Y33.4 E63.16008
G1 X104.605 Y166.7 E67.59366
G1 X101.87 Y166.7 E67.68462
G1 X101.753 Y166.711 E67.68853
G1 X99.991 Y167.06 E67.74827
G1 X99.774 Y167.15 E67.75609
G1 X98.211 Y168.196 E67.81864
G1 X98.046 Y168.361 E67.8264
G1 X97 Y169.924 E67.88895
G1 X96.91 Y170.141 E67.89677
G1 X96.561 Y171.903 E67.95651
G1 X96.55 Y172.02 E67.96042
G1 X96.55 Y173.28 E68.00233
G1 X96.561 Y173.397 E68.00624
G1 X96.91 Y175.159 E68.06598
G1 X97 Y175.376 E68.07379
G1 X97.819 Y176.6 E68.12277
G1 X78.4 Y176.6 E68.76865
G1 X78.4 Y33.4 E73.5315
G0 F6000 X78.8 Y33.8
G1 F1200 X104.205 Y33.8 E74.37648
G1 X104.205 Y166.3 E78.78345
G1 X101.87 Y166.3 E78.86111
G1 X101.676 Y166.319 E78.86759
G1 X99.914 Y166.668 E78.92733
G1 X99.552 Y166.818 E78.94037
G1 X97.989 Y167.864 E79.00292
G1 X97.714 Y168.139 E79.01586
G1 X96.668 Y169.702 E79.07841
G1 X96.518 Y170.064 E79.09144
G1 X96.169 Y171.826 E79.15118
G1 X96.15 Y172.02 E79.15767
G1 X96.15 Y173.28 E79.19958
G1 X96.169 Y173.474 E79.20606
G1 X96.518 Y175.236 E79.2658
G1 X96.668 Y175.598 E79.27883
G1 X97.071 Y176.2 E79.30293
G1 X78.8 Y176.2 E79.91063
G1 X78.8 Y33.8 E84.64687
G0 F6000 X79.2 Y34.2
G1 F1200 X103.805 Y34.2 E85.46523
G1 X103.805 Y165.9 E89.84559
G1 X101.87 Y165.9 E89.90995
G1 X101.598 Y165.927 E89.91904
G1 X99.836 Y166.276 E89.97879
G1 X99.518 Y166.379 E89.9899
G1 X99.329 Y166.486 E89.99713
G1 X97.766 Y167.532 E90.05968
G1 X97.513 Y167.749 E90.07077
G1 X97.382 Y167.916 E90.07783
G1 X96.336 Y169.479 E90.14038
G1 X96.184 Y169.777 E90.15151
G1 X96.126 Y169.986 E90.15872
G1 X95.777 Y171.748 E90.21846
G1 X95.75 Y172.02 E90.22755
G1 X95.75 Y173.28 E90.26946
G1 X95.777 Y173.552 E90.27855
G1 X96.126 Y175.314 E90.3383
G1 X96.229 Y175.632 E90.34941
G1 X96.324 Y175.8 E90.35583
G1 X79.2 Y175.8 E90.92538
G1 X79.2 Y34.2 E95.63501
G0 F6000 X79.6 Y34.6
G1 F1200 X103.405 Y34.6 E96.42677
G1 X103.405 Y165.5 E100.78052
G1 X101.87 Y165.5 E100.83158
G1 X101.52 Y165.534 E100.84327
G1 X99.758 Y165.883 E100.90302
G1 X99.396 Y165.996 E100.91563
G1 X99.107 Y166.153 E100.92657
G1 X97.544 Y167.199 E100.98912
G1 X97.253 Y167.442 E101.00173
G1 X97.049 Y167.694 E101.01251
G1 X96.003 Y169.257 E101.07507
G1 X95.827 Y169.592 E101.08765
G1 X95.733 Y169.908 E101.09862
G1 X95.384 Y171.67 E101.15836
G1 X95.35 Y172.02 E101.17006
G1 X95.35 Y173.28 E101.21197
G1 X95.384 Y173.63 E101.22366
G1 X95.733 Y175.392 E101.2834
G1 X95.735 Y175.4 E101.28368
G1 X79.6 Y175.4 E101.82033
G1 X79.6 Y34.6 E106.50336
G0 F6000 X80 Y35
G1 F1200 X103.005 Y35 E107.26851
G1 X103.005 Y165.1 E111.59565
G1 X101.87 Y165.1 E111.6334
G1 X101.443 Y165.142 E111.64767
G1 X99.681 Y165.491 E111.70741
G1 X99.279 Y165.611 E111.72137
G1 X98.884 Y165.821 E111.73625
G1 X97.321 Y166.867 E111.7988
G1 X96.997 Y167.132 E111.81272
G1 X96.717 Y167.471 E111.82735
G1 X95.671 Y169.034 E111.8899
G1 X95.472 Y169.403 E111.90384
G1 X95.341 Y169.831 E111.91873
G1 X94.992 Y171.593 E111.97847
G1 X94.95 Y172.02 E111.99274
G1 X94.95 Y173.28 E112.03465
G1 X94.992 Y173.707 E112.04892
G1 X95.248 Y175 E112.09276
G1 X80 Y175 E112.59991
G1 X80 Y35 E117.25633
G0 F6000 X80.4 Y35.4
G1 F1200 X102.605 Y35.4 E117.99487
G1 X102.605 Y164.7 E122.29541
