;FLAVOR:Marlin
;TIME:6799
;Filament used: 4.84839m
;Layer height: 0.2
;MINX:75.001
;MINY:62
;MINZ:0.2
;MAXX:145
;MAXY:138
;MAXZ:18
;Generated with Cura_SteamEngine 5.3.0
M140 S60
M105
M190 S60
M104 S230
M105
M109 S230
M82 ;absolute extrusion mode
; Ender 3 Custom Start G-code
G92 E0 ; Reset Extruder
G28 ; Home all axes
G1 Z2.0 F3000 ; Move Z Axis up little to prevent scratching of Heat Bed
G1 X0.1 Y20 Z0.3 F5000.0 ; Move to start position
G1 X0.1 Y200.0 Z0.3 F1500.0 E15 ; Draw the first line
G1 X0.4 Y200.0 Z0.3 F5000.0 ; Move to side a little
G1 X0.4 Y20 Z0.3 F1500.0 E30 ; Draw the second line
G92 E0 ; Reset Extruder
G1 Z2.0 F3000 ; Move Z Axis up little to prevent scratching of Heat Bed
G1 X5 Y20 Z0.3 F5000.0 ; Move over to prevent blob squish
G92 E0
G92 E0
G1 F2700 E-5
;LAYER_COUNT:90
;LAYER:0
M107
G0 F6000 X78.355 Y66.267 Z0.2
;TYPE:SKIRT
G1 F2700 E0
G1 F1200 X78.981 Y65.617 E0.03001
G1 X79.662 Y65.024 E0.06005
G1 X80.394 Y64.494 E0.09011
G1 X81.169 Y64.031 E0.12013
G1 X81.982 Y63.638 E0.15017
G1 X82.827 Y63.318 E0.18022
G1 X83.696 Y63.075 E0.21023
G1 X84.584 Y62.909 E0.24028
G1 X85.723 Y62.813 E0.2783
G1 X86.33 Y62.8 E0.29849
G1 X97.293 Y62.8 E0.66312
G1 X98.137 Y62.811 E0.69119
G1 X98.968 Y62.857 E0.71888
G1 X99.8 Y62.939 E0.74668
G1 X101.059 Y63.084 E0.78883
G1 X103.61 Y63.302 E0.87399
G1 X106.115 Y63.446 E0.95744
G1 X108.684 Y63.52 E1.04292
G1 X111.218 Y63.522 E1.12721
G1 X113.75 Y63.452 E1.21145
G1 X116.28 Y63.31 E1.29573
G1 X118.853 Y63.093 E1.38162
G1 X120.914 Y62.869 E1.45057
G1 X121.724 Y62.813 E1.47757
G1 X122.33 Y62.8 E1.49773
G1 X133.425 Y62.801 E1.86675
G1 X134.123 Y62.81 E1.88997
G1 X135.024 Y62.861 E1.91999
G1 X135.918 Y62.993 E1.95004
G1 X136.796 Y63.202 E1.98006
G1 X137.653 Y63.489 E2.01012
G1 X138.48 Y63.85 E2.04013
G1 X139.273 Y64.283 E2.07019
G1 X140.024 Y64.784 E2.10021
G1 X140.728 Y65.35 E2.13026
G1 X141.379 Y65.976 E2.1603
G1 X141.972 Y66.657 E2.19033
G1 X142.502 Y67.388 E2.22036
G1 X142.966 Y68.163 E2.2504
G1 X143.36 Y68.976 E2.28045
G1 X143.68 Y69.82 E2.31047
G1 X143.924 Y70.69 E2.34053
G1 X144.09 Y71.578 E2.37057
G1 X144.187 Y72.723 E2.40879
G1 X144.2 Y73.33 E2.42899
G1 X144.199 Y94.412 E3.13018
G1 X144.187 Y95.22 E3.15705
G1 X144.134 Y96.122 E3.18711
G1 X144.033 Y96.842 E3.21129
G1 X143.937 Y97.386 E3.22966
G1 X143.741 Y98.267 E3.25968
G1 X143.467 Y99.128 E3.28973
G1 X142.996 Y100.214 E3.3291
G1 X142.713 Y100.774 E3.34997
G1 X142.278 Y101.548 E3.3795
G1 X141.035 Y103.553 E3.45796
G1 X139.768 Y105.728 E3.54168
G1 X138.532 Y107.992 E3.62748
G1 X137.388 Y110.236 E3.71125
G1 X136.302 Y112.524 E3.79549
G1 X135.271 Y114.867 E3.88063
G1 X134.307 Y117.238 E3.96576
G1 X133.433 Y119.573 E4.04868
G1 X132.607 Y121.986 E4.13351
G1 X131.847 Y124.431 E4.21867
G1 X131.164 Y126.868 E4.30285
G1 X130.724 Y128.59 E4.36196
G1 X130.524 Y129.409 E4.39
G1 X130.271 Y130.276 E4.42004
G1 X129.943 Y131.118 E4.45009
G1 X129.541 Y131.927 E4.48014
G1 X129.07 Y132.697 E4.51016
G1 X128.532 Y133.422 E4.54019
G1 X127.932 Y134.097 E4.57023
G1 X127.275 Y134.717 E4.60027
G1 X126.565 Y135.276 E4.63033
G1 X125.809 Y135.769 E4.66035
G1 X125.012 Y136.194 E4.69039
G1 X124.181 Y136.547 E4.72042
G1 X123.322 Y136.825 E4.75045
G1 X122.441 Y137.026 E4.7805
G1 X121.547 Y137.148 E4.81051
G1 X120.9 Y137.187 E4.83207
G1 X120.293 Y137.2 E4.85227
G1 X99.938 Y137.199 E5.52928
G1 X99.24 Y137.189 E5.55249
G1 X98.338 Y137.136 E5.58255
G1 X97.445 Y137.004 E5.61257
G1 X96.567 Y136.793 E5.6426
G1 X95.711 Y136.505 E5.67264
G1 X94.884 Y136.143 E5.70267
G1 X94.092 Y135.708 E5.73272
G1 X93.341 Y135.206 E5.76277
G1 X92.638 Y134.639 E5.79281
G1 X91.988 Y134.012 E5.82284
G1 X91.396 Y133.33 E5.85288
G1 X90.866 Y132.599 E5.88291
G1 X90.404 Y131.823 E5.91295
G1 X90.011 Y131.01 E5.94298
G1 X89.693 Y130.165 E5.97301
G1 X89.523 Y129.591 E5.99292
G1 X89.422 Y129.208 E6.0061
G1 X88.934 Y127.226 E6.07399
G1 X88.253 Y124.759 E6.15911
G1 X87.513 Y122.349 E6.24296
G1 X86.692 Y119.917 E6.32833
G1 X85.821 Y117.562 E6.41185
G1 X84.869 Y115.197 E6.49664
G1 X83.854 Y112.867 E6.58117
G1 X82.776 Y110.573 E6.66548
G1 X81.632 Y108.305 E6.74996
G1 X80.418 Y106.059 E6.83488
G1 X79.168 Y103.897 E6.91794
G1 X78.214 Y102.36 E6.97811
G1 X77.697 Y101.507 E7.01128
G1 X77.351 Y100.889 E7.03484
G1 X77.042 Y100.289 E7.05729
G1 X76.664 Y99.469 E7.08732
G1 X76.361 Y98.618 E7.11736
G1 X76.134 Y97.744 E7.1474
G1 X76.04 Y97.243 E7.16435
G1 X75.94 Y96.623 E7.18524
G1 X75.815 Y95.306 E7.22924
G1 X75.801 Y94.7 E7.2494
G1 X75.801 Y73.536 E7.95332
G1 X75.81 Y72.871 E7.97544
G1 X75.862 Y71.969 E8.00549
G1 X75.994 Y71.076 E8.03551
G1 X76.204 Y70.198 E8.06554
G1 X76.491 Y69.341 E8.0956
G1 X76.853 Y68.514 E8.12563
G1 X77.286 Y67.722 E8.15565
G1 X77.788 Y66.971 E8.18569
G1 X78.355 Y66.267 E8.21576
G0 F6000 X78.043 Y66.016
G1 F1200 X78.718 Y65.315 E8.24812
G1 X79.399 Y64.722 E8.27816
G1 X80.159 Y64.17 E8.3094
G1 X80.995 Y63.671 E8.34178
G1 X81.84 Y63.264 E8.37298
G1 X82.685 Y62.944 E8.40303
G1 X83.622 Y62.682 E8.43539
G1 X84.55 Y62.51 E8.46678
G1 X85.689 Y62.414 E8.5048
G1 X86.321 Y62.4 E8.52582
G1 X97.298 Y62.4 E8.89092
G1 X98.159 Y62.412 E8.91956
G1 X99.007 Y62.459 E8.94781
G1 X99.846 Y62.542 E8.97585
G1 X101.093 Y62.685 E9.0176
G1 X103.644 Y62.904 E9.10276
G1 X106.127 Y63.046 E9.18548
G1 X108.696 Y63.12 E9.27096
G1 X111.207 Y63.122 E9.35447
G1 X113.739 Y63.052 E9.43872
G1 X116.246 Y62.912 E9.52223
G1 X118.819 Y62.694 E9.60812
G1 X120.886 Y62.47 E9.67727
G1 X121.715 Y62.413 E9.70491
G1 X122.33 Y62.4 E9.72537
G1 X133.43 Y62.401 E10.09455
G1 X134.146 Y62.411 E10.11837
G1 X135.082 Y62.465 E10.14955
G1 X135.976 Y62.597 E10.17961
G1 X136.889 Y62.813 E10.21081
G1 X137.813 Y63.122 E10.24322
G1 X138.64 Y63.483 E10.27323
G1 X139.495 Y63.95 E10.30564
G1 X140.275 Y64.472 E10.33685
G1 X140.979 Y65.038 E10.3669
G1 X141.681 Y65.713 E10.39929
G1 X142.274 Y66.394 E10.42932
G1 X142.826 Y67.153 E10.46054
G1 X143.326 Y67.989 E10.49293
G1 X143.734 Y68.834 E10.52414
G1 X144.054 Y69.678 E10.55417
G1 X144.317 Y70.616 E10.58657
G1 X144.489 Y71.544 E10.61796
G1 X144.586 Y72.689 E10.65618
G1 X144.6 Y73.33 E10.6775
G1 X144.599 Y94.418 E11.37889
G1 X144.586 Y95.243 E11.40633
G1 X144.53 Y96.178 E11.43749
G1 X144.427 Y96.912 E11.46214
G1 X144.327 Y97.473 E11.48109
G1 X144.122 Y98.388 E11.51228
G1 X143.834 Y99.287 E11.54368
G1 X143.353 Y100.394 E11.58382
G1 X143.062 Y100.97 E11.60529
G1 X142.618 Y101.759 E11.6354
G1 X141.375 Y103.764 E11.71386
G1 X140.114 Y105.929 E11.79719
G1 X138.883 Y108.184 E11.88264
G1 X137.744 Y110.418 E11.96605
G1 X136.663 Y112.696 E12.04991
G1 X135.642 Y115.018 E12.13428
G1 X134.678 Y117.389 E12.21941
G1 X133.808 Y119.713 E12.30194
G1 X132.989 Y122.105 E12.38603
G1 X132.229 Y124.55 E12.47119
G1 X131.552 Y126.967 E12.55468
G1 X131.112 Y128.689 E12.61379
G1 X130.908 Y129.521 E12.64228
G1 X130.644 Y130.421 E12.67348
G1 X130.316 Y131.263 E12.70353
G1 X129.882 Y132.136 E12.73596
G1 X129.411 Y132.906 E12.76598
G1 X128.831 Y133.688 E12.79836
G1 X128.207 Y134.388 E12.82955
G1 X127.55 Y135.008 E12.8596
G1 X126.783 Y135.611 E12.89205
G1 X125.997 Y136.122 E12.92323
G1 X125.2 Y136.547 E12.95327
G1 X124.304 Y136.928 E12.98566
G1 X123.445 Y137.206 E13.01568
G1 X122.53 Y137.416 E13.04691
G1 X121.571 Y137.547 E13.0791
G1 X120.909 Y137.587 E13.10116
G1 X120.302 Y137.6 E13.12135
G1 X99.932 Y137.599 E13.79886
G1 X99.217 Y137.588 E13.82265
G1 X98.28 Y137.532 E13.85387
G1 X97.387 Y137.4 E13.88389
G1 X96.439 Y137.172 E13.91632
G1 X95.583 Y136.884 E13.94636
G1 X94.691 Y136.494 E13.97874
G1 X93.899 Y136.059 E14.00879
G1 X93.119 Y135.539 E14.03997
G1 X92.36 Y134.927 E14.0724
G1 X91.71 Y134.3 E14.10244
G1 X91.072 Y133.565 E14.13481
G1 X90.522 Y132.804 E14.16604
G1 X90.06 Y132.028 E14.19608
G1 X89.637 Y131.151 E14.22846
G1 X89.309 Y130.279 E14.25945
G1 X89.136 Y129.693 E14.27977
G1 X88.548 Y127.332 E14.3607
G1 X87.868 Y124.865 E14.44581
G1 X87.134 Y122.477 E14.5289
G1 X86.313 Y120.045 E14.61428
G1 X85.446 Y117.701 E14.6974
G1 X84.502 Y115.357 E14.78145
G1 X83.487 Y113.027 E14.86598
G1 X82.414 Y110.743 E14.94991
G1 X81.275 Y108.485 E15.03402
G1 X80.066 Y106.249 E15.11857
G1 X78.828 Y104.108 E15.20083
G1 X77.872 Y102.567 E15.26114
G1 X77.348 Y101.702 E15.29478
G1 X76.995 Y101.072 E15.3188
G1 X76.686 Y100.472 E15.34124
G1 X76.287 Y99.603 E15.37305
G1 X75.984 Y98.752 E15.40309
G1 X75.741 Y97.818 E15.43519
G1 X75.645 Y97.307 E15.45249
G1 X75.545 Y96.687 E15.47337
G1 X75.415 Y95.315 E15.51921
G1 X75.401 Y94.709 E15.53937
G1 X75.401 Y73.531 E16.24376
G1 X75.411 Y72.848 E16.26647
G1 X75.466 Y71.911 E16.29769
G1 X75.598 Y71.018 E16.32772
G1 X75.815 Y70.105 E16.35893
G1 X76.112 Y69.214 E16.39017
G1 X76.502 Y68.322 E16.42255
G1 X76.953 Y67.5 E16.45373
G1 X77.476 Y66.72 E16.48497
G1 X78.043 Y66.016 E16.51503
G0 F6000 X77.731 Y65.765
G1 F1200 X78.455 Y65.013 E16.54975
G1 X79.136 Y64.42 E16.57978
G1 X79.924 Y63.846 E16.61221
G1 X80.821 Y63.311 E16.64695
G1 X81.698 Y62.89 E16.6793
G1 X82.543 Y62.57 E16.70936
G1 X83.549 Y62.289 E16.7441
G1 X84.516 Y62.111 E16.7768
G1 X85.655 Y62.015 E16.81482
G1 X86.312 Y62 E16.83667
G1 X97.304 Y62 E17.20227
G1 X98.181 Y62.013 E17.23144
G1 X99.046 Y62.061 E17.26026
G1 X99.892 Y62.145 E17.28853
G1 X101.127 Y62.286 E17.32988
G1 X103.678 Y62.506 E17.41504
G1 X106.139 Y62.646 E17.49702
G1 X108.708 Y62.72 E17.5825
G1 X111.196 Y62.722 E17.66526
G1 X113.728 Y62.652 E17.7495
G1 X116.212 Y62.514 E17.83225
G1 X118.785 Y62.295 E17.91814
G1 X120.859 Y62.071 E17.98752
G1 X121.707 Y62.013 E18.01579
G1 X122.33 Y62 E18.03651
G1 X133.436 Y62.001 E18.4059
G1 X134.169 Y62.012 E18.43028
G1 X135.14 Y62.069 E18.46264
G1 X136.034 Y62.201 E18.49269
G1 X137.016 Y62.434 E18.52626
G1 X137.973 Y62.755 E18.55983
G1 X138.8 Y63.116 E18.58985
G1 X139.687 Y63.599 E18.62344
G1 X140.526 Y64.16 E18.65701
G1 X141.23 Y64.726 E18.68705
G1 X141.983 Y65.45 E18.72179
G1 X142.576 Y66.131 E18.75183
G1 X143.169 Y66.948 E18.7854
G1 X143.686 Y67.815 E18.81898
G1 X144.108 Y68.692 E18.85135
G1 X144.428 Y69.536 E18.88137
G1 X144.702 Y70.508 E18.91496
G1 X144.888 Y71.51 E18.94886
G1 X144.985 Y72.655 E18.98708
G1 X145 Y73.33 E19.00953
G1 X144.999 Y94.424 E19.71112
G1 X144.985 Y95.267 E19.73916
G1 X144.926 Y96.234 E19.77138
G1 X144.821 Y96.982 E19.79651
G1 X144.717 Y97.56 E19.81604
G1 X144.503 Y98.51 E19.84843
G1 X144.201 Y99.446 E19.88114
G1 X143.71 Y100.574 E19.92206
G1 X143.411 Y101.166 E19.94412
G1 X142.958 Y101.97 E19.97481
G1 X141.715 Y103.975 E20.05327
G1 X140.46 Y106.13 E20.13622
G1 X139.234 Y108.376 E20.22132
G1 X138.1 Y110.6 E20.30436
G1 X137.029 Y112.857 E20.38745
G1 X136.013 Y115.169 E20.47144
G1 X135.049 Y117.54 E20.55657
G1 X134.183 Y119.853 E20.63872
G1 X133.371 Y122.224 E20.72207
G1 X132.611 Y124.669 E20.80723
G1 X131.94 Y127.066 E20.89002
G1 X131.499 Y128.788 E20.94914
G1 X131.292 Y129.634 E20.97811
G1 X131.028 Y130.534 E21.00931
G1 X130.689 Y131.408 E21.04049
G1 X130.223 Y132.345 E21.07529
G1 X129.752 Y133.115 E21.10531
G1 X129.13 Y133.954 E21.14005
G1 X128.482 Y134.679 E21.17239
G1 X127.825 Y135.299 E21.20244
G1 X127.001 Y135.946 E21.23728
G1 X126.185 Y136.475 E21.26963
G1 X125.357 Y136.915 E21.30081
G1 X124.427 Y137.309 E21.33441
G1 X123.568 Y137.587 E21.36444
G1 X122.619 Y137.806 E21.39683
G1 X121.595 Y137.946 E21.43121
G1 X120.918 Y137.987 E21.45376
G1 X120.302 Y138 E21.47426
G1 X99.926 Y137.999 E22.15197
G1 X99.193 Y137.987 E22.17635
G1 X98.222 Y137.928 E22.2087
G1 X97.293 Y137.789 E22.23995
G1 X96.345 Y137.561 E22.27238
G1 X95.423 Y137.251 E22.30473
G1 X94.498 Y136.845 E22.33833
G1 X93.706 Y136.41 E22.36838
G1 X92.897 Y135.872 E22.4007
G1 X92.082 Y135.215 E22.43551
G1 X91.432 Y134.588 E22.46555
G1 X90.77 Y133.827 E22.4991
G1 X90.178 Y133.009 E22.53268
G1 X89.716 Y132.233 E22.56272
G1 X89.263 Y131.292 E22.59746
G1 X88.925 Y130.392 E22.62943
G1 X88.748 Y129.79 E22.6503
G1 X88.16 Y127.429 E22.73123
G1 X87.482 Y124.971 E22.81603
G1 X86.752 Y122.595 E22.89871
G1 X85.934 Y120.173 E22.98373
G1 X85.071 Y117.84 E23.06647
G1 X84.135 Y115.517 E23.14977
G1 X83.12 Y113.187 E23.2343
G1 X82.052 Y110.913 E23.31786
G1 X80.918 Y108.665 E23.4016
G1 X79.714 Y106.439 E23.48577
G1 X78.488 Y104.319 E23.56723
G1 X77.53 Y102.774 E23.62769
G1 X76.999 Y101.898 E23.66176
G1 X76.639 Y101.255 E23.68627
G1 X76.322 Y100.639 E23.70931
G1 X75.923 Y99.77 E23.74112
G1 X75.607 Y98.886 E23.77234
G1 X75.348 Y97.892 E23.80651
G1 X75.25 Y97.371 E23.82414
G1 X75.15 Y96.751 E23.84503
G1 X75.015 Y95.324 E23.8927
G1 X75.001 Y94.718 E23.91286
G1 X75.001 Y73.525 E24.61774
G1 X75.012 Y72.825 E24.64103
G1 X75.07 Y71.853 E24.67341
G1 X75.202 Y70.96 E24.70344
G1 X75.426 Y70.013 E24.7358
G1 X75.745 Y69.054 E24.76942
G1 X76.135 Y68.162 E24.8018
G1 X76.602 Y67.308 E24.83417
G1 X77.164 Y66.469 E24.86776
G1 X77.731 Y65.765 E24.89783
G1 F2700 E19.89783
;MESH:????????????(?????????).stl
G0 F6000 X85.335 Y73.42
G0 X86.42 Y73.42
G0 X87.161 Y94.909
G0 X87.216 Y95.252
G0 X87.334 Y95.482
G0 X87.517 Y95.665
G0 X87.746 Y95.782
G0 X100.42 Y96.489
G0 X100.549 Y125.828
G0 X119.623 Y126
;TYPE:WALL-INNER
G1 F2700 E24.89783
G1 F1200 X119.623 Y96.905 E25.86553
G1 X119.724 Y96.561 E25.87745
G1 X119.965 Y96.246 E25.89065
G1 X120.152 Y96.117 E25.8982
G1 X120.376 Y96.03 E25.90619
G1 X120.623 Y96 E25.91447
G1 X131.922 Y96 E26.29028
G1 X132.303 Y95.938 E26.30311
G1 X132.578 Y95.798 E26.31338
G1 X132.797 Y95.579 E26.32368
G1 X132.937 Y95.304 E26.33394
G1 X133 Y94.923 E26.34679
G1 X133 Y74 E27.04269
G1 X123 Y74 E27.37529
G1 X123 Y78 E27.50833
G1 X128 Y78 E27.67463
G1 X128.272 Y78.037 E27.68376
G1 X128.514 Y78.141 E27.69252
G1 X128.707 Y78.293 E27.70069
G1 X128.859 Y78.486 E27.70886
G1 X128.963 Y78.728 E27.71762
G1 X129 Y79 E27.72675
G1 X129 Y91 E28.12588
G1 X128.963 Y91.271 E28.13497
G1 X128.859 Y91.514 E28.14376
G1 X128.707 Y91.707 E28.15194
G1 X128.514 Y91.859 E28.16011
G1 X128.271 Y91.963 E28.1689
G1 X128 Y92 E28.178
G1 X92 Y92 E29.37536
G1 X91.728 Y91.963 E29.38449
G1 X91.486 Y91.859 E29.39325
G1 X91.292 Y91.708 E29.40143
G1 X91.141 Y91.514 E29.4096
G1 X91.037 Y91.271 E29.4184
G1 X91 Y91 E29.42749
G1 X91 Y79 E29.82661
G1 X91.037 Y78.728 E29.83574
G1 X91.141 Y78.486 E29.8445
G1 X91.292 Y78.292 E29.85268
G1 X91.486 Y78.141 E29.86086
G1 X91.729 Y78.037 E29.86965
G1 X92 Y78 E29.87875
G1 X97 Y78 E30.04505
G1 X97 Y74 E30.17809
G1 X87.001 Y74.001 E30.51066
G1 X87 Y94.922 E31.20649
G1 X87.062 Y95.303 E31.21933
G1 X87.202 Y95.578 E31.22959
G1 X87.421 Y95.797 E31.23989
G1 X87.696 Y95.937 E31.25016
G1 X88.077 Y96 E31.263
G1 X99.377 Y96 E31.63884
G1 X99.624 Y96.03 E31.64712
G1 X99.848 Y96.117 E31.65511
G1 X100.035 Y96.246 E31.66267
G1 X100.276 Y96.561 E31.67586
G1 X100.377 Y96.905 E31.68778
G1 X100.377 Y126 E32.65549
G1 X119.623 Y126 E33.29561
G0 F6000 X120.023 Y126.4
G1 F1200 X120.028 Y96.92 E34.27612
G1 X120.083 Y96.736 E34.28251
G1 X120.228 Y96.547 E34.29043
G1 X120.509 Y96.4 E34.30098
G1 X131.953 Y96.4 E34.68161
G1 X132.428 Y96.324 E34.69761
G1 X132.816 Y96.126 E34.71209
G1 X133.125 Y95.817 E34.72663
G1 X133.323 Y95.429 E34.74112
G1 X133.4 Y94.955 E34.75709
G1 X133.4 Y73.6 E35.46736
G1 X122.6 Y73.6 E35.82657
G1 X122.6 Y78.4 E35.98622
G1 X128.112 Y78.4 E36.16955
G1 X128.308 Y78.484 E36.17664
G1 X128.516 Y78.692 E36.18642
G1 X128.6 Y79 E36.19704
G1 X128.6 Y91 E36.59616
G1 X128.516 Y91.308 E36.60678
G1 X128.308 Y91.516 E36.61656
G1 X128 Y91.6 E36.62718
G1 X92 Y91.6 E37.82455
G1 X91.692 Y91.516 E37.83517
G1 X91.484 Y91.308 E37.84495
G1 X91.4 Y91 E37.85557
G1 X91.4 Y79 E38.25469
G1 X91.484 Y78.692 E38.26531
G1 X91.692 Y78.484 E38.27509
G1 X91.888 Y78.4 E38.28218
G1 X97.4 Y78.4 E38.46551
G1 X97.4 Y73.6 E38.62516
G1 X86.601 Y73.601 E38.98434
G1 X86.6 Y94.953 E39.69451
G1 X86.676 Y95.428 E39.71051
G1 X86.874 Y95.816 E39.725
G1 X87.183 Y96.125 E39.73953
G1 X87.571 Y96.323 E39.75402
G1 X88.045 Y96.4 E39.76999
G1 X99.491 Y96.4 E40.15069
G1 X99.772 Y96.547 E40.16123
G1 X99.917 Y96.736 E40.16916
G1 X99.972 Y96.92 E40.17554
G1 X99.977 Y126.4 E41.15605
G1 X120.023 Y126.4 E41.82279
G0 F6000 X120.423 Y126.8
;TYPE:WALL-OUTER
G1 F1200 X120.424 Y96.954 E42.81547
G1 X120.463 Y96.88 E42.81825
G1 X120.588 Y96.802 E42.82315
G1 X131.984 Y96.8 E43.20218
G1 X132.554 Y96.709 E43.22138
G1 X133.054 Y96.454 E43.24005
