;FLAVOR:Marlin
;TIME:1527
;Filament used: 0.990495m
;Layer height: 0.2
;MINX:83.032
;MINY:63.629
;MINZ:0.2
;MAXX:137.232
;MAXY:136.378
;MAXZ:10
;Generated with Cura_SteamEngine 5.3.0
M140 S60
M105
M190 S60
M104 S230
M105
M109 S230
M82 ;absolute extrusion mode
; Ender 3 Custom Start G-code
G92 E0 ; Reset Extruder
G28 ; Home all axes
G1 Z2.0 F3000 ; Move Z Axis up little to prevent scratching of Heat Bed
G1 X0.1 Y20 Z0.3 F5000.0 ; Move to start position
G1 X0.1 Y200.0 Z0.3 F1500.0 E15 ; Draw the first line
G1 X0.4 Y200.0 Z0.3 F5000.0 ; Move to side a little
G1 X0.4 Y20 Z0.3 F1500.0 E30 ; Draw the second line
G92 E0 ; Reset Extruder
G1 Z2.0 F3000 ; Move Z Axis up little to prevent scratching of Heat Bed
G1 X5 Y20 Z0.3 F5000.0 ; Move over to prevent blob squish
G92 E0
G92 E0
G1 F2700 E-5
;LAYER_COUNT:50
;LAYER:0
M107
G0 F6000 X91.715 Y77.666 Z0.2
;TYPE:SKIRT
G1 F2700 E0
G1 F1200 X92.473 Y76.772 E0.03898
G1 X93.516 Y75.601 E0.09114
G1 X94.016 Y75.08 E0.11516
G1 X95.003 Y74.127 E0.16079
G1 X95.967 Y73.238 E0.20441
G1 X96.51 Y72.771 E0.22823
G1 X97.637 Y71.874 E0.27613
G1 X98.648 Y71.108 E0.31832
G1 X99.232 Y70.697 E0.34207
G1 X100.24 Y70.039 E0.38211
G1 X101.546 Y69.232 E0.43317
G1 X102.159 Y68.883 E0.45663
G1 X103.371 Y68.251 E0.5021
G1 X104.037 Y67.919 E0.52685
G1 X104.676 Y67.613 E0.55041
G1 X105.233 Y67.368 E0.57065
G1 X106.541 Y66.84 E0.61757
G1 X107.76 Y66.381 E0.66089
G1 X108.458 Y66.147 E0.68537
G1 X109.822 Y65.746 E0.73266
G1 X111.056 Y65.415 E0.77516
G1 X111.745 Y65.256 E0.79867
G1 X112.903 Y65.03 E0.83792
G1 X114.416 Y64.773 E0.88896
G1 X115.127 Y64.679 E0.91281
G1 X116.583 Y64.542 E0.96145
G1 X117.865 Y64.453 E1.0042
G1 X118.58 Y64.429 E1.02799
G1 X119.714 Y64.43 E1.06571
G1 X121.283 Y64.469 E1.11791
G1 X122.001 Y64.513 E1.14183
G1 X123.391 Y64.652 E1.1883
G1 X124.691 Y64.813 E1.23186
G1 X125.392 Y64.925 E1.25548
G1 X126.503 Y65.142 E1.29313
G1 X127.584 Y65.375 E1.32991
G1 X128.292 Y65.54 E1.35409
G1 X129.162 Y65.784 E1.38414
G1 X130.006 Y66.104 E1.41416
G1 X130.819 Y66.497 E1.44419
G1 X131.594 Y66.96 E1.47422
G1 X132.325 Y67.49 E1.50425
G1 X133.007 Y68.083 E1.53431
G1 X133.633 Y68.734 E1.56435
G1 X134.199 Y69.438 E1.59439
G1 X134.701 Y70.189 E1.62444
G1 X135.134 Y70.981 E1.65446
G1 X135.496 Y71.809 E1.68452
G1 X135.783 Y72.665 E1.71454
G1 X135.993 Y73.543 E1.74457
G1 X136.138 Y74.581 E1.77943
G1 X136.393 Y77.482 E1.87629
G1 X136.432 Y78.384 E1.90632
G1 X136.391 Y79.286 E1.93635
G1 X136.21 Y80.49 E1.97684
G1 X136.06 Y81.198 E2.00092
G1 X135.549 Y83.774 E2.08826
G1 X135.126 Y86.275 E2.17263
G1 X134.77 Y88.812 E2.25784
G1 X134.492 Y91.306 E2.3413
G1 X134.281 Y93.847 E2.42611
G1 X134.144 Y96.375 E2.51031
G1 X134.076 Y98.942 E2.59572
G1 X134.082 Y101.478 E2.68007
G1 X134.159 Y104.008 E2.76425
G1 X134.307 Y106.537 E2.84851
G1 X134.528 Y109.069 E2.93305
G1 X134.819 Y111.579 E3.01709
G1 X135.185 Y114.108 E3.10208
G1 X135.616 Y116.597 E3.1861
G1 X136.226 Y119.577 E3.28727
G1 X136.368 Y120.469 E3.31731
G1 X136.43 Y121.37 E3.34735
G1 X136.39 Y122.562 E3.38702
G1 X136.311 Y123.419 E3.41564
G1 X136.246 Y124.243 E3.44313
G1 X136.135 Y125.456 E3.48365
G1 X136.013 Y126.35 E3.51366
G1 X135.811 Y127.231 E3.54372
G1 X135.533 Y128.09 E3.57375
G1 X135.18 Y128.921 E3.60378
G1 X134.755 Y129.718 E3.63382
G1 X134.261 Y130.474 E3.66386
G1 X133.702 Y131.183 E3.69389
G1 X133.082 Y131.84 E3.72393
G1 X132.407 Y132.44 E3.75397
G1 X131.681 Y132.977 E3.784
G1 X130.911 Y133.449 E3.81404
G1 X130.102 Y133.85 E3.84407
G1 X129.261 Y134.178 E3.8741
G1 X128.322 Y134.448 E3.90659
G1 X127.294 Y134.689 E3.94171
G1 X126.323 Y134.899 E3.97476
G1 X125.753 Y135.014 E3.9941
G1 X125.128 Y135.12 E4.01518
G1 X124.025 Y135.272 E4.05221
G1 X122.449 Y135.451 E4.10497
G1 X121.725 Y135.506 E4.12912
G1 X120.316 Y135.559 E4.17601
G1 X119.014 Y135.578 E4.21932
G1 X118.295 Y135.563 E4.24324
G1 X116.891 Y135.481 E4.29002
G1 X115.606 Y135.376 E4.3329
G1 X114.887 Y135.292 E4.35698
G1 X113.729 Y135.114 E4.39595
G1 X112.206 Y134.843 E4.4474
G1 X111.494 Y134.689 E4.47162
G1 X110.382 Y134.406 E4.50979
G1 X108.881 Y133.986 E4.56163
G1 X108.203 Y133.769 E4.58531
G1 X107.128 Y133.383 E4.6233
G1 X105.655 Y132.812 E4.67584
G1 X105.009 Y132.534 E4.69923
G1 X103.689 Y131.907 E4.74784
G1 X102.563 Y131.338 E4.7898
G1 X101.931 Y130.99 E4.81379
G1 X100.709 Y130.256 E4.86121
G1 X99.614 Y129.563 E4.90431
G1 X99.021 Y129.157 E4.92821
G1 X97.912 Y128.337 E4.97408
G1 X96.871 Y127.529 E5.01791
G1 X96.311 Y127.061 E5.04219
G1 X95.269 Y126.121 E5.08886
G1 X94.323 Y125.227 E5.13215
G1 X93.823 Y124.721 E5.15581
G1 X93.039 Y123.869 E5.19432
G1 X92.003 Y122.685 E5.24665
G1 X91.556 Y122.133 E5.27027
G1 X90.678 Y120.966 E5.31885
G1 X89.956 Y119.956 E5.36014
G1 X89.562 Y119.361 E5.38388
G1 X88.937 Y118.343 E5.42361
G1 X88.17 Y117.023 E5.47438
G1 X87.834 Y116.393 E5.49813
G1 X87.314 Y115.328 E5.53755
G1 X86.681 Y113.949 E5.58802
G1 X86.406 Y113.288 E5.61183
G1 X85.905 Y111.939 E5.65969
G1 X85.481 Y110.706 E5.70306
G1 X85.272 Y110.019 E5.72694
G1 X84.909 Y108.648 E5.77411
G1 X84.614 Y107.42 E5.81612
G1 X84.468 Y106.699 E5.84059
G1 X84.27 Y105.5 E5.881
G1 X84.059 Y104.003 E5.93129
G1 X83.985 Y103.292 E5.95506
G1 X83.893 Y101.907 E6.00123
G1 X83.837 Y100.601 E6.04471
G1 X83.832 Y99.873 E6.06892
G1 X83.865 Y98.716 E6.10742
G1 X83.946 Y97.163 E6.15914
G1 X84.01 Y96.449 E6.18298
G1 X84.191 Y95.028 E6.23063
G1 X84.387 Y93.746 E6.27376
G1 X84.518 Y93.054 E6.29719
G1 X84.84 Y91.636 E6.34555
G1 X85.151 Y90.405 E6.38778
G1 X85.351 Y89.714 E6.41171
G1 X85.718 Y88.599 E6.45075
G1 X86.23 Y87.159 E6.50158
G1 X86.497 Y86.488 E6.5256
G1 X86.95 Y85.458 E6.56303
G1 X87.613 Y84.04 E6.61509
G1 X87.946 Y83.391 E6.63935
G1 X88.519 Y82.368 E6.67835
G1 X89.302 Y81.045 E6.72948
G1 X89.696 Y80.433 E6.75369
G1 X90.522 Y79.25 E6.80168
G1 X91.269 Y78.231 E6.8437
G1 X91.715 Y77.666 E6.86765
G0 F6000 X91.41 Y77.407
G1 F1200 X92.174 Y76.506 E6.90694
G1 X93.227 Y75.324 E6.95959
G1 X93.738 Y74.792 E6.98412
G1 X94.732 Y73.833 E7.03006
G1 X95.706 Y72.935 E7.07412
G1 X96.261 Y72.458 E7.09846
G1 X97.395 Y71.555 E7.14668
G1 X98.418 Y70.781 E7.18934
G1 X99.013 Y70.362 E7.21355
G1 X100.03 Y69.699 E7.25393
G1 X101.348 Y68.884 E7.30547
G1 X101.974 Y68.528 E7.32942
G1 X103.193 Y67.893 E7.37514
G1 X103.864 Y67.558 E7.40008
G1 X104.515 Y67.247 E7.42408
G1 X105.083 Y66.997 E7.44472
G1 X106.4 Y66.466 E7.49195
G1 X107.633 Y66.002 E7.53576
G1 X108.345 Y65.763 E7.56074
G1 X109.718 Y65.36 E7.60834
G1 X110.966 Y65.025 E7.65132
G1 X111.668 Y64.863 E7.67528
G1 X112.836 Y64.636 E7.71485
G1 X114.364 Y64.376 E7.7664
G1 X115.09 Y64.281 E7.79076
G1 X116.555 Y64.143 E7.8397
G1 X117.852 Y64.053 E7.88294
G1 X118.58 Y64.029 E7.90717
G1 X119.724 Y64.03 E7.94522
G1 X121.307 Y64.07 E7.99788
G1 X122.041 Y64.115 E8.02234
G1 X123.44 Y64.255 E8.06911
G1 X124.754 Y64.418 E8.11315
G1 X125.469 Y64.532 E8.13723
G1 X126.587 Y64.751 E8.17512
G1 X127.675 Y64.985 E8.21213
G1 X128.4 Y65.155 E8.2369
G1 X129.304 Y65.41 E8.26814
G1 X130.148 Y65.73 E8.29816
G1 X130.993 Y66.137 E8.32936
G1 X131.829 Y66.636 E8.36174
G1 X132.56 Y67.166 E8.39177
G1 X133.269 Y67.781 E8.42299
G1 X133.945 Y68.483 E8.4554
G1 X134.511 Y69.187 E8.48545
G1 X135.034 Y69.967 E8.51668
G1 X135.501 Y70.821 E8.54905
G1 X135.863 Y71.649 E8.57911
G1 X136.172 Y72.572 E8.61148
G1 X136.382 Y73.45 E8.64151
G1 X136.536 Y74.546 E8.67832
G1 X136.793 Y77.465 E8.77578
G1 X136.832 Y78.402 E8.80698
G1 X136.787 Y79.345 E8.83838
G1 X136.606 Y80.549 E8.87887
G1 X136.451 Y81.281 E8.90376
G1 X135.941 Y83.852 E8.99093
G1 X135.52 Y86.342 E9.07493
G1 X135.168 Y88.856 E9.15936
G1 X134.89 Y91.35 E9.24282
G1 X134.679 Y93.88 E9.32726
G1 X134.544 Y96.386 E9.41074
G1 X134.476 Y98.953 E9.49614
G1 X134.482 Y101.466 E9.57973
G1 X134.559 Y103.996 E9.66391
G1 X134.705 Y106.502 E9.74741
G1 X134.925 Y109.023 E9.83157
G1 X135.215 Y111.522 E9.91525
G1 X135.579 Y114.04 E9.99987
G1 X136.008 Y116.517 E10.08348
G1 X136.621 Y119.514 E10.18522
G1 X136.767 Y120.442 E10.21647
G1 X136.83 Y121.383 E10.24784
G1 X136.79 Y122.575 E10.2875
G1 X136.71 Y123.45 E10.31673
G1 X136.644 Y124.279 E10.34439
G1 X136.531 Y125.51 E10.3855
G1 X136.403 Y126.439 E10.41669
G1 X136.192 Y127.354 E10.44793
G1 X135.914 Y128.213 E10.47796
G1 X135.533 Y129.109 E10.51034
G1 X135.09 Y129.937 E10.54157
G1 X134.596 Y130.693 E10.57161
G1 X133.993 Y131.458 E10.60401
G1 X133.373 Y132.115 E10.63405
G1 X132.645 Y132.762 E10.66645
G1 X131.919 Y133.299 E10.69648
G1 X131.12 Y133.79 E10.72767
G1 X130.247 Y134.223 E10.76008
G1 X129.406 Y134.551 E10.79011
G1 X128.413 Y134.837 E10.82448
G1 X127.379 Y135.08 E10.85981
G1 X126.402 Y135.291 E10.89305
G1 X125.82 Y135.408 E10.9128
G1 X125.183 Y135.516 E10.93428
G1 X124.07 Y135.669 E10.97165
G1 X122.479 Y135.85 E11.02491
G1 X121.74 Y135.906 E11.04956
G1 X120.331 Y135.959 E11.09646
G1 X119.006 Y135.978 E11.14053
G1 X118.272 Y135.962 E11.16495
G1 X116.858 Y135.88 E11.21206
G1 X115.56 Y135.773 E11.25538
G1 X114.826 Y135.687 E11.27996
G1 X113.659 Y135.508 E11.31922
G1 X112.121 Y135.234 E11.37118
G1 X111.395 Y135.077 E11.39589
G1 X110.274 Y134.791 E11.43437
G1 X108.759 Y134.367 E11.48669
G1 X108.068 Y134.145 E11.51083
G1 X106.983 Y133.756 E11.54917
G1 X105.497 Y133.179 E11.60219
G1 X104.837 Y132.895 E11.62609
G1 X103.509 Y132.264 E11.67499
G1 X102.37 Y131.688 E11.71744
G1 X101.725 Y131.333 E11.74193
G1 X100.495 Y130.594 E11.78965
G1 X99.388 Y129.893 E11.83323
G1 X98.783 Y129.479 E11.85762
G1 X97.667 Y128.653 E11.9038
G1 X96.614 Y127.836 E11.94812
G1 X96.043 Y127.358 E11.97289
G1 X94.994 Y126.412 E12.01987
G1 X94.038 Y125.508 E12.06364
G1 X93.529 Y124.992 E12.08774
G1 X92.745 Y124.14 E12.12625
G1 X91.692 Y122.937 E12.17943
G1 X91.236 Y122.373 E12.20355
G1 X90.353 Y121.199 E12.25241
G1 X89.622 Y120.177 E12.2942
G1 X89.221 Y119.57 E12.3184
G1 X88.591 Y118.544 E12.35844
G1 X87.817 Y117.211 E12.40971
G1 X87.475 Y116.569 E12.4339
G1 X86.95 Y115.495 E12.47366
G1 X86.312 Y114.103 E12.52459
G1 X86.031 Y113.427 E12.54894
G1 X85.527 Y112.069 E12.59712
G1 X85.098 Y110.822 E12.64098
G1 X84.885 Y110.121 E12.66535
G1 X84.52 Y108.741 E12.71283
G1 X84.222 Y107.499 E12.75531
G1 X84.073 Y106.764 E12.78025
G1 X83.874 Y105.556 E12.82097
G1 X83.661 Y104.044 E12.87176
G1 X83.586 Y103.319 E12.896
G1 X83.493 Y101.924 E12.9425
G1 X83.437 Y100.604 E12.98644
G1 X83.432 Y99.862 E13.01112
G1 X83.466 Y98.695 E13.04995
G1 X83.548 Y97.127 E13.10218
G1 X83.613 Y96.398 E13.12652
G1 X83.796 Y94.968 E13.17447
G1 X83.994 Y93.672 E13.21807
G1 X84.128 Y92.965 E13.24201
G1 X84.452 Y91.538 E13.29068
G1 X84.767 Y90.294 E13.33336
G1 X84.971 Y89.589 E13.35777
G1 X85.341 Y88.465 E13.39713
G1 X85.858 Y87.011 E13.44845
G1 X86.131 Y86.327 E13.47295
G1 X86.588 Y85.289 E13.51067
G1 X87.257 Y83.857 E13.56324
G1 X87.597 Y83.196 E13.58796
G1 X88.175 Y82.164 E13.62731
G1 X88.966 Y80.828 E13.67895
G1 X89.368 Y80.204 E13.70363
G1 X90.199 Y79.014 E13.75191
G1 X90.955 Y77.983 E13.79443
G1 X91.41 Y77.407 E13.81884
G0 F6000 X91.105 Y77.148
G1 F1200 X91.875 Y76.24 E13.85844
G1 X92.939 Y75.047 E13.91161
G1 X93.46 Y74.504 E13.93664
G1 X94.461 Y73.539 E13.98288
G1 X95.445 Y72.632 E14.02739
G1 X96.012 Y72.145 E14.05225
G1 X97.154 Y71.236 E14.1008
G1 X98.188 Y70.454 E14.14392
G1 X98.795 Y70.027 E14.1686
G1 X99.82 Y69.359 E14.2093
G1 X101.15 Y68.536 E14.26132
G1 X101.789 Y68.173 E14.28576
G1 X103.014 Y67.535 E14.3317
G1 X103.692 Y67.197 E14.35689
G1 X104.354 Y66.881 E14.38129
G1 X104.933 Y66.626 E14.40234
G1 X106.259 Y66.092 E14.44988
G1 X107.506 Y65.623 E14.49419
G1 X108.232 Y65.379 E14.51967
G1 X109.614 Y64.974 E14.56756
G1 X110.876 Y64.635 E14.61103
G1 X111.592 Y64.47 E14.63547
G1 X112.769 Y64.242 E14.67534
G1 X114.312 Y63.979 E14.7274
G1 X115.052 Y63.883 E14.75222
G1 X116.527 Y63.744 E14.8015
G1 X117.839 Y63.653 E14.84524
G1 X118.58 Y63.629 E14.8699
G1 X119.734 Y63.63 E14.90828
G1 X121.331 Y63.671 E14.96141
G1 X122.081 Y63.717 E14.9864
G1 X123.489 Y63.858 E15.03347
G1 X124.817 Y64.023 E15.07798
G1 X125.546 Y64.139 E15.10253
G1 X126.671 Y64.36 E15.14066
G1 X127.766 Y64.596 E15.17792
G1 X128.509 Y64.77 E15.2033
G1 X129.413 Y65.025 E15.23454
G1 X130.29 Y65.356 E15.26572
G1 X131.167 Y65.777 E15.29807
G1 X132.064 Y66.312 E15.33281
G1 X132.795 Y66.842 E15.36284
G1 X133.531 Y67.479 E15.39522
G1 X134.257 Y68.232 E15.43001
G1 X134.823 Y68.936 E15.46005
G1 X135.385 Y69.775 E15.49364
G1 X135.868 Y70.661 E15.5272
G1 X136.23 Y71.489 E15.55726
G1 X136.561 Y72.479 E15.59198
G1 X136.778 Y73.394 E15.62325
G1 X136.934 Y74.511 E15.66077
G1 X137.193 Y77.448 E15.75883
G1 X137.232 Y78.421 E15.79122
G1 X137.187 Y79.364 E15.82262
G1 X137.002 Y80.608 E15.86445
G1 X136.842 Y81.364 E15.89015
G1 X136.333 Y83.93 E15.97716
G1 X135.914 Y86.409 E16.06078
G1 X135.566 Y88.9 E16.14444
G1 X135.288 Y91.394 E16.2279
G1 X135.077 Y93.913 E16.31198
G1 X134.944 Y96.397 E16.39471
G1 X134.876 Y98.964 E16.48012
G1 X134.882 Y101.454 E16.56294
G1 X134.959 Y103.984 E16.64713
G1 X135.103 Y106.467 E16.72985
G1 X135.322 Y108.977 E16.81365
G1 X135.611 Y111.465 E16.89696
G1 X135.973 Y113.972 E16.98121
G1 X136.4 Y116.437 E17.06441
G1 X137.016 Y119.452 E17.16676
G1 X137.166 Y120.415 E17.19918
G1 X137.23 Y121.396 E17.23188
G1 X137.19 Y122.588 E17.27155
G1 X136.927 Y125.565 E17.37095
G1 X136.793 Y126.529 E17.40332
G1 X136.573 Y127.477 E17.43569
G1 X136.295 Y128.336 E17.46572
G1 X135.886 Y129.298 E17.50048
G1 X135.443 Y130.126 E17.53172
G1 X134.931 Y130.912 E17.56292
G1 X134.284 Y131.733 E17.59768
G1 X133.664 Y132.39 E17.62773
G1 X132.883 Y133.084 E17.66248
G1 X132.157 Y133.621 E17.69251
G1 X131.329 Y134.131 E17.72486
G1 X130.392 Y134.596 E17.75965
G1 X129.551 Y134.924 E17.78967
G1 X128.505 Y135.226 E17.82588
G1 X127.463 Y135.471 E17.86149
G1 X126.481 Y135.683 E17.8949
G1 X125.887 Y135.802 E17.91505
G1 X125.237 Y135.912 E17.93698
G1 X124.115 Y136.066 E17.97464
G1 X122.509 Y136.249 E18.0284
G1 X121.755 Y136.306 E18.05355
G1 X120.346 Y136.359 E18.10045
G1 X118.997 Y136.378 E18.14532
G1 X118.249 Y136.361 E18.17021
G1 X116.825 Y136.279 E18.21765
G1 X115.513 Y136.17 E18.26144
G1 X114.765 Y136.082 E18.28649
G1 X113.589 Y135.902 E18.32606
G1 X112.036 Y135.625 E18.37853
G1 X111.296 Y135.465 E18.40371
G1 X110.166 Y135.176 E18.4425
G1 X108.637 Y134.748 E18.49531
G1 X107.933 Y134.522 E18.5199
G1 X106.838 Y134.129 E18.5586
G1 X105.339 Y133.546 E18.61209
G1 X104.665 Y133.256 E18.6365
G1 X103.328 Y132.621 E18.68572
G1 X102.177 Y132.038 E18.72864
G1 X101.519 Y131.676 E18.75362
G1 X100.281 Y130.932 E18.80166
G1 X99.162 Y130.223 E18.84572
G1 X98.545 Y129.801 E18.87058
G1 X97.422 Y128.969 E18.91706
G1 X96.357 Y128.143 E18.96189
G1 X95.775 Y127.655 E18.98715
G1 X94.719 Y126.703 E19.03444
G1 X93.753 Y125.789 E19.07867
G1 X93.235 Y125.263 E19.10323
G1 X92.444 Y124.403 E19.14209
G1 X91.381 Y123.188 E19.19578
G1 X90.916 Y122.613 E19.22038
G1 X90.028 Y121.432 E19.26952
G1 X89.288 Y120.397 E19.31184
G1 X88.88 Y119.779 E19.33647
G1 X88.245 Y118.745 E19.37683
G1 X87.464 Y117.399 E19.42859
G1 X87.116 Y116.745 E19.45323
G1 X86.586 Y115.662 E19.49333
G1 X85.943 Y114.257 E19.54472
G1 X85.656 Y113.566 E19.56961
G1 X85.149 Y112.199 E19.6181
G1 X84.715 Y110.938 E19.66246
G1 X84.498 Y110.223 E19.68731
G1 X84.131 Y108.834 E19.73509
G1 X83.83 Y107.578 E19.77805
G1 X83.678 Y106.829 E19.80347
G1 X83.478 Y105.612 E19.84449
G1 X83.263 Y104.085 E19.89578
G1 X83.187 Y103.346 E19.92049
G1 X83.093 Y101.941 E19.96733
G1 X83.037 Y100.607 E20.01173
G1 X83.032 Y99.85 E20.03691
G1 X83.067 Y98.674 E20.07604
G1 X83.15 Y97.091 E20.12877
G1 X83.216 Y96.347 E20.15361
G1 X83.401 Y94.908 E20.20186
G1 X83.601 Y93.598 E20.24594
G1 X83.738 Y92.876 E20.27038
G1 X84.064 Y91.44 E20.31936
G1 X84.383 Y90.183 E20.36249
G1 X84.591 Y89.464 E20.38739
G1 X84.964 Y88.331 E20.42706
G1 X85.486 Y86.863 E20.47888
G1 X85.765 Y86.166 E20.50385
G1 X86.226 Y85.12 E20.54187
G1 X86.901 Y83.674 E20.59495
G1 X87.248 Y83.001 E20.62013
G1 X87.831 Y81.96 E20.65981
G1 X88.63 Y80.611 E20.71196
G1 X89.04 Y79.975 E20.73713
G1 X89.876 Y78.777 E20.78572
G1 X90.641 Y77.735 E20.82871
G1 X91.105 Y77.148 E20.8536
G1 F2700 E15.8536
G0 F6000 X116.19 Y74.135
G0 X118.695 Y73.946
G0 X121.207 Y73.997
G0 X123.703 Y74.29
G0 X126.795 Y74.973
G0 X125.939 Y78.166
