;FLAVOR:Marlin
;TIME:28694
;Filament used: 38.5414m
;Layer height: 0.2
;MINX:41.15
;MINY:54
;MINZ:0.2
;MAXX:220
;MAXY:146
;MAXZ:33
;Generated with Cura_SteamEngine 5.3.0
M140 S60
M105
M190 S60
M104 S230
M105
M109 S230
M82 ;absolute extrusion mode
; Ender 3 Custom Start G-code
G92 E0 ; Reset Extruder
G28 ; Home all axes
G1 Z2.0 F3000 ; Move Z Axis up little to prevent scratching of Heat Bed
G1 X0.1 Y20 Z0.3 F5000.0 ; Move to start position
G1 X0.1 Y200.0 Z0.3 F1500.0 E15 ; Draw the first line
G1 X0.4 Y200.0 Z0.3 F5000.0 ; Move to side a little
G1 X0.4 Y20 Z0.3 F1500.0 E30 ; Draw the second line
G92 E0 ; Reset Extruder
G1 Z2.0 F3000 ; Move Z Axis up little to prevent scratching of Heat Bed
G1 X5 Y20 Z0.3 F5000.0 ; Move over to prevent blob squish
G92 E0
G92 E0
G1 F2700 E-5
;LAYER_COUNT:165
;LAYER:0
M107
G0 F6000 X65.15 Y68 Z0.2
;TYPE:SKIRT
G1 F2700 E0
G1 F1200 X209.15 Y68 E4.78946
G1 X209.15 Y88.379 E5.46727
G1 X208.992 Y88.463 E5.47322
G1 X207.303 Y87.333 E5.54081
G1 X207.231 Y87.303 E5.5434
G1 X205.469 Y86.954 E5.60315
G1 X205.43 Y86.95 E5.60445
G1 X204.17 Y86.95 E5.64636
G1 X204.131 Y86.954 E5.64766
G1 X202.37 Y87.303 E5.70737
G1 X202.298 Y87.333 E5.70997
G1 X200.735 Y88.379 E5.77252
G1 X200.68 Y88.434 E5.77511
G1 X199.635 Y89.997 E5.83764
G1 X199.605 Y90.069 E5.84023
G1 X199.254 Y91.83 E5.89996
G1 X199.25 Y91.869 E5.90126
G1 X199.25 Y94.995 E6.00523
G1 X65.15 Y94.995 E10.46542
G1 X65.15 Y68 E11.36327
G0 F6000 X65.55 Y68.4
G1 F1200 X208.75 Y68.4 E16.12613
G1 X208.75 Y87.819 E16.772
G1 X207.526 Y87 E16.82099
G1 X207.309 Y86.91 E16.8288
G1 X205.547 Y86.561 E16.88854
G1 X205.43 Y86.55 E16.89245
G1 X204.17 Y86.55 E16.93436
G1 X204.053 Y86.561 E16.93827
G1 X202.292 Y86.91 E16.99798
G1 X202.075 Y87 E17.00579
G1 X200.512 Y88.046 E17.06835
G1 X200.347 Y88.212 E17.07613
G1 X199.302 Y89.775 E17.13866
G1 X199.213 Y89.991 E17.14643
G1 X198.862 Y91.752 E17.20616
G1 X198.85 Y91.869 E17.21007
G1 X198.85 Y94.595 E17.30074
G1 X65.55 Y94.595 E21.73431
G1 X65.55 Y68.4 E22.60556
G0 F6000 X65.95 Y68.8
G1 F1200 X208.35 Y68.8 E27.34181
G1 X208.35 Y87.071 E27.9495
G1 X207.748 Y86.668 E27.9736
G1 X207.386 Y86.518 E27.98663
G1 X205.624 Y86.169 E28.04637
G1 X205.43 Y86.15 E28.05286
G1 X204.17 Y86.15 E28.09476
G1 X203.976 Y86.169 E28.10125
G1 X202.215 Y86.518 E28.16096
G1 X201.853 Y86.668 E28.17399
G1 X200.29 Y87.714 E28.23654
G1 X200.015 Y87.989 E28.24948
G1 X198.97 Y89.552 E28.31201
G1 X198.82 Y89.913 E28.32501
G1 X198.469 Y91.674 E28.38474
G1 X198.45 Y91.869 E28.39125
G1 X198.45 Y94.195 E28.46862
G1 X65.95 Y94.195 E32.87558
G1 X65.95 Y68.8 E33.72023
G0 F6000 X66.35 Y69.2
G1 F1200 X207.95 Y69.2 E38.42986
G1 X207.95 Y86.325 E38.99944
G1 X207.673 Y86.184 E39.00978
G1 X207.464 Y86.126 E39.01699
G1 X205.702 Y85.777 E39.07674
G1 X205.43 Y85.75 E39.08583
G1 X204.17 Y85.75 E39.12773
G1 X203.898 Y85.777 E39.13683
G1 X202.137 Y86.126 E39.19654
G1 X201.819 Y86.229 E39.20765
G1 X201.63 Y86.336 E39.21488
G1 X200.067 Y87.382 E39.27743
G1 X199.814 Y87.599 E39.28852
G1 X199.682 Y87.767 E39.29562
G1 X198.637 Y89.33 E39.35816
G1 X198.486 Y89.628 E39.36927
G1 X198.428 Y89.834 E39.37639
G1 X198.077 Y91.595 E39.43611
G1 X198.05 Y91.869 E39.44527
G1 X198.05 Y93.795 E39.50933
G1 X66.35 Y93.795 E43.88969
G1 X66.35 Y69.2 E44.70772
G0 F6000 X66.75 Y69.6
G1 F1200 X207.55 Y69.6 E49.39075
G1 X207.55 Y85.735 E49.9274
G1 X207.542 Y85.733 E49.92767
G1 X205.78 Y85.384 E49.98742
G1 X205.43 Y85.35 E49.99911
G1 X204.17 Y85.35 E50.04102
G1 X203.82 Y85.384 E50.05271
G1 X202.059 Y85.733 E50.11242
G1 X201.697 Y85.846 E50.12504
G1 X201.408 Y86.003 E50.13598
G1 X199.845 Y87.049 E50.19853
G1 X199.554 Y87.292 E50.21114
G1 X199.35 Y87.545 E50.22195
G1 X198.305 Y89.108 E50.28448
G1 X198.128 Y89.443 E50.29708
G1 X198.036 Y89.756 E50.30794
G1 X197.685 Y91.517 E50.36766
G1 X197.65 Y91.869 E50.37942
G1 X197.65 Y93.395 E50.43018
G1 X66.75 Y93.395 E54.78393
G1 X66.75 Y69.6 E55.57536
G0 F6000 X67.15 Y70
G1 F1200 X207.15 Y70 E60.23177
G1 X207.15 Y85.248 E60.73893
G1 X205.857 Y84.992 E60.78277
G1 X205.43 Y84.95 E60.79704
G1 X204.17 Y84.95 E60.83894
G1 X203.742 Y84.992 E60.85325
G1 X201.981 Y85.341 E60.91296
G1 X201.58 Y85.461 E60.92688
G1 X201.185 Y85.671 E60.94176
G1 X199.622 Y86.717 E61.00431
G1 X199.298 Y86.982 E61.01823
G1 X199.017 Y87.322 E61.0329
G1 X197.972 Y88.885 E61.09544
G1 X197.773 Y89.254 E61.10938
G1 X197.643 Y89.678 E61.12413
G1 X197.292 Y91.439 E61.18386
G1 X197.25 Y91.869 E61.19823
G1 X197.25 Y92.995 E61.23568
G1 X67.15 Y92.995 E65.56282
G1 X67.15 Y70 E66.32764
G0 F6000 X67.55 Y70.4
G1 F1200 X206.75 Y70.4 E70.95745
G1 X206.75 Y84.761 E71.4351
G1 X205.935 Y84.6 E71.46273
G1 X205.43 Y84.55 E71.47961
G1 X204.17 Y84.55 E71.52151
G1 X203.665 Y84.6 E71.53839
G1 X201.904 Y84.949 E71.5981
G1 X201.466 Y85.076 E71.61327
G1 X200.963 Y85.338 E71.63213
G1 X199.4 Y86.384 E71.69469
G1 X199.045 Y86.67 E71.70985
G1 X198.685 Y87.1 E71.7285
G1 X197.64 Y88.663 E71.79104
G1 X197.421 Y89.062 E71.80617
G1 X197.251 Y89.6 E71.82494
G1 X196.9 Y91.361 E71.88466
G1 X196.85 Y91.869 E71.90164
G1 X196.85 Y92.595 E71.92579
G1 X67.55 Y92.595 E76.22632
G1 X67.55 Y70.4 E76.96453
G0 F6000 X67.95 Y70.8
G1 F1200 X206.35 Y70.8 E81.56773
G1 X206.35 Y84.274 E82.01588
G1 X206.013 Y84.207 E82.02731
G1 X205.43 Y84.15 E82.04679
G1 X204.17 Y84.15 E82.0887
G1 X203.587 Y84.207 E82.10818
G1 X201.826 Y84.556 E82.16789
G1 X201.355 Y84.69 E82.18418
G1 X200.74 Y85.006 E82.20718
G1 X199.177 Y86.052 E82.26973
G1 X198.794 Y86.356 E82.28599
G1 X198.352 Y86.878 E82.30874
G1 X197.307 Y88.441 E82.37128
G1 X197.069 Y88.868 E82.38754
G1 X196.859 Y89.522 E82.41038
G1 X196.508 Y91.283 E82.47011
G1 X196.45 Y91.869 E82.48969
G1 X196.45 Y92.195 E82.50054
G1 X67.95 Y92.195 E86.77446
G1 X67.95 Y70.8 E87.48606
G0 F6000 X68.35 Y71.2
G1 F1200 X205.95 Y71.2 E92.06266
G1 X205.95 Y83.801 E92.48177
G1 X205.43 Y83.75 E92.49915
G1 X204.17 Y83.75 E92.54105
G1 X203.509 Y83.815 E92.56315
G1 X201.748 Y84.164 E92.62286
G1 X201.246 Y84.304 E92.64019
G1 X200.771 Y84.519 E92.65753
G1 X200.518 Y84.673 E92.66738
G1 X198.955 Y85.719 E92.72994
G1 X198.545 Y86.042 E92.7473
G1 X198.19 Y86.423 E92.76462
G1 X198.02 Y86.655 E92.77418
G1 X196.975 Y88.218 E92.83672
G1 X196.719 Y88.672 E92.85405
G1 X196.536 Y89.16 E92.87139
G1 X196.467 Y89.443 E92.88107
G1 X196.116 Y91.204 E92.9408
G1 X196.057 Y91.795 E92.96055
G1 X68.35 Y91.795 E97.2081
G1 X68.35 Y71.2 E97.8931
G0 F6000 X68.75 Y71.6
G1 F1200 X205.55 Y71.6 E102.44308
G1 X205.55 Y83.362 E102.83429
G1 X205.43 Y83.35 E102.8383
G1 X204.17 Y83.35 E102.88021
G1 X203.431 Y83.422 E102.9049
G1 X201.67 Y83.771 E102.96461
G1 X201.139 Y83.918 E102.98294
G1 X200.634 Y84.139 E103.00127
G1 X200.296 Y84.341 E103.01437
G1 X198.733 Y85.387 E103.07692
G1 X198.298 Y85.726 E103.09527
G1 X197.917 Y86.124 E103.11359
G1 X197.687 Y86.433 E103.1264
G1 X196.642 Y87.996 E103.18894
G1 X196.37 Y88.475 E103.20726
G1 X196.17 Y88.988 E103.22557
G1 X196.074 Y89.365 E103.23851
G1 X195.723 Y91.126 E103.29823
G1 X195.697 Y91.395 E103.30722
G1 X68.75 Y91.395 E107.5295
G1 X68.75 Y71.6 E108.18788
G1 F2700 E103.18788
G0 F6000 X65.55 Y105.395
G1 F2700 E108.18788
G1 F1200 X198.85 Y105.395 E112.62146
G1 X198.85 Y108.131 E112.71246
G1 X198.862 Y108.248 E112.71637
G1 X199.213 Y110.009 E112.77609
G1 X199.302 Y110.225 E112.78386
G1 X200.347 Y111.788 E112.8464
G1 X200.512 Y111.954 E112.85418
G1 X202.075 Y113 E112.91673
G1 X202.292 Y113.09 E112.92455
G1 X204.053 Y113.439 E112.98426
G1 X204.17 Y113.45 E112.98817
G1 X205.43 Y113.45 E113.03007
G1 X205.547 Y113.439 E113.03398
G1 X207.309 Y113.09 E113.09373
G1 X207.526 Y113 E113.10154
G1 X208.75 Y112.181 E113.15052
G1 X208.75 Y131.6 E113.7964
G1 X65.55 Y131.6 E118.55925
G1 X65.55 Y105.395 E119.43083
G0 F6000 X65.15 Y104.995
G1 F1200 X199.25 Y104.995 E123.89102
G1 X199.25 Y108.131 E123.99532
G1 X199.254 Y108.17 E123.99663
G1 X199.605 Y109.931 E124.05635
G1 X199.635 Y110.003 E124.05894
G1 X200.68 Y111.566 E124.12148
G1 X200.735 Y111.621 E124.12406
G1 X202.298 Y112.667 E124.18662
G1 X202.37 Y112.697 E124.18921
G1 X204.131 Y113.046 E124.24892
G1 X204.17 Y113.05 E124.25023
G1 X205.43 Y113.05 E124.29213
G1 X205.469 Y113.046 E124.29344
G1 X207.231 Y112.697 E124.35318
G1 X207.303 Y112.667 E124.35578
G1 X208.992 Y111.537 E124.42336
G1 X209.15 Y111.621 E124.42932
G1 X209.15 Y132 E125.10712
G1 X65.15 Y132 E129.89658
G1 X65.15 Y104.995 E130.79477
G0 F6000 X65.95 Y105.795
G1 F1200 X198.45 Y105.795 E135.20174
G1 X198.45 Y108.131 E135.27944
G1 X198.469 Y108.326 E135.28595
G1 X198.82 Y110.087 E135.34568
G1 X198.97 Y110.448 E135.35868
G1 X200.015 Y112.011 E135.42121
G1 X200.29 Y112.286 E135.43415
G1 X201.853 Y113.332 E135.4967
G1 X202.215 Y113.482 E135.50973
G1 X203.976 Y113.831 E135.56944
G1 X204.17 Y113.85 E135.57593
G1 X205.43 Y113.85 E135.61784
G1 X205.624 Y113.831 E135.62432
G1 X207.386 Y113.482 E135.68406
G1 X207.748 Y113.332 E135.69709
G1 X208.35 Y112.929 E135.72119
G1 X208.35 Y131.2 E136.32889
G1 X65.95 Y131.2 E141.06513
G1 X65.95 Y105.795 E141.9101
G0 F6000 X66.35 Y106.195
G1 F1200 X198.05 Y106.195 E146.29046
G1 X198.05 Y108.131 E146.35485
G1 X198.077 Y108.405 E146.36401
G1 X198.428 Y110.166 E146.42373
G1 X198.532 Y110.483 E146.43483
G1 X198.637 Y110.67 E146.44196
G1 X199.682 Y112.233 E146.5045
G1 X199.9 Y112.487 E146.51563
G1 X200.067 Y112.618 E146.52269
G1 X201.63 Y113.664 E146.58524
G1 X201.928 Y113.816 E146.59637
G1 X202.137 Y113.874 E146.60358
G1 X203.898 Y114.223 E146.66329
G1 X204.17 Y114.25 E146.67239
G1 X205.43 Y114.25 E146.71429
G1 X205.702 Y114.223 E146.72338
G1 X207.464 Y113.874 E146.78313
G1 X207.782 Y113.771 E146.79425
G1 X207.95 Y113.676 E146.80066
G1 X207.95 Y130.8 E147.37021
G1 X66.35 Y130.8 E152.07985
G1 X66.35 Y106.195 E152.89821
G0 F6000 X66.75 Y106.595
G1 F1200 X197.65 Y106.595 E157.25196
G1 X197.65 Y108.131 E157.30305
G1 X197.685 Y108.483 E157.31482
G1 X198.036 Y110.244 E157.37454
G1 X198.149 Y110.606 E157.38715
G1 X198.305 Y110.892 E157.39799
G1 X199.35 Y112.455 E157.46052
G1 X199.592 Y112.747 E157.47314
G1 X199.845 Y112.951 E157.48395
G1 X201.408 Y113.997 E157.5465
G1 X201.743 Y114.173 E157.55908
G1 X202.059 Y114.267 E157.57005
G1 X203.82 Y114.616 E157.62976
G1 X204.17 Y114.65 E157.64146
G1 X205.43 Y114.65 E157.68336
G1 X205.78 Y114.616 E157.69506
G1 X207.542 Y114.267 E157.7548
G1 X207.55 Y114.265 E157.75508
G1 X207.55 Y130.4 E158.29173
G1 X66.75 Y130.4 E162.97476
G1 X66.75 Y106.595 E163.76651
G0 F6000 X67.15 Y106.995
G1 F1200 X197.25 Y106.995 E168.09366
G1 X197.25 Y108.131 E168.13144
G1 X197.292 Y108.561 E168.14581
G1 X197.643 Y110.322 E168.20553
G1 X197.764 Y110.723 E168.21947
G1 X197.972 Y111.115 E168.23423
G1 X199.017 Y112.678 E168.29676
G1 X199.282 Y113.002 E168.31068
G1 X199.622 Y113.283 E168.32535
G1 X201.185 Y114.329 E168.3879
G1 X201.554 Y114.528 E168.40185
G1 X201.981 Y114.659 E168.4167
G1 X203.742 Y115.008 E168.47641
G1 X204.17 Y115.05 E168.49072
G1 X205.43 Y115.05 E168.53263
G1 X205.857 Y115.008 E168.5469
G1 X207.15 Y114.752 E168.59074
G1 X207.15 Y130 E169.09789
G1 X67.15 Y130 E173.75431
G1 X67.15 Y106.995 E174.51946
G0 F6000 X67.55 Y107.395
G1 F1200 X196.85 Y107.395 E178.81999
G1 X196.85 Y108.131 E178.84447
G1 X196.9 Y108.639 E178.86145
G1 X197.251 Y110.4 E178.92117
G1 X197.379 Y110.838 E178.93635
G1 X197.64 Y111.337 E178.95508
G1 X198.685 Y112.9 E179.01761
G1 X198.97 Y113.255 E179.03275
G1 X199.4 Y113.616 E179.05143
G1 X200.963 Y114.662 E179.11398
G1 X201.362 Y114.881 E179.12912
G1 X201.904 Y115.051 E179.14801
G1 X203.665 Y115.4 E179.20772
G1 X204.17 Y115.45 E179.2246
G1 X205.43 Y115.45 E179.26651
G1 X205.935 Y115.4 E179.28339
G1 X206.75 Y115.239 E179.31102
G1 X206.75 Y129.6 E179.78867
G1 X67.55 Y129.6 E184.41848
G1 X67.55 Y107.395 E185.15702
G0 F6000 X67.95 Y107.795
G1 F1200 X196.45 Y107.795 E189.43095
G1 X196.45 Y108.131 E189.44212
G1 X196.508 Y108.717 E189.46171
G1 X196.859 Y110.478 E189.52143
G1 X196.993 Y110.949 E189.53772
G1 X197.307 Y111.559 E189.56054
G1 X198.352 Y113.122 E189.62307
G1 X198.656 Y113.506 E189.63936
G1 X199.177 Y113.948 E189.66209
G1 X200.74 Y114.994 E189.72464
G1 X201.168 Y115.232 E189.74093
G1 X201.826 Y115.444 E189.76392
G1 X203.587 Y115.793 E189.82363
G1 X204.17 Y115.85 E189.84311
G1 X205.43 Y115.85 E189.88502
G1 X206.013 Y115.793 E189.9045
G1 X206.35 Y115.726 E189.91593
G1 X206.35 Y129.2 E190.36408
G1 X67.95 Y129.2 E194.96728
G1 X67.95 Y107.795 E195.67921
G0 F6000 X68.35 Y108.195
G1 F1200 X196.056 Y108.195 E199.92673
G1 X196.116 Y108.796 E199.94682
G1 X196.467 Y110.557 E200.00655
G1 X196.607 Y111.058 E200.02385
G1 X196.823 Y111.533 E200.0412
G1 X196.975 Y111.782 E200.05091
G1 X198.02 Y113.345 E200.11344
G1 X198.342 Y113.755 E200.13078
G1 X198.722 Y114.11 E200.14807
G1 X198.955 Y114.281 E200.15769
G1 X200.518 Y115.327 E200.22024
G1 X200.972 Y115.582 E200.23756
G1 X201.46 Y115.766 E200.25491
G1 X201.748 Y115.836 E200.26476
G1 X203.509 Y116.185 E200.32447
G1 X204.17 Y116.25 E200.34656
G1 X205.43 Y116.25 E200.38847
G1 X205.95 Y116.199 E200.40585
G1 X205.95 Y128.8 E200.82496
G1 X68.35 Y128.8 E205.40156
G1 X68.35 Y108.195 E206.08688
G0 F6000 X68.75 Y108.595
G1 F1200 X195.696 Y108.595 E210.30912
G1 X195.723 Y108.874 E210.31845
G1 X196.074 Y110.635 E210.37817
G1 X196.221 Y111.166 E210.39649
G1 X196.443 Y111.67 E210.41481
G1 X196.642 Y112.004 E210.42774
G1 X197.687 Y113.567 E210.49028
G1 X198.026 Y114.002 E210.50862
G1 X198.424 Y114.383 E210.52694
G1 X198.733 Y114.613 E210.53976
G1 X200.296 Y115.659 E210.60231
G1 X200.774 Y115.932 E210.62062
G1 X201.288 Y116.132 E210.63896
G1 X201.67 Y116.229 E210.65207
G1 X203.431 Y116.578 E210.71178
G1 X204.17 Y116.65 E210.73648
G1 X205.43 Y116.65 E210.77838
G1 X205.55 Y116.638 E210.7824
G1 X205.55 Y128.4 E211.1736
G1 X68.75 Y128.4 E215.72359
G1 X68.75 Y108.595 E216.3823
G1 F2700 E211.3823
G0 F6000 X202.471 Y100.995
G1 F2700 E216.3823
G1 F1200 X202.554 Y100.553 E216.39726
G1 X202.556 Y100.536 E216.39783
G1 X202.601 Y100.079 E216.41311
G1 X202.602 Y100.047 E216.41417
G1 X202.571 Y99.515 E216.43189
G1 X202.566 Y99.483 E216.43297
G1 X202.455 Y98.995 E216.44962
G1 X203.05 Y98.995 E216.46941
G1 X203.169 Y98.956 E216.47357
G1 X203.25 Y98.795 E216.47957
G1 X203.25 Y92.082 E216.70284
G1 X203.414 Y91.467 E216.72401
G1 X203.767 Y91.114 E216.74062
G1 X204.382 Y90.95 E216.76179
G1 X205.218 Y90.95 E216.78959
G1 X205.833 Y91.114 E216.81076
G1 X206.186 Y91.467 E216.82736
G1 X206.35 Y92.082 E216.84853
G1 X206.35 Y94.105 E216.91582
G1 X206.357 Y94.157 E216.91757
G1 X206.708 Y95.467 E216.96267
G1 X206.76 Y95.556 E216.9661
G1 X207.794 Y96.59 E217.01474
G1 X207.883 Y96.642 E217.01817
G1 X209.193 Y96.993 E217.06327
G1 X209.245 Y97 E217.06502
G1 X212.95 Y97 E217.18825
G1 X212.95 Y103 E217.38781
G1 X209.245 Y103 E217.51104
G1 X209.193 Y103.007 E217.51278
G1 X207.883 Y103.358 E217.55789
G1 X207.794 Y103.41 E217.56132
G1 X206.76 Y104.444 E217.60995
G1 X206.708 Y104.533 E217.61338
G1 X206.357 Y105.843 E217.65849
G1 X206.35 Y105.895 E217.66024
G1 X206.35 Y107.918 E217.72752
G1 X206.186 Y108.533 E217.74869
G1 X205.833 Y108.886 E217.76529
G1 X205.218 Y109.05 E217.78646
G1 X204.382 Y109.05 E217.81427
G1 X203.767 Y108.886 E217.83544
G1 X203.414 Y108.533 E217.85204
G1 X203.25 Y107.918 E217.87321
G1 X203.25 Y101.195 E218.09682
G1 X203.211 Y101.076 E218.10099
G1 X203.05 Y100.995 E218.10698
G1 X202.471 Y100.995 E218.12624
G0 F6000 X202.951 Y100.595
G1 F1200 X202.954 Y100.575 E218.12691
G1 X202.999 Y100.118 E218.14218
G1 X203.001 Y100.024 E218.14531
G1 X202.97 Y99.492 E218.16304
G1 X202.956 Y99.395 E218.1663
G1 X203.05 Y99.395 E218.16942
G1 X203.265 Y99.355 E218.1767
G1 X203.451 Y99.242 E218.18393
G1 X203.584 Y99.069 E218.19119
G1 X203.65 Y98.795 E218.20057
G1 X203.65 Y92.136 E218.42205
G1 X203.774 Y91.673 E218.43799
G1 X203.973 Y91.474 E218.44735
G1 X204.436 Y91.35 E218.46329
G1 X205.164 Y91.35 E218.4875
G1 X205.627 Y91.474 E218.50345
G1 X205.826 Y91.673 E218.51281
G1 X205.95 Y92.136 E218.52875
G1 X205.95 Y94.105 E218.59424
G1 X205.97 Y94.26 E218.59944
G1 X206.321 Y95.57 E218.64454
G1 X206.477 Y95.839 E218.65489
G1 X207.511 Y96.873 E218.70352
G1 X207.78 Y97.029 E218.71386
G1 X209.09 Y97.38 E218.75897
G1 X209.245 Y97.4 E218.76417
